P3
400 225
255
204 226 255
204 226 255
204 226 255
204 226 255
204 226 255
204 226 255
204 226 255
204 226 255
204 226 255
204 226 255
204 226 255
204 226 255
204 226 255
204 226 255
204 226 255
203 226 255
203 226 255
203 226 255
203 226 255
203 226 255
203 226 255
203 226 255
203 226 255
203 225 255
203 225 255
203 225 255
203 225 255
203 225 255
203 225 255
203 225 255
203 225 255
203 225 255
202 225 255
202 225 255
202 225 255
202 225 255
202 225 255
202 225 255
202 225 255
202 225 255
202 225 255
202 225 255
202 225 255
202 225 255
202 225 255
202 225 255
202 225 255
202 225 255
201 225 255
201 225 255
201 225 255
201 225 255
201 224 255
201 224 255
201 224 255
201 224 255
201 224 255
201 224 255
201 224 255
201 224 255
201 224 255
201 224 255
201 224 255
200 224 255
200 224 255
200 224 255
200 224 255
200 224 255
200 224 255
200 224 255
200 224 255
200 224 255
200 224 255
200 224 255
200 224 255
200 224 255
200 224 255
200 224 255
199 224 255
199 224 255
199 223 255
199 223 255
199 223 255
199 223 255
199 223 255
199 223 255
199 223 255
199 223 255
199 223 255
199 223 255
199 223 255
199 223 255
198 223 255
198 223 255
198 223 255
198 223 255
198 223 255
198 223 255
198 223 255
198 223 255
198 223 255
198 223 255
198 223 255
198 223 255
198 223 255
198 223 255
197 223 255
197 222 255
197 222 255
197 222 255
197 222 255
197 222 255
197 222 255
197 222 255
197 222 255
197 222 255
197 222 255
197 222 255
197 222 255
197 222 255
197 222 255
196 222 255
196 222 255
196 222 255
196 222 255
196 222 255
196 222 255
196 222 255
196 222 255
196 222 255
196 222 255
196 222 255
196 222 255
196 222 255
196 222 255
196 221 255
196 221 255
195 221 255
195 221 255
195 221 255
195 221 255
195 221 255
195 221 255
195 221 255
195 221 255
195 221 255
195 221 255
195 221 255
195 221 255
195 221 255
195 221 255
195 221 255
195 221 255
195 221 255
195 221 255
194 221 255
194 221 255
194 221 255
194 221 255
194 221 255
194 221 255
194 221 255
194 221 255
194 221 255
194 221 255
194 221 255
194 221 255
194 221 255
194 221 255
194 221 255
194 221 255
194 221 255
194 221 255
194 221 255
194 221 255
194 221 255
194 221 255
194 220 255
194 220 255
194 220 255
194 220 255
194 220 255
194 220 255
194 220 255
194 220 255
194 220 255
193 220 255
193 220 255
193 220 255
193 220 255
193 220 255
193 220 255
193 220 255
193 220 255
193 220 255
193 220 255
193 220 255
193 220 255
193 220 255
193 220 255
193 220 255
193 220 255
193 220 255
193 220 255
193 220 255
193 220 255
193 220 255
193 220 255
193 220 255
193 220 255
193 220 255
193 220 255
193 220 255
193 220 255
194 220 255
194 220 255
194 220 255
194 220 255
194 220 255
194 220 255
194 220 255
194 220 255
194 220 255
194 221 255
194 221 255
194 221 255
194 221 255
194 221 255
194 221 255
194 221 255
194 221 255
194 221 255
194 221 255
194 221 255
194 221 255
194 221 255
194 221 255
194 221 255
194 221 255
194 221 255
194 221 255
194 221 255
194 221 255
194 221 255
194 221 255
195 221 255
195 221 255
195 221 255
195 221 255
195 221 255
195 221 255
195 221 255
195 221 255
195 221 255
195 221 255
195 221 255
195 221 255
195 221 255
195 221 255
195 221 255
195 221 255
195 221 255
195 221 255
196 221 255
196 221 255
196 222 255
196 222 255
196 222 255
196 222 255
196 222 255
196 222 255
196 222 255
196 222 255
196 222 255
196 222 255
196 222 255
196 222 255
196 222 255
196 222 255
197 222 255
197 222 255
197 222 255
197 222 255
197 222 255
197 222 255
197 222 255
197 222 255
197 222 255
197 222 255
197 222 255
197 222 255
197 222 255
197 222 255
197 222 255
198 223 255
198 223 255
198 223 255
198 223 255
198 223 255
198 223 255
198 223 255
198 223 255
198 223 255
198 223 255
198 223 255
198 223 255
198 223 255
198 223 255
199 223 255
199 223 255
199 223 255
199 223 255
199 223 255
199 223 255
199 223 255
199 223 255
199 223 255
199 223 255
199 223 255
199 223 255
199 224 255
199 224 255
200 224 255
200 224 255
200 224 255
200 224 255
200 224 255
200 224 255
200 224 255
200 224 255
200 224 255
200 224 255
200 224 255
200 224 255
200 224 255
200 224 255
200 224 255
201 224 255
201 224 255
201 224 255
201 224 255
201 224 255
201 224 255
201 224 255
201 224 255
201 224 255
201 224 255
201 224 255
201 225 255
201 225 255
201 225 255
201 225 255
202 225 255
202 225 255
202 225 255
202 225 255
202 225 255
202 225 255
202 225 255
202 225 255
202 225 255
202 225 255
202 225 255
202 225 255
202 225 255
202 225 255
202 225 255
202 225 255
203 225 255
203 225 255
203 225 255
203 225 255
203 225 255
203 225 255
203 225 255
203 225 255
203 225 255
203 226 255
203 226 255
203 226 255
203 226 255
203 226 255
203 226 255
203 226 255
203 226 255
204 226 255
204 226 255
204 226 255
204 226 255
204 226 255
204 226 255
204 226 255
204 226 255
204 226 255
204 226 255
204 226 255
204 226 255
204 226 255
204 226 255
204 226 255
204 226 255
204 226 255
204 226 255
204 226 255
204 226 255
204 226 255
204 226 255
204 226 255
204 226 255
204 226 255
204 226 255
204 226 255
204 226 255
204 226 255
204 226 255
204 226 255
204 226 255
204 226 255
203 226 255
203 226 255
203 226 255
203 226 255
203 226 255
203 226 255
203 226 255
203 225 255
203 225 255
203 225 255
203 225 255
203 225 255
203 225 255
203 225 255
203 225 255
203 225 255
202 225 255
202 225 255
202 225 255
202 225 255
202 225 255
202 225 255
202 225 255
202 225 255
202 225 255
202 225 255
202 225 255
202 225 255
202 225 255
202 225 255
202 225 255
202 225 255
201 225 255
201 225 255
201 225 255
201 225 255
201 225 255
201 224 255
201 224 255
201 224 255
201 224 255
201 224 255
201 224 255
201 224 255
201 224 255
201 224 255
201 224 255
200 224 255
200 224 255
200 224 255
200 224 255
200 224 255
200 224 255
200 224 255
200 224 255
200 224 255
200 224 255
200 224 255
200 224 255
200 224 255
200 224 255
200 224 255
199 224 255
199 224 255
199 223 255
199 223 255
199 223 255
199 223 255
199 223 255
199 223 255
199 223 255
199 223 255
199 223 255
199 223 255
199 223 255
199 223 255
198 223 255
198 223 255
198 223 255
198 223 255
198 223 255
198 223 255
198 223 255
198 223 255
198 223 255
198 223 255
198 223 255
198 223 255
198 223 255
198 223 255
197 222 255
197 222 255
197 222 255
197 222 255
197 222 255
197 222 255
197 222 255
197 222 255
197 222 255
197 222 255
197 222 255
197 222 255
197 222 255
197 222 255
197 222 255
196 222 255
196 222 255
196 222 255
196 222 255
196 222 255
196 222 255
196 222 255
196 222 255
196 222 255
196 222 255
196 222 255
196 222 255
196 222 255
196 222 255
196 222 255
196 221 255
195 221 255
195 221 255
195 221 255
195 221 255
195 221 255
195 221 255
195 221 255
195 221 255
195 221 255
195 221 255
195 221 255
195 221 255
195 221 255
195 221 255
195 221 255
195 221 255
195 221 255
195 221 255
195 221 255
194 221 255
194 221 255
194 221 255
194 221 255
194 221 255
194 221 255
194 221 255
194 221 255
194 221 255
194 221 255
194 221 255
194 221 255
194 221 255
194 221 255
194 221 255
194 221 255
194 221 255
194 221 255
194 221 255
194 221 255
194 221 255
194 221 255
194 221 255
194 221 255
194 221 255
194 220 255
194 220 255
194 220 255
194 220 255
194 220 255
194 220 255
194 220 255
194 220 255
194 220 255
194 220 255
194 220 255
194 220 255
194 220 255
194 220 255
194 220 255
194 220 255
194 220 255
194 220 255
194 220 255
194 220 255
194 220 255
194 220 255
194 220 255
194 220 255
194 220 255
194 220 255
194 220 255
194 220 255
194 220 255
194 220 255
194 220 255
194 220 255
194 220 255
194 220 255
194 221 255
194 221 255
194 221 255
194 221 255
194 221 255
194 221 255
194 221 255
194 221 255
194 221 255
194 221 255
194 221 255
194 221 255
194 221 255
194 221 255
194 221 255
194 221 255
194 221 255
194 221 255
194 221 255
194 221 255
194 221 255
194 221 255
194 221 255
194 221 255
194 221 255
195 221 255
195 221 255
195 221 255
195 221 255
195 221 255
195 221 255
195 221 255
195 221 255
195 221 255
195 221 255
195 221 255
195 221 255
195 221 255
195 221 255
195 221 255
195 221 255
195 221 255
195 221 255
195 221 255
196 221 255
196 222 255
196 222 255
196 222 255
196 222 255
196 222 255
196 222 255
196 222 255
196 222 255
196 222 255
196 222 255
196 222 255
196 222 255
196 222 255
196 222 255
196 222 255
197 222 255
197 222 255
197 222 255
197 222 255
197 222 255
197 222 255
197 222 255
197 222 255
197 222 255
197 222 255
197 222 255
197 222 255
197 222 255
197 222 255
197 223 255
198 223 255
198 223 255
198 223 255
198 223 255
198 223 255
198 223 255
198 223 255
198 223 255
198 223 255
198 223 255
198 223 255
198 223 255
198 223 255
198 223 255
199 223 255
199 223 255
199 223 255
199 223 255
199 223 255
199 223 255
199 223 255
199 223 255
199 223 255
199 223 255
199 223 255
199 223 255
199 224 255
199 224 255
200 224 255
200 224 255
200 224 255
200 224 255
200 224 255
200 224 255
200 224 255
200 224 255
200 224 255
200 224 255
200 224 255
200 224 255
200 224 255
200 224 255
200 224 255
201 224 255
201 224 255
201 224 255
201 224 255
201 224 255
201 224 255
201 224 255
201 224 255
201 224 255
201 224 255
201 224 255
201 225 255
201 225 255
201 225 255
201 225 255
202 225 255
202 225 255
202 225 255
202 225 255
202 225 255
202 225 255
202 225 255
202 225 255
202 225 255
202 225 255
202 225 255
202 225 255
202 225 255
202 225 255
202 225 255
202 225 255
203 225 255
203 225 255
203 225 255
203 225 255
203 225 255
203 225 255
203 225 255
203 225 255
203 225 255
203 226 255
203 226 255
203 226 255
203 226 255
203 226 255
203 226 255
203 226 255
204 226 255
204 226 255
204 226 255
204 226 255
204 226 255
204 226 255
204 226 255
204 226 255
204 226 255
204 226 255
204 226 255
204 226 255
204 226 255
204 226 255
204 226 255
204 226 255
204 226 255
204 226 255
205 226 255
205 226 255
204 226 255
204 226 255
204 226 255
204 226 255
204 226 255
204 226 255
204 226 255
204 226 255
204 226 255
204 226 255
204 226 255
204 226 255
204 226 255
204 226 255
204 226 255
204 226 255
204 226 255
204 226 255
203 226 255
203 226 255
203 226 255
203 226 255
203 226 255
203 226 255
203 226 255
203 225 255
203 225 255
203 225 255
203 225 255
203 225 255
203 225 255
203 225 255
203 225 255
203 225 255
203 225 255
202 225 255
202 225 255
202 225 255
202 225 255
202 225 255
202 225 255
202 225 255
202 225 255
202 225 255
202 225 255
202 225 255
202 225 255
202 225 255
202 225 255
202 225 255
201 225 255
201 225 255
201 225 255
201 225 255
201 225 255
201 224 255
201 224 255
201 224 255
201 224 255
201 224 255
201 224 255
201 224 255
201 224 255
201 224 255
201 224 255
200 224 255
200 224 255
200 224 255
200 224 255
200 224 255
200 224 255
200 224 255
200 224 255
200 224 255
200 224 255
200 224 255
200 224 255
200 224 255
200 224 255
200 224 255
199 224 255
199 224 255
199 223 255
199 223 255
199 223 255
199 223 255
199 223 255
199 223 255
199 223 255
199 223 255
199 223 255
199 223 255
199 223 255
199 223 255
198 223 255
198 223 255
198 223 255
198 223 255
198 223 255
198 223 255
198 223 255
198 223 255
198 223 255
198 223 255
198 223 255
198 223 255
198 223 255
198 223 255
197 223 255
197 222 255
197 222 255
197 222 255
197 222 255
197 222 255
197 222 255
197 222 255
197 222 255
197 222 255
197 222 255
197 222 255
197 222 255
197 222 255
197 222 255
196 222 255
196 222 255
196 222 255
196 222 255
196 222 255
196 222 255
196 222 255
196 222 255
196 222 255
196 222 255
196 222 255
196 222 255
196 222 255
196 222 255
196 222 255
196 221 255
195 221 255
195 221 255
195 221 255
195 221 255
195 221 255
195 221 255
195 221 255
195 221 255
195 221 255
195 221 255
195 221 255
195 221 255
195 221 255
195 221 255
195 221 255
195 221 255
195 221 255
195 221 255
195 221 255
195 221 255
195 221 255
194 221 255
194 221 255
194 221 255
194 221 255
194 221 255
194 221 255
194 221 255
194 221 255
194 221 255
194 221 255
194 221 255
194 221 255
194 221 255
194 221 255
194 221 255
194 221 255
194 221 255
194 221 255
194 221 255
194 221 255
194 221 255
194 221 255
194 221 255
194 221 255
194 221 255
194 221 255
194 221 255
194 221 255
194 221 255
194 221 255
194 220 255
194 220 255
194 220 255
194 220 255
194 220 255
194 220 255
194 220 255
194 220 255
194 220 255
194 220 255
194 220 255
194 220 255
194 220 255
194 220 255
194 220 255
194 220 255
194 221 255
194 221 255
194 221 255
194 221 255
194 221 255
194 221 255
194 221 255
194 221 255
194 221 255
194 221 255
194 221 255
194 221 255
194 221 255
194 221 255
194 221 255
194 221 255
194 221 255
194 221 255
194 221 255
194 221 255
194 221 255
194 221 255
194 221 255
194 221 255
194 221 255
194 221 255
194 221 255
194 221 255
194 221 255
194 221 255
195 221 255
195 221 255
195 221 255
195 221 255
195 221 255
195 221 255
195 221 255
195 221 255
195 221 255
195 221 255
195 221 255
195 221 255
195 221 255
195 221 255
195 221 255
195 221 255
195 221 255
195 221 255
195 221 255
195 221 255
195 221 255
196 221 255
196 222 255
196 222 255
196 222 255
196 222 255
196 222 255
196 222 255
196 222 255
196 222 255
196 222 255
196 222 255
196 222 255
196 222 255
196 222 255
196 222 255
196 222 255
197 222 255
197 222 255
197 222 255
197 222 255
197 222 255
197 222 255
197 222 255
197 222 255
197 222 255
197 222 255
197 222 255
197 222 255
197 222 255
197 222 255
197 223 255
198 223 255
198 223 255
198 223 255
198 223 255
198 223 255
198 223 255
198 223 255
198 223 255
198 223 255
198 223 255
198 223 255
198 223 255
198 223 255
198 223 255
199 223 255
199 223 255
199 223 255
199 223 255
199 223 255
199 223 255
199 223 255
199 223 255
199 223 255
199 223 255
199 223 255
199 223 255
199 224 255
199 224 255
200 224 255
200 224 255
200 224 255
200 224 255
200 224 255
200 224 255
200 224 255
200 224 255
200 224 255
200 224 255
200 224 255
200 224 255
200 224 255
200 224 255
200 224 255
201 224 255
201 224 255
201 224 255
201 224 255
201 224 255
201 224 255
201 224 255
201 224 255
201 224 255
201 224 255
201 225 255
201 225 255
201 225 255
201 225 255
201 225 255
202 225 255
202 225 255
202 225 255
202 225 255
202 225 255
202 225 255
202 225 255
202 225 255
202 225 255
202 225 255
202 225 255
202 225 255
202 225 255
202 225 255
202 225 255
203 225 255
203 225 255
203 225 255
203 225 255
203 225 255
203 225 255
203 225 255
203 225 255
203 225 255
203 225 255
203 226 255
203 226 255
203 226 255
203 226 255
203 226 255
203 226 255
203 226 255
204 226 255
204 226 255
204 226 255
204 226 255
204 226 255
204 226 255
204 226 255
204 226 255
204 226 255
204 226 255
204 226 255
204 226 255
204 226 255
204 226 255
204 226 255
204 226 255
204 226 255
204 226 255
205 226 255
205 226 255
205 226 255
205 226 255
205 226 255
205 226 255
205 226 255
204 226 255
204 226 255
204 226 255
204 226 255
204 226 255
204 226 255
204 226 255
204 226 255
204 226 255
204 226 255
204 226 255
204 226 255
204 226 255
204 226 255
204 226 255
204 226 255
204 226 255
203 226 255
203 226 255
203 226 255
203 226 255
203 226 255
203 226 255
203 226 255
203 226 255
203 225 255
203 225 255
203 225 255
203 225 255
203 225 255
203 225 255
203 225 255
203 225 255
203 225 255
202 225 255
202 225 255
202 225 255
202 225 255
202 225 255
202 225 255
202 225 255
202 225 255
202 225 255
202 225 255
202 225 255
202 225 255
202 225 255
202 225 255
202 225 255
201 225 255
201 225 255
201 225 255
201 225 255
201 225 255
201 224 255
201 224 255
201 224 255
201 224 255
201 224 255
201 224 255
201 224 255
201 224 255
201 224 255
201 224 255
200 224 255
200 224 255
200 224 255
200 224 255
200 224 255
200 224 255
200 224 255
200 224 255
200 224 255
200 224 255
200 224 255
200 224 255
200 224 255
200 224 255
200 224 255
199 224 255
199 224 255
199 223 255
199 223 255
199 223 255
199 223 255
199 223 255
199 223 255
199 223 255
199 223 255
199 223 255
199 223 255
199 223 255
199 223 255
198 223 255
198 223 255
198 223 255
198 223 255
198 223 255
198 223 255
198 223 255
198 223 255
198 223 255
198 223 255
198 223 255
198 223 255
198 223 255
198 223 255
197 223 255
197 222 255
197 222 255
197 222 255
197 222 255
197 222 255
197 222 255
197 222 255
197 222 255
197 222 255
197 222 255
197 222 255
197 222 255
197 222 255
197 222 255
196 222 255
196 222 255
196 222 255
196 222 255
196 222 255
196 222 255
196 222 255
196 222 255
196 222 255
196 222 255
196 222 255
196 222 255
196 222 255
196 222 255
196 222 255
196 222 255
196 221 255
195 221 255
195 221 255
195 221 255
195 221 255
195 221 255
195 221 255
195 221 255
195 221 255
195 221 255
195 221 255
195 221 255
195 221 255
195 221 255
195 221 255
195 221 255
195 221 255
195 221 255
195 221 255
195 221 255
195 221 255
195 221 255
194 221 255
194 221 255
194 221 255
194 221 255
194 221 255
194 221 255
194 221 255
194 221 255
194 221 255
194 221 255
194 221 255
194 221 255
194 221 255
194 221 255
194 221 255
194 221 255
194 221 255
194 221 255
194 221 255
194 221 255
194 221 255
194 221 255
194 221 255
194 221 255
194 221 255
194 221 255
194 221 255
194 221 255
194 221 255
194 221 255
194 221 255
194 221 255
194 221 255
194 221 255
194 221 255
194 221 255
194 221 255
194 221 255
194 221 255
194 221 255
194 221 255
194 221 255
194 221 255
194 221 255
194 221 255
194 221 255
194 221 255
194 221 255
194 221 255
194 221 255
194 221 255
194 221 255
194 221 255
194 221 255
194 221 255
194 221 255
194 221 255
194 221 255
194 221 255
194 221 255
194 221 255
194 221 255
194 221 255
194 221 255
194 221 255
194 221 255
194 221 255
194 221 255
194 221 255
194 221 255
195 221 255
195 221 255
195 221 255
195 221 255
195 221 255
195 221 255
195 221 255
195 221 255
195 221 255
195 221 255
195 221 255
195 221 255
195 221 255
195 221 255
195 221 255
195 221 255
195 221 255
195 221 255
195 221 255
195 221 255
195 221 255
196 221 255
196 221 255
196 222 255
196 222 255
196 222 255
196 222 255
196 222 255
196 222 255
196 222 255
196 222 255
196 222 255
196 222 255
196 222 255
196 222 255
196 222 255
196 222 255
196 222 255
197 222 255
197 222 255
197 222 255
197 222 255
197 222 255
197 222 255
197 222 255
197 222 255
197 222 255
197 222 255
197 222 255
197 222 255
197 222 255
197 222 255
197 223 255
198 223 255
198 223 255
198 223 255
198 223 255
198 223 255
198 223 255
198 223 255
198 223 255
198 223 255
198 223 255
198 223 255
198 223 255
198 223 255
198 223 255
199 223 255
199 223 255
199 223 255
199 223 255
199 223 255
199 223 255
199 223 255
199 223 255
199 223 255
199 223 255
199 223 255
199 223 255
199 224 255
199 224 255
200 224 255
200 224 255
200 224 255
200 224 255
200 224 255
200 224 255
200 224 255
200 224 255
200 224 255
200 224 255
200 224 255
200 224 255
200 224 255
200 224 255
200 224 255
201 224 255
201 224 255
201 224 255
201 224 255
201 224 255
201 224 255
201 224 255
201 224 255
201 224 255
201 224 255
201 225 255
201 225 255
201 225 255
201 225 255
201 225 255
202 225 255
202 225 255
202 225 255
202 225 255
202 225 255
202 225 255
202 225 255
202 225 255
202 225 255
202 225 255
202 225 255
202 225 255
202 225 255
202 225 255
202 225 255
203 225 255
203 225 255
203 225 255
203 225 255
203 225 255
203 225 255
203 225 255
203 225 255
203 225 255
203 226 255
203 226 255
203 226 255
203 226 255
203 226 255
203 226 255
203 226 255
203 226 255
204 226 255
204 226 255
204 226 255
204 226 255
204 226 255
204 226 255
204 226 255
204 226 255
204 226 255
204 226 255
204 226 255
204 226 255
204 226 255
204 226 255
204 226 255
204 226 255
204 226 255
204 226 255
205 226 255
205 226 255
205 226 255
205 226 255
205 226 255
205 226 255
205 226 255
205 226 255
205 226 255
205 226 255
205 226 255
204 226 255
204 226 255
204 226 255
204 226 255
204 226 255
204 226 255
204 226 255
204 226 255
204 226 255
204 226 255
204 226 255
204 226 255
204 226 255
204 226 255
204 226 255
204 226 255
204 226 255
203 226 255
203 226 255
203 226 255
203 226 255
203 226 255
203 226 255
203 226 255
203 226 255
203 225 255
203 225 255
203 225 255
203 225 255
203 225 255
203 225 255
203 225 255
203 225 255
203 225 255
202 225 255
202 225 255
202 225 255
202 225 255
202 225 255
202 225 255
202 225 255
202 225 255
202 225 255
202 225 255
202 225 255
202 225 255
202 225 255
202 225 255
202 225 255
201 225 255
201 225 255
201 225 255
201 225 255
201 225 255
201 224 255
201 224 255
201 224 255
201 224 255
201 224 255
201 224 255
201 224 255
201 224 255
201 224 255
201 224 255
200 224 255
200 224 255
200 224 255
200 224 255
200 224 255
200 224 255
200 224 255
200 224 255
200 224 255
200 224 255
200 224 255
200 224 255
200 224 255
200 224 255
200 224 255
199 224 255
199 224 255
199 223 255
199 223 255
199 223 255
199 223 255
199 223 255
199 223 255
199 223 255
199 223 255
199 223 255
199 223 255
199 223 255
199 223 255
198 223 255
198 223 255
198 223 255
198 223 255
198 223 255
198 223 255
198 223 255
198 223 255
198 223 255
198 223 255
198 223 255
198 223 255
198 223 255
198 223 255
198 223 255
197 222 255
197 222 255
197 222 255
197 222 255
197 222 255
197 222 255
197 222 255
197 222 255
197 222 255
197 222 255
197 222 255
197 222 255
197 222 255
197 222 255
197 222 255
196 222 255
196 222 255
196 222 255
196 222 255
196 222 255
196 222 255
196 222 255
196 222 255
196 222 255
196 222 255
196 222 255
196 222 255
196 222 255
196 222 255
196 222 255
196 221 255
196 221 255
195 221 255
195 221 255
195 221 255
195 221 255
195 221 255
195 221 255
195 221 255
195 221 255
195 221 255
195 221 255
195 221 255
195 221 255
195 221 255
195 221 255
195 221 255
195 221 255
195 221 255
195 221 255
195 221 255
195 221 255
195 221 255
195 221 255
194 221 255
194 221 255
194 221 255
194 221 255
194 221 255
194 221 255
194 221 255
194 221 255
194 221 255
194 221 255
194 221 255
194 221 255
194 221 255
194 221 255
194 221 255
194 221 255
194 221 255
194 221 255
194 221 255
194 221 255
194 221 255
194 221 255
194 221 255
194 221 255
194 221 255
194 221 255
194 221 255
194 221 255
194 221 255
194 221 255
194 221 255
194 221 255
194 221 255
194 221 255
194 221 255
194 221 255
194 221 255
194 221 255
194 221 255
194 221 255
194 221 255
194 221 255
194 221 255
194 221 255
194 221 255
194 221 255
194 221 255
194 221 255
194 221 255
194 221 255
194 221 255
194 221 255
194 221 255
194 221 255
194 221 255
194 221 255
194 221 255
194 221 255
194 221 255
194 221 255
194 221 255
194 221 255
195 221 255
195 221 255
195 221 255
195 221 255
195 221 255
195 221 255
195 221 255
195 221 255
195 221 255
195 221 255
195 221 255
195 221 255
195 221 255
195 221 255
195 221 255
195 221 255
195 221 255
195 221 255
195 221 255
195 221 255
195 221 255
195 221 255
196 221 255
196 221 255
196 222 255
196 222 255
196 222 255
196 222 255
196 222 255
196 222 255
196 222 255
196 222 255
196 222 255
196 222 255
196 222 255
196 222 255
196 222 255
196 222 255
196 222 255
197 222 255
197 222 255
197 222 255
197 222 255
197 222 255
197 222 255
197 222 255
197 222 255
197 222 255
197 222 255
197 222 255
197 222 255
197 222 255
197 222 255
197 222 255
198 223 255
198 223 255
198 223 255
198 223 255
198 223 255
198 223 255
198 223 255
198 223 255
198 223 255
198 223 255
198 223 255
198 223 255
198 223 255
198 223 255
198 223 255
199 223 255
199 223 255
199 223 255
199 223 255
199 223 255
199 223 255
199 223 255
199 223 255
199 223 255
199 223 255
199 223 255
199 223 255
199 224 255
199 224 255
200 224 255
200 224 255
200 224 255
200 224 255
200 224 255
200 224 255
200 224 255
200 224 255
200 224 255
200 224 255
200 224 255
200 224 255
200 224 255
200 224 255
200 224 255
201 224 255
201 224 255
201 224 255
201 224 255
201 224 255
201 224 255
201 224 255
201 224 255
201 224 255
201 224 255
201 225 255
201 225 255
201 225 255
201 225 255
201 225 255
202 225 255
202 225 255
202 225 255
202 225 255
202 225 255
202 225 255
202 225 255
202 225 255
202 225 255
202 225 255
202 225 255
202 225 255
202 225 255
202 225 255
202 225 255
203 225 255
203 225 255
203 225 255
203 225 255
203 225 255
203 225 255
203 225 255
203 225 255
203 225 255
203 226 255
203 226 255
203 226 255
203 226 255
203 226 255
203 226 255
203 226 255
203 226 255
204 226 255
204 226 255
204 226 255
204 226 255
204 226 255
204 226 255
204 226 255
204 226 255
204 226 255
204 226 255
204 226 255
204 226 255
204 226 255
204 226 255
204 226 255
204 226 255
204 226 255
205 226 255
205 226 255
205 226 255
205 226 255
205 226 255
205 226 255
205 226 255
205 227 255
205 227 255
205 226 255
205 226 255
205 226 255
205 226 255
205 226 255
205 226 255
205 226 255
204 226 255
204 226 255
204 226 255
204 226 255
204 226 255
204 226 255
204 226 255
204 226 255
204 226 255
204 226 255
204 226 255
204 226 255
204 226 255
204 226 255
204 226 255
204 226 255
204 226 255
204 226 255
203 226 255
203 226 255
203 226 255
203 226 255
203 226 255
203 226 255
203 226 255
203 225 255
203 225 255
203 225 255
203 225 255
203 225 255
203 225 255
203 225 255
203 225 255
203 225 255
202 225 255
202 225 255
202 225 255
202 225 255
202 225 255
202 225 255
202 225 255
202 225 255
202 225 255
202 225 255
202 225 255
202 225 255
202 225 255
202 225 255
202 225 255
202 225 255
201 225 255
201 225 255
201 225 255
201 225 255
201 224 255
201 224 255
201 224 255
201 224 255
201 224 255
201 224 255
201 224 255
201 224 255
201 224 255
201 224 255
200 224 255
200 224 255
200 224 255
200 224 255
200 224 255
200 224 255
200 224 255
200 224 255
200 224 255
200 224 255
200 224 255
200 224 255
200 224 255
200 224 255
200 224 255
199 224 255
199 224 255
199 223 255
199 223 255
199 223 255
199 223 255
199 223 255
199 223 255
199 223 255
199 223 255
199 223 255
199 223 255
199 223 255
199 223 255
198 223 255
198 223 255
198 223 255
198 223 255
198 223 255
198 223 255
198 223 255
198 223 255
198 223 255
198 223 255
198 223 255
198 223 255
198 223 255
198 223 255
198 223 255
197 222 255
197 222 255
197 222 255
197 222 255
197 222 255
197 222 255
197 222 255
197 222 255
197 222 255
197 222 255
197 222 255
197 222 255
197 222 255
197 222 255
197 222 255
196 222 255
196 222 255
196 222 255
196 222 255
196 222 255
196 222 255
196 222 255
196 222 255
196 222 255
196 222 255
196 222 255
196 222 255
196 222 255
196 222 255
196 222 255
196 222 255
196 221 255
196 221 255
195 221 255
195 221 255
195 221 255
195 221 255
195 221 255
195 221 255
195 221 255
195 221 255
195 221 255
195 221 255
195 221 255
195 221 255
195 221 255
195 221 255
195 221 255
195 221 255
195 221 255
195 221 255
195 221 255
195 221 255
195 221 255
195 221 255
195 221 255
194 221 255
194 221 255
194 221 255
194 221 255
194 221 255
194 221 255
194 221 255
194 221 255
194 221 255
194 221 255
194 221 255
194 221 255
194 221 255
194 221 255
194 221 255
194 221 255
194 221 255
194 221 255
194 221 255
194 221 255
194 221 255
194 221 255
194 221 255
194 221 255
194 221 255
194 221 255
194 221 255
194 221 255
194 221 255
194 221 255
194 221 255
194 221 255
194 221 255
194 221 255
194 221 255
194 221 255
194 221 255
194 221 255
194 221 255
194 221 255
194 221 255
194 221 255
194 221 255
194 221 255
194 221 255
194 221 255
194 221 255
194 221 255
194 221 255
194 221 255
194 221 255
194 221 255
194 221 255
194 221 255
195 221 255
195 221 255
195 221 255
195 221 255
195 221 255
195 221 255
195 221 255
195 221 255
195 221 255
195 221 255
195 221 255
195 221 255
195 221 255
195 221 255
195 221 255
195 221 255
195 221 255
195 221 255
195 221 255
195 221 255
195 221 255
195 221 255
195 221 255
195 221 255
196 221 255
196 222 255
196 222 255
196 222 255
196 222 255
196 222 255
196 222 255
196 222 255
196 222 255
196 222 255
196 222 255
196 222 255
196 222 255
196 222 255
196 222 255
196 222 255
196 222 255
197 222 255
197 222 255
197 222 255
197 222 255
197 222 255
197 222 255
197 222 255
197 222 255
197 222 255
197 222 255
197 222 255
197 222 255
197 222 255
197 222 255
197 222 255
198 223 255
198 223 255
198 223 255
198 223 255
198 223 255
198 223 255
198 223 255
198 223 255
198 223 255
198 223 255
198 223 255
198 223 255
198 223 255
198 223 255
198 223 255
199 223 255
199 223 255
199 223 255
199 223 255
199 223 255
199 223 255
199 223 255
199 223 255
199 223 255
199 223 255
199 223 255
199 223 255
199 224 255
199 224 255
200 224 255
200 224 255
200 224 255
200 224 255
200 224 255
200 224 255
200 224 255
200 224 255
200 224 255
200 224 255
200 224 255
200 224 255
200 224 255
200 224 255
200 224 255
201 224 255
201 224 255
201 224 255
201 224 255
201 224 255
201 224 255
201 224 255
201 224 255
201 224 255
201 224 255
201 225 255
201 225 255
201 225 255
201 225 255
202 225 255
202 225 255
202 225 255
202 225 255
202 225 255
202 225 255
202 225 255
202 225 255
202 225 255
202 225 255
202 225 255
202 225 255
202 225 255
202 225 255
202 225 255
202 225 255
203 225 255
203 225 255
203 225 255
203 225 255
203 225 255
203 225 255
203 225 255
203 225 255
203 225 255
203 226 255
203 226 255
203 226 255
203 226 255
203 226 255
203 226 255
203 226 255
204 226 255
204 226 255
204 226 255
204 226 255
204 226 255
204 226 255
204 226 255
204 226 255
204 226 255
204 226 255
204 226 255
204 226 255
204 226 255
204 226 255
204 226 255
204 226 255
204 226 255
204 226 255
205 226 255
205 226 255
205 226 255
205 226 255
205 226 255
205 226 255
205 226 255
205 226 255
205 227 255
205 227 255
205 227 255
205 227 255
205 227 255
205 226 255
205 226 255
205 226 255
205 226 255
205 226 255
205 226 255
205 226 255
205 226 255
204 226 255
204 226 255
204 226 255
204 226 255
204 226 255
204 226 255
204 226 255
204 226 255
204 226 255
204 226 255
204 226 255
204 226 255
204 226 255
204 226 255
204 226 255
204 226 255
204 226 255
203 226 255
203 226 255
203 226 255
203 226 255
203 226 255
203 226 255
203 226 255
203 225 255
203 225 255
203 225 255
203 225 255
203 225 255
203 225 255
203 225 255
203 225 255
203 225 255
202 225 255
202 225 255
202 225 255
202 225 255
202 225 255
202 225 255
202 225 255
202 225 255
202 225 255
202 225 255
202 225 255
202 225 255
202 225 255
202 225 255
202 225 255
202 225 255
201 225 255
201 225 255
201 225 255
201 225 255
201 224 255
201 224 255
201 224 255
201 224 255
201 224 255
201 224 255
201 224 255
201 224 255
201 224 255
201 224 255
201 224 255
200 224 255
200 224 255
200 224 255
200 224 255
200 224 255
200 224 255
200 224 255
200 224 255
200 224 255
200 224 255
200 224 255
200 224 255
200 224 255
200 224 255
199 224 255
199 224 255
199 223 255
199 223 255
199 223 255
199 223 255
199 223 255
199 223 255
199 223 255
199 223 255
199 223 255
199 223 255
199 223 255
199 223 255
198 223 255
198 223 255
198 223 255
198 223 255
198 223 255
198 223 255
198 223 255
198 223 255
198 223 255
198 223 255
198 223 255
198 223 255
198 223 255
198 223 255
198 223 255
197 222 255
197 222 255
197 222 255
197 222 255
197 222 255
197 222 255
197 222 255
197 222 255
197 222 255
197 222 255
197 222 255
197 222 255
197 222 255
197 222 255
197 222 255
196 222 255
196 222 255
196 222 255
196 222 255
196 222 255
196 222 255
196 222 255
196 222 255
196 222 255
196 222 255
196 222 255
196 222 255
196 222 255
196 222 255
196 222 255
196 222 255
196 222 255
196 221 255
195 221 255
195 221 255
195 221 255
195 221 255
195 221 255
195 221 255
195 221 255
195 221 255
195 221 255
195 221 255
195 221 255
195 221 255
195 221 255
195 221 255
195 221 255
195 221 255
195 221 255
195 221 255
195 221 255
195 221 255
195 221 255
195 221 255
195 221 255
195 221 255
195 221 255
195 221 255
194 221 255
194 221 255
194 221 255
194 221 255
194 221 255
194 221 255
194 221 255
194 221 255
194 221 255
194 221 255
194 221 255
194 221 255
194 221 255
194 221 255
194 221 255
194 221 255
194 221 255
194 221 255
194 221 255
194 221 255
194 221 255
194 221 255
194 221 255
194 221 255
194 221 255
194 221 255
194 221 255
194 221 255
194 221 255
194 221 255
194 221 255
194 221 255
194 221 255
194 221 255
194 221 255
194 221 255
194 221 255
194 221 255
194 221 255
194 221 255
194 221 255
194 221 255
194 221 255
194 221 255
195 221 255
195 221 255
195 221 255
195 221 255
195 221 255
195 221 255
195 221 255
195 221 255
195 221 255
195 221 255
195 221 255
195 221 255
195 221 255
195 221 255
195 221 255
195 221 255
195 221 255
195 221 255
195 221 255
195 221 255
195 221 255
195 221 255
195 221 255
195 221 255
195 221 255
195 221 255
196 221 255
196 221 255
196 222 255
196 222 255
196 222 255
196 222 255
196 222 255
196 222 255
196 222 255
196 222 255
196 222 255
196 222 255
196 222 255
196 222 255
196 222 255
196 222 255
196 222 255
196 222 255
197 222 255
197 222 255
197 222 255
197 222 255
197 222 255
197 222 255
197 222 255
197 222 255
197 222 255
197 222 255
197 222 255
197 222 255
197 222 255
197 222 255
197 222 255
198 223 255
198 223 255
198 223 255
198 223 255
198 223 255
198 223 255
198 223 255
198 223 255
198 223 255
198 223 255
198 223 255
198 223 255
198 223 255
198 223 255
198 223 255
199 223 255
199 223 255
199 223 255
199 223 255
199 223 255
199 223 255
199 223 255
199 223 255
199 223 255
199 223 255
199 223 255
199 223 255
199 224 255
199 224 255
200 224 255
200 224 255
200 224 255
200 224 255
200 224 255
200 224 255
200 224 255
200 224 255
200 224 255
200 224 255
200 224 255
200 224 255
200 224 255
200 224 255
201 224 255
201 224 255
201 224 255
201 224 255
201 224 255
201 224 255
201 224 255
201 224 255
201 224 255
201 224 255
201 224 255
201 225 255
201 225 255
201 225 255
201 225 255
202 225 255
202 225 255
202 225 255
202 225 255
202 225 255
202 225 255
202 225 255
202 225 255
202 225 255
202 225 255
202 225 255
202 225 255
202 225 255
202 225 255
202 225 255
202 225 255
203 225 255
203 225 255
203 225 255
203 225 255
203 225 255
203 225 255
203 225 255
203 225 255
203 225 255
203 226 255
203 226 255
203 226 255
203 226 255
203 226 255
203 226 255
203 226 255
204 226 255
204 226 255
204 226 255
204 226 255
204 226 255
204 226 255
204 226 255
204 226 255
204 226 255
204 226 255
204 226 255
204 226 255
204 226 255
204 226 255
204 226 255
204 226 255
204 226 255
205 226 255
205 226 255
205 226 255
205 226 255
205 226 255
205 226 255
205 226 255
205 226 255
205 227 255
205 227 255
205 227 255
205 227 255
205 227 255
205 227 255
205 227 255
205 227 255
205 227 255
205 227 255
205 227 255
205 226 255
205 226 255
205 226 255
205 226 255
205 226 255
205 226 255
205 226 255
204 226 255
204 226 255
204 226 255
204 226 255
204 226 255
204 226 255
204 226 255
204 226 255
204 226 255
204 226 255
204 226 255
204 226 255
204 226 255
204 226 255
204 226 255
204 226 255
204 226 255
203 226 255
203 226 255
203 226 255
203 226 255
203 226 255
203 226 255
203 226 255
203 226 255
203 225 255
203 225 255
203 225 255
203 225 255
203 225 255
203 225 255
203 225 255
203 225 255
203 225 255
202 225 255
202 225 255
202 225 255
202 225 255
202 225 255
202 225 255
202 225 255
202 225 255
202 225 255
202 225 255
202 225 255
202 225 255
202 225 255
202 225 255
202 225 255
201 225 255
201 225 255
201 225 255
201 225 255
201 224 255
201 224 255
201 224 255
201 224 255
201 224 255
201 224 255
201 224 255
201 224 255
201 224 255
201 224 255
201 224 255
200 224 255
200 224 255
200 224 255
200 224 255
200 224 255
200 224 255
200 224 255
200 224 255
200 224 255
200 224 255
200 224 255
200 224 255
200 224 255
200 224 255
199 224 255
199 224 255
199 223 255
199 223 255
199 223 255
199 223 255
199 223 255
199 223 255
199 223 255
199 223 255
199 223 255
199 223 255
199 223 255
199 223 255
198 223 255
198 223 255
198 223 255
198 223 255
198 223 255
198 223 255
198 223 255
198 223 255
198 223 255
198 223 255
198 223 255
198 223 255
198 223 255
198 223 255
198 223 255
197 223 255
197 222 255
197 222 255
197 222 255
197 222 255
197 222 255
197 222 255
197 222 255
197 222 255
197 222 255
197 222 255
197 222 255
197 222 255
197 222 255
197 222 255
197 222 255
196 222 255
196 222 255
196 222 255
196 222 255
196 222 255
196 222 255
196 222 255
196 222 255
196 222 255
196 222 255
196 222 255
196 222 255
196 222 255
196 222 255
196 222 255
196 222 255
196 221 255
196 221 255
195 221 255
195 221 255
195 221 255
195 221 255
195 221 255
195 221 255
195 221 255
195 221 255
195 221 255
195 221 255
195 221 255
195 221 255
195 221 255
195 221 255
195 221 255
195 221 255
195 221 255
195 221 255
195 221 255
195 221 255
195 221 255
195 221 255
195 221 255
195 221 255
195 221 255
195 221 255
195 221 255
195 221 255
195 221 255
195 221 255
194 221 255
194 221 255
194 221 255
194 221 255
194 221 255
194 221 255
194 221 255
194 221 255
194 221 255
194 221 255
194 221 255
194 221 255
194 221 255
194 221 255
194 221 255
194 221 255
194 221 255
194 221 255
194 221 255
194 221 255
194 221 255
194 221 255
194 221 255
194 221 255
194 221 255
194 221 255
194 221 255
194 221 255
194 221 255
194 221 255
195 221 255
195 221 255
195 221 255
195 221 255
195 221 255
195 221 255
195 221 255
195 221 255
195 221 255
195 221 255
195 221 255
195 221 255
195 221 255
195 221 255
195 221 255
195 221 255
195 221 255
195 221 255
195 221 255
195 221 255
195 221 255
195 221 255
195 221 255
195 221 255
195 221 255
195 221 255
195 221 255
195 221 255
195 221 255
195 221 255
196 221 255
196 222 255
196 222 255
196 222 255
196 222 255
196 222 255
196 222 255
196 222 255
196 222 255
196 222 255
196 222 255
196 222 255
196 222 255
196 222 255
196 222 255
196 222 255
196 222 255
196 222 255
197 222 255
197 222 255
197 222 255
197 222 255
197 222 255
197 222 255
197 222 255
197 222 255
197 222 255
197 222 255
197 222 255
197 222 255
197 222 255
197 222 255
197 222 255
197 223 255
198 223 255
198 223 255
198 223 255
198 223 255
198 223 255
198 223 255
198 223 255
198 223 255
198 223 255
198 223 255
198 223 255
198 223 255
198 223 255
198 223 255
198 223 255
199 223 255
199 223 255
199 223 255
199 223 255
199 223 255
199 223 255
199 223 255
199 223 255
199 223 255
199 223 255
199 223 255
199 223 255
199 224 255
199 224 255
200 224 255
200 224 255
200 224 255
200 224 255
200 224 255
200 224 255
200 224 255
200 224 255
200 224 255
200 224 255
200 224 255
200 224 255
200 224 255
200 224 255
201 224 255
201 224 255
201 224 255
201 224 255
201 224 255
201 224 255
201 224 255
201 224 255
201 224 255
201 224 255
201 224 255
201 225 255
201 225 255
201 225 255
201 225 255
202 225 255
202 225 255
202 225 255
202 225 255
202 225 255
202 225 255
202 225 255
202 225 255
202 225 255
202 225 255
202 225 255
202 225 255
202 225 255
202 225 255
202 225 255
203 225 255
203 225 255
203 225 255
203 225 255
203 225 255
203 225 255
203 225 255
203 225 255
203 225 255
203 226 255
203 226 255
203 226 255
203 226 255
203 226 255
203 226 255
203 226 255
203 226 255
204 226 255
204 226 255
204 226 255
204 226 255
204 226 255
204 226 255
204 226 255
204 226 255
204 226 255
204 226 255
204 226 255
204 226 255
204 226 255
204 226 255
204 226 255
204 226 255
204 226 255
205 226 255
205 226 255
205 226 255
205 226 255
205 226 255
205 226 255
205 226 255
205 227 255
205 227 255
205 227 255
205 227 255
205 227 255
205 227 255
205 227 255
205 227 255
205 227 255
205 227 255
205 227 255
205 227 255
205 227 255
205 227 255
205 227 255
205 227 255
205 226 255
205 226 255
205 226 255
205 226 255
205 226 255
205 226 255
205 226 255
204 226 255
204 226 255
204 226 255
204 226 255
204 226 255
204 226 255
204 226 255
204 226 255
204 226 255
204 226 255
204 226 255
204 226 255
204 226 255
204 226 255
204 226 255
204 226 255
204 226 255
204 226 255
203 226 255
203 226 255
203 226 255
203 226 255
203 226 255
203 226 255
203 226 255
203 225 255
203 225 255
203 225 255
203 225 255
203 225 255
203 225 255
203 225 255
203 225 255
203 225 255
202 225 255
202 225 255
202 225 255
202 225 255
202 225 255
202 225 255
202 225 255
202 225 255
202 225 255
202 225 255
202 225 255
202 225 255
202 225 255
202 225 255
202 225 255
201 225 255
201 225 255
201 225 255
201 225 255
201 225 255
201 224 255
201 224 255
201 224 255
201 224 255
201 224 255
201 224 255
201 224 255
201 224 255
201 224 255
201 224 255
200 224 255
200 224 255
200 224 255
200 224 255
200 224 255
200 224 255
200 224 255
200 224 255
200 224 255
200 224 255
200 224 255
200 224 255
200 224 255
200 224 255
199 224 255
199 224 255
199 224 255
199 223 255
199 223 255
199 223 255
199 223 255
199 223 255
199 223 255
199 223 255
199 223 255
199 223 255
199 223 255
199 223 255
199 223 255
198 223 255
198 223 255
198 223 255
198 223 255
198 223 255
198 223 255
198 223 255
198 223 255
198 223 255
198 223 255
198 223 255
198 223 255
198 223 255
198 223 255
197 223 255
197 222 255
197 222 255
197 222 255
197 222 255
197 222 255
197 222 255
197 222 255
197 222 255
197 222 255
197 222 255
197 222 255
197 222 255
197 222 255
197 222 255
197 222 255
196 222 255
196 222 255
196 222 255
196 222 255
196 222 255
196 222 255
196 222 255
196 222 255
196 222 255
196 222 255
196 222 255
196 222 255
196 222 255
196 222 255
196 222 255
196 222 255
196 222 255
196 222 255
196 221 255
196 221 255
195 221 255
195 221 255
195 221 255
195 221 255
195 221 255
195 221 255
195 221 255
195 221 255
195 221 255
195 221 255
195 221 255
195 221 255
195 221 255
195 221 255
195 221 255
195 221 255
195 221 255
195 221 255
195 221 255
195 221 255
195 221 255
195 221 255
195 221 255
195 221 255
195 221 255
195 221 255
195 221 255
195 221 255
195 221 255
195 221 255
195 221 255
195 221 255
195 221 255
195 221 255
195 221 255
195 221 255
195 221 255
195 221 255
195 221 255
195 221 255
195 221 255
195 221 255
195 221 255
195 221 255
195 221 255
195 221 255
195 221 255
195 221 255
195 221 255
195 221 255
195 221 255
195 221 255
195 221 255
195 221 255
195 221 255
195 221 255
195 221 255
195 221 255
195 221 255
195 221 255
195 221 255
195 221 255
195 221 255
195 221 255
195 221 255
195 221 255
195 221 255
195 221 255
195 221 255
195 221 255
195 221 255
195 221 255
195 221 255
195 221 255
195 221 255
195 221 255
195 221 255
195 221 255
195 221 255
195 221 255
195 221 255
195 221 255
196 221 255
196 221 255
196 222 255
196 222 255
196 222 255
196 222 255
196 222 255
196 222 255
196 222 255
196 222 255
196 222 255
196 222 255
196 222 255
196 222 255
196 222 255
196 222 255
196 222 255
196 222 255
196 222 255
196 222 255
197 222 255
197 222 255
197 222 255
197 222 255
197 222 255
197 222 255
197 222 255
197 222 255
197 222 255
197 222 255
197 222 255
197 222 255
197 222 255
197 222 255
197 222 255
197 223 255
198 223 255
198 223 255
198 223 255
198 223 255
198 223 255
198 223 255
198 223 255
198 223 255
198 223 255
198 223 255
198 223 255
198 223 255
198 223 255
198 223 255
199 223 255
199 223 255
199 223 255
199 223 255
199 223 255
199 223 255
199 223 255
199 223 255
199 223 255
199 223 255
199 223 255
199 223 255
199 223 255
199 224 255
199 224 255
200 224 255
200 224 255
200 224 255
200 224 255
200 224 255
200 224 255
200 224 255
200 224 255
200 224 255
200 224 255
200 224 255
200 224 255
200 224 255
200 224 255
201 224 255
201 224 255
201 224 255
201 224 255
201 224 255
201 224 255
201 224 255
201 224 255
201 224 255
201 224 255
201 225 255
201 225 255
201 225 255
201 225 255
201 225 255
202 225 255
202 225 255
202 225 255
202 225 255
202 225 255
202 225 255
202 225 255
202 225 255
202 225 255
202 225 255
202 225 255
202 225 255
202 225 255
202 225 255
202 225 255
203 225 255
203 225 255
203 225 255
203 225 255
203 225 255
203 225 255
203 225 255
203 225 255
203 225 255
203 226 255
203 226 255
203 226 255
203 226 255
203 226 255
203 226 255
203 226 255
204 226 255
204 226 255
204 226 255
204 226 255
204 226 255
204 226 255
204 226 255
204 226 255
204 226 255
204 226 255
204 226 255
204 226 255
204 226 255
204 226 255
204 226 255
204 226 255
204 226 255
204 226 255
205 226 255
205 226 255
205 226 255
205 226 255
205 226 255
205 226 255
205 226 255
205 227 255
205 227 255
205 227 255
205 227 255
205 227 255
205 227 255
205 227 255
205 227 255
205 227 255
205 227 255
205 227 255
205 227 255
205 227 255
205 227 255
205 227 255
205 227 255
205 227 255
205 227 255
205 227 255
205 227 255
205 226 255
205 226 255
205 226 255
205 226 255
205 226 255
205 226 255
205 226 255
205 226 255
204 226 255
204 226 255
204 226 255
204 226 255
204 226 255
204 226 255
204 226 255
204 226 255
204 226 255
204 226 255
204 226 255
204 226 255
204 226 255
204 226 255
204 226 255
204 226 255
204 226 255
203 226 255
203 226 255
203 226 255
203 226 255
203 226 255
203 226 255
203 226 255
203 225 255
203 225 255
203 225 255
203 225 255
203 225 255
203 225 255
203 225 255
203 225 255
203 225 255
202 225 255
202 225 255
202 225 255
202 225 255
202 225 255
202 225 255
202 225 255
202 225 255
202 225 255
202 225 255
202 225 255
202 225 255
202 225 255
202 225 255
202 225 255
201 225 255
201 225 255
201 225 255
201 225 255
201 225 255
201 224 255
201 224 255
201 224 255
201 224 255
201 224 255
201 224 255
201 224 255
201 224 255
201 224 255
201 224 255
200 224 255
200 224 255
200 224 255
200 224 255
200 224 255
200 224 255
200 224 255
200 224 255
200 224 255
200 224 255
200 224 255
200 224 255
200 224 255
200 224 255
199 224 255
199 224 255
199 224 255
199 223 255
199 223 255
199 223 255
199 223 255
199 223 255
199 223 255
199 223 255
199 223 255
199 223 255
199 223 255
199 223 255
199 223 255
198 223 255
198 223 255
198 223 255
198 223 255
198 223 255
198 223 255
198 223 255
198 223 255
198 223 255
198 223 255
198 223 255
198 223 255
198 223 255
198 223 255
198 223 255
197 222 255
197 222 255
197 222 255
197 222 255
197 222 255
197 222 255
197 222 255
197 222 255
197 222 255
197 222 255
197 222 255
197 222 255
197 222 255
197 222 255
197 222 255
197 222 255
196 222 255
196 222 255
196 222 255
196 222 255
196 222 255
196 222 255
196 222 255
196 222 255
196 222 255
196 222 255
196 222 255
196 222 255
196 222 255
196 222 255
196 222 255
196 222 255
196 222 255
196 222 255
196 221 255
196 221 255
195 221 255
195 221 255
195 221 255
195 221 255
195 221 255
195 221 255
195 221 255
195 221 255
195 221 255
195 221 255
195 221 255
195 221 255
195 221 255
195 221 255
195 221 255
195 221 255
195 221 255
195 221 255
195 221 255
195 221 255
195 221 255
195 221 255
195 221 255
195 221 255
195 221 255
195 221 255
195 221 255
195 221 255
195 221 255
195 221 255
195 221 255
195 221 255
195 221 255
195 221 255
195 221 255
195 221 255
195 221 255
195 221 255
195 221 255
195 221 255
195 221 255
195 221 255
195 221 255
195 221 255
195 221 255
195 221 255
195 221 255
195 221 255
195 221 255
195 221 255
195 221 255
195 221 255
195 221 255
195 221 255
195 221 255
195 221 255
195 221 255
195 221 255
195 221 255
195 221 255
195 221 255
195 221 255
195 221 255
195 221 255
195 221 255
195 221 255
195 221 255
195 221 255
195 221 255
195 221 255
195 221 255
195 221 255
195 221 255
195 221 255
195 221 255
195 221 255
196 221 255
196 221 255
196 222 255
196 222 255
196 222 255
196 222 255
196 222 255
196 222 255
196 222 255
196 222 255
196 222 255
196 222 255
196 222 255
196 222 255
196 222 255
196 222 255
196 222 255
196 222 255
196 222 255
196 222 255
197 222 255
197 222 255
197 222 255
197 222 255
197 222 255
197 222 255
197 222 255
197 222 255
197 222 255
197 222 255
197 222 255
197 222 255
197 222 255
197 222 255
197 222 255
197 222 255
198 223 255
198 223 255
198 223 255
198 223 255
198 223 255
198 223 255
198 223 255
198 223 255
198 223 255
198 223 255
198 223 255
198 223 255
198 223 255
198 223 255
198 223 255
199 223 255
199 223 255
199 223 255
199 223 255
199 223 255
199 223 255
199 223 255
199 223 255
199 223 255
199 223 255
199 223 255
199 223 255
199 224 255
199 224 255
199 224 255
200 224 255
200 224 255
200 224 255
200 224 255
200 224 255
200 224 255
200 224 255
200 224 255
200 224 255
200 224 255
200 224 255
200 224 255
200 224 255
200 224 255
201 224 255
201 224 255
201 224 255
201 224 255
201 224 255
201 224 255
201 224 255
201 224 255
201 224 255
201 224 255
201 225 255
201 225 255
201 225 255
201 225 255
202 225 255
202 225 255
202 225 255
202 225 255
202 225 255
202 225 255
202 225 255
202 225 255
202 225 255
202 225 255
202 225 255
202 225 255
202 225 255
202 225 255
202 225 255
202 225 255
203 225 255
203 225 255
203 225 255
203 225 255
203 225 255
203 225 255
203 225 255
203 225 255
203 225 255
203 226 255
203 226 255
203 226 255
203 226 255
203 226 255
203 226 255
203 226 255
204 226 255
204 226 255
204 226 255
204 226 255
204 226 255
204 226 255
204 226 255
204 226 255
204 226 255
204 226 255
204 226 255
204 226 255
204 226 255
204 226 255
204 226 255
204 226 255
204 226 255
205 226 255
205 226 255
205 226 255
205 226 255
205 226 255
205 226 255
205 226 255
205 227 255
205 227 255
205 227 255
205 227 255
205 227 255
205 227 255
205 227 255
205 227 255
205 227 255
205 227 255
205 227 255
205 227 255
206 227 255
206 227 255
206 227 255
205 227 255
205 227 255
205 227 255
205 227 255
205 227 255
205 227 255
205 227 255
205 227 255
205 227 255
205 227 255
205 227 255
205 226 255
205 226 255
205 226 255
205 226 255
205 226 255
205 226 255
205 226 255
204 226 255
204 226 255
204 226 255
204 226 255
204 226 255
204 226 255
204 226 255
204 226 255
204 226 255
204 226 255
204 226 255
204 226 255
204 226 255
204 226 255
204 226 255
204 226 255
204 226 255
203 226 255
203 226 255
203 226 255
203 226 255
203 226 255
203 226 255
203 226 255
203 226 255
203 225 255
203 225 255
203 225 255
203 225 255
203 225 255
203 225 255
203 225 255
203 225 255
202 225 255
202 225 255
202 225 255
202 225 255
202 225 255
202 225 255
202 225 255
202 225 255
202 225 255
202 225 255
202 225 255
202 225 255
202 225 255
202 225 255
202 225 255
201 225 255
201 225 255
201 225 255
201 225 255
201 225 255
201 224 255
201 224 255
201 224 255
201 224 255
201 224 255
201 224 255
201 224 255
201 224 255
201 224 255
201 224 255
200 224 255
200 224 255
200 224 255
200 224 255
200 224 255
200 224 255
200 224 255
200 224 255
200 224 255
200 224 255
200 224 255
200 224 255
200 224 255
200 224 255
200 224 255
199 224 255
199 224 255
199 223 255
199 223 255
199 223 255
199 223 255
199 223 255
199 223 255
199 223 255
199 223 255
199 223 255
199 223 255
199 223 255
199 223 255
198 223 255
198 223 255
198 223 255
198 223 255
198 223 255
198 223 255
198 223 255
198 223 255
198 223 255
198 223 255
198 223 255
198 223 255
198 223 255
198 223 255
198 223 255
197 223 255
197 222 255
197 222 255
197 222 255
197 222 255
197 222 255
197 222 255
197 222 255
197 222 255
197 222 255
197 222 255
197 222 255
197 222 255
197 222 255
197 222 255
197 222 255
197 222 255
196 222 255
196 222 255
196 222 255
196 222 255
196 222 255
196 222 255
196 222 255
196 222 255
196 222 255
196 222 255
196 222 255
196 222 255
196 222 255
196 222 255
196 222 255
196 222 255
196 222 255
196 222 255
196 222 255
196 221 255
196 221 255
195 221 255
195 221 255
195 221 255
195 221 255
195 221 255
195 221 255
195 221 255
195 221 255
195 221 255
195 221 255
195 221 255
195 221 255
195 221 255
195 221 255
195 221 255
195 221 255
195 221 255
195 221 255
195 221 255
195 221 255
195 221 255
195 221 255
195 221 255
195 221 255
195 221 255
195 221 255
195 221 255
195 221 255
195 221 255
195 221 255
195 221 255
195 221 255
195 221 255
195 221 255
195 221 255
195 221 255
195 221 255
195 221 255
195 221 255
195 221 255
195 221 255
195 221 255
195 221 255
195 221 255
195 221 255
195 221 255
195 221 255
195 221 255
195 221 255
195 221 255
195 221 255
195 221 255
195 221 255
195 221 255
195 221 255
195 221 255
195 221 255
195 221 255
195 221 255
195 221 255
195 221 255
195 221 255
195 221 255
195 221 255
195 221 255
195 221 255
195 221 255
195 221 255
196 221 255
196 221 255
196 222 255
196 222 255
196 222 255
196 222 255
196 222 255
196 222 255
196 222 255
196 222 255
196 222 255
196 222 255
196 222 255
196 222 255
196 222 255
196 222 255
196 222 255
196 222 255
196 222 255
196 222 255
196 222 255
197 222 255
197 222 255
197 222 255
197 222 255
197 222 255
197 222 255
197 222 255
197 222 255
197 222 255
197 222 255
197 222 255
197 222 255
197 222 255
197 222 255
197 222 255
197 222 255
197 223 255
198 223 255
198 223 255
198 223 255
198 223 255
198 223 255
198 223 255
198 223 255
198 223 255
198 223 255
198 223 255
198 223 255
198 223 255
198 223 255
198 223 255
198 223 255
199 223 255
199 223 255
199 223 255
199 223 255
199 223 255
199 223 255
199 223 255
199 223 255
199 223 255
199 223 255
199 223 255
199 223 255
199 224 255
199 224 255
200 224 255
200 224 255
200 224 255
200 224 255
200 224 255
200 224 255
200 224 255
200 224 255
200 224 255
200 224 255
200 224 255
200 224 255
200 224 255
200 224 255
200 224 255
201 224 255
201 224 255
201 224 255
201 224 255
201 224 255
201 224 255
201 224 255
201 224 255
201 224 255
201 224 255
201 225 255
201 225 255
201 225 255
201 225 255
202 225 255
202 225 255
202 225 255
202 225 255
202 225 255
202 225 255
202 225 255
202 225 255
202 225 255
202 225 255
202 225 255
202 225 255
202 225 255
202 225 255
202 225 255
202 225 255
203 225 255
203 225 255
203 225 255
203 225 255
203 225 255
203 225 255
203 225 255
203 225 255
203 226 255
203 226 255
203 226 255
203 226 255
203 226 255
203 226 255
203 226 255
203 226 255
204 226 255
204 226 255
204 226 255
204 226 255
204 226 255
204 226 255
204 226 255
204 226 255
204 226 255
204 226 255
204 226 255
204 226 255
204 226 255
204 226 255
204 226 255
204 226 255
204 226 255
205 226 255
205 226 255
205 226 255
205 226 255
205 226 255
205 226 255
205 226 255
205 227 255
205 227 255
205 227 255
205 227 255
205 227 255
205 227 255
205 227 255
205 227 255
205 227 255
205 227 255
205 227 255
206 227 255
206 227 255
206 227 255
206 227 255
206 227 255
206 227 255
206 227 255
206 227 255
205 227 255
205 227 255
205 227 255
205 227 255
205 227 255
205 227 255
205 227 255
205 227 255
205 227 255
205 227 255
205 227 255
205 227 255
205 226 255
205 226 255
205 226 255
205 226 255
205 226 255
205 226 255
205 226 255
204 226 255
204 226 255
204 226 255
204 226 255
204 226 255
204 226 255
204 226 255
204 226 255
204 226 255
204 226 255
204 226 255
204 226 255
204 226 255
204 226 255
204 226 255
204 226 255
204 226 255
203 226 255
203 226 255
203 226 255
203 226 255
203 226 255
203 226 255
203 226 255
203 225 255
203 225 255
203 225 255
203 225 255
203 225 255
203 225 255
203 225 255
203 225 255
203 225 255
202 225 255
202 225 255
202 225 255
202 225 255
202 225 255
202 225 255
202 225 255
202 225 255
202 225 255
202 225 255
202 225 255
202 225 255
202 225 255
202 225 255
202 225 255
201 225 255
201 225 255
201 225 255
201 225 255
201 224 255
201 224 255
201 224 255
201 224 255
201 224 255
201 224 255
201 224 255
201 224 255
201 224 255
201 224 255
200 224 255
200 224 255
200 224 255
200 224 255
200 224 255
200 224 255
200 224 255
200 224 255
200 224 255
200 224 255
200 224 255
200 224 255
200 224 255
200 224 255
200 224 255
199 224 255
199 224 255
199 223 255
199 223 255
199 223 255
199 223 255
199 223 255
199 223 255
199 223 255
199 223 255
199 223 255
199 223 255
199 223 255
199 223 255
198 223 255
198 223 255
198 223 255
198 223 255
198 223 255
198 223 255
198 223 255
198 223 255
198 223 255
198 223 255
198 223 255
198 223 255
198 223 255
198 223 255
198 223 255
198 223 255
197 222 255
197 222 255
197 222 255
197 222 255
197 222 255
197 222 255
197 222 255
197 222 255
197 222 255
197 222 255
197 222 255
197 222 255
197 222 255
197 222 255
197 222 255
197 222 255
197 222 255
196 222 255
196 222 255
196 222 255
196 222 255
196 222 255
196 222 255
196 222 255
196 222 255
196 222 255
196 222 255
196 222 255
196 222 255
196 222 255
196 222 255
196 222 255
196 222 255
196 222 255
196 222 255
196 222 255
196 222 255
196 221 255
196 221 255
195 221 255
195 221 255
195 221 255
195 221 255
195 221 255
195 221 255
195 221 255
195 221 255
195 221 255
195 221 255
195 221 255
195 221 255
195 221 255
195 221 255
195 221 255
195 221 255
195 221 255
195 221 255
195 221 255
195 221 255
195 221 255
195 221 255
195 221 255
195 221 255
195 221 255
195 221 255
195 221 255
195 221 255
195 221 255
195 221 255
195 221 255
195 221 255
195 221 255
195 221 255
195 221 255
195 221 255
195 221 255
195 221 255
195 221 255
195 221 255
195 221 255
195 221 255
195 221 255
195 221 255
195 221 255
195 221 255
195 221 255
195 221 255
195 221 255
195 221 255
195 221 255
195 221 255
195 221 255
195 221 255
195 221 255
195 221 255
195 221 255
195 221 255
195 221 255
195 221 255
196 221 255
196 221 255
196 221 255
196 222 255
196 222 255
196 222 255
196 222 255
196 222 255
196 222 255
196 222 255
196 222 255
196 222 255
196 222 255
196 222 255
196 222 255
196 222 255
196 222 255
196 222 255
196 222 255
196 222 255
196 222 255
196 222 255
197 222 255
197 222 255
197 222 255
197 222 255
197 222 255
197 222 255
197 222 255
197 222 255
197 222 255
197 222 255
197 222 255
197 222 255
197 222 255
197 222 255
197 222 255
197 222 255
197 222 255
198 223 255
198 223 255
198 223 255
198 223 255
198 223 255
198 223 255
198 223 255
198 223 255
198 223 255
198 223 255
198 223 255
198 223 255
198 223 255
198 223 255
198 223 255
198 223 255
199 223 255
199 223 255
199 223 255
199 223 255
199 223 255
199 223 255
199 223 255
199 223 255
199 223 255
199 223 255
199 223 255
199 223 255
199 224 255
199 224 255
200 224 255
200 224 255
200 224 255
200 224 255
200 224 255
200 224 255
200 224 255
200 224 255
200 224 255
200 224 255
200 224 255
200 224 255
200 224 255
200 224 255
201 224 255
201 224 255
201 224 255
201 224 255
201 224 255
201 224 255
201 224 255
201 224 255
201 224 255
201 224 255
201 224 255
201 225 255
201 225 255
201 225 255
201 225 255
202 225 255
202 225 255
202 225 255
202 225 255
202 225 255
202 225 255
202 225 255
202 225 255
202 225 255
202 225 255
202 225 255
202 225 255
202 225 255
202 225 255
202 225 255
202 225 255
203 225 255
203 225 255
203 225 255
203 225 255
203 225 255
203 225 255
203 225 255
203 225 255
203 226 255
203 226 255
203 226 255
203 226 255
203 226 255
203 226 255
203 226 255
204 226 255
204 226 255
204 226 255
204 226 255
204 226 255
204 226 255
204 226 255
204 226 255
204 226 255
204 226 255
204 226 255
204 226 255
204 226 255
204 226 255
204 226 255
204 226 255
204 226 255
205 226 255
205 226 255
205 226 255
205 226 255
205 226 255
205 226 255
205 226 255
205 227 255
205 227 255
205 227 255
205 227 255
205 227 255
205 227 255
205 227 255
205 227 255
205 227 255
205 227 255
205 227 255
205 227 255
206 227 255
206 227 255
206 227 255
206 227 255
206 227 255
206 227 255
206 227 255
206 227 255
206 227 255
206 227 255
206 227 255
206 227 255
206 227 255
205 227 255
205 227 255
205 227 255
205 227 255
205 227 255
205 227 255
205 227 255
205 227 255
205 227 255
205 227 255
205 227 255
205 226 255
205 226 255
205 226 255
205 226 255
205 226 255
205 226 255
205 226 255
204 226 255
204 226 255
204 226 255
204 226 255
204 226 255
204 226 255
204 226 255
204 226 255
204 226 255
204 226 255
204 226 255
204 226 255
204 226 255
204 226 255
204 226 255
204 226 255
204 226 255
203 226 255
203 226 255
203 226 255
203 226 255
203 226 255
203 226 255
203 226 255
203 225 255
203 225 255
203 225 255
203 225 255
203 225 255
203 225 255
203 225 255
203 225 255
203 225 255
202 225 255
202 225 255
202 225 255
202 225 255
202 225 255
202 225 255
202 225 255
202 225 255
202 225 255
202 225 255
202 225 255
202 225 255
202 225 255
202 225 255
202 225 255
201 225 255
201 225 255
201 225 255
201 225 255
201 224 255
201 224 255
201 224 255
201 224 255
201 224 255
201 224 255
201 224 255
201 224 255
201 224 255
201 224 255
201 224 255
200 224 255
200 224 255
200 224 255
200 224 255
200 224 255
200 224 255
200 224 255
200 224 255
200 224 255
200 224 255
200 224 255
200 224 255
200 224 255
200 224 255
199 224 255
199 224 255
199 223 255
199 223 255
199 223 255
199 223 255
199 223 255
199 223 255
199 223 255
199 223 255
199 223 255
199 223 255
199 223 255
199 223 255
199 223 255
198 223 255
198 223 255
198 223 255
198 223 255
198 223 255
198 223 255
198 223 255
198 223 255
198 223 255
198 223 255
198 223 255
198 223 255
198 223 255
198 223 255
198 223 255
197 223 255
197 222 255
197 222 255
197 222 255
197 222 255
197 222 255
197 222 255
197 222 255
197 222 255
197 222 255
197 222 255
197 222 255
197 222 255
197 222 255
197 222 255
197 222 255
197 222 255
197 222 255
196 222 255
196 222 255
196 222 255
196 222 255
196 222 255
196 222 255
196 222 255
196 222 255
196 222 255
196 222 255
196 222 255
196 222 255
196 222 255
196 222 255
196 222 255
196 222 255
196 222 255
196 222 255
196 222 255
196 222 255
196 222 255
196 221 255
196 221 255
196 221 255
195 221 255
195 221 255
195 221 255
195 221 255
195 221 255
195 221 255
195 221 255
195 221 255
195 221 255
195 221 255
195 221 255
195 221 255
195 221 255
195 221 255
195 221 255
195 221 255
195 221 255
195 221 255
195 221 255
195 221 255
195 221 255
195 221 255
195 221 255
195 221 255
195 221 255
195 221 255
195 221 255
195 221 255
195 221 255
195 221 255
195 221 255
195 221 255
195 221 255
195 221 255
195 221 255
195 221 255
195 221 255
195 221 255
195 221 255
195 221 255
195 221 255
195 221 255
195 221 255
195 221 255
195 221 255
195 221 255
195 221 255
195 221 255
195 221 255
195 221 255
196 221 255
196 221 255
196 221 255
196 222 255
196 222 255
196 222 255
196 222 255
196 222 255
196 222 255
196 222 255
196 222 255
196 222 255
196 222 255
196 222 255
196 222 255
196 222 255
196 222 255
196 222 255
196 222 255
196 222 255
196 222 255
196 222 255
196 222 255
196 222 255
197 222 255
197 222 255
197 222 255
197 222 255
197 222 255
197 222 255
197 222 255
197 222 255
197 222 255
197 222 255
197 222 255
197 222 255
197 222 255
197 222 255
197 222 255
197 222 255
197 222 255
197 223 255
198 223 255
198 223 255
198 223 255
198 223 255
198 223 255
198 223 255
198 223 255
198 223 255
198 223 255
198 223 255
198 223 255
198 223 255
198 223 255
198 223 255
198 223 255
199 223 255
199 223 255
199 223 255
199 223 255
199 223 255
199 223 255
199 223 255
199 223 255
199 223 255
199 223 255
199 223 255
199 223 255
199 223 255
199 224 255
199 224 255
200 224 255
200 224 255
200 224 255
200 224 255
200 224 255
200 224 255
200 224 255
200 224 255
200 224 255
200 224 255
200 224 255
200 224 255
200 224 255
200 224 255
201 224 255
201 224 255
201 224 255
201 224 255
201 224 255
201 224 255
201 224 255
201 224 255
201 224 255
201 224 255
201 224 255
201 225 255
201 225 255
201 225 255
201 225 255
202 225 255
202 225 255
202 225 255
202 225 255
202 225 255
202 225 255
202 225 255
202 225 255
202 225 255
202 225 255
202 225 255
202 225 255
202 225 255
202 225 255
202 225 255
203 225 255
203 225 255
203 225 255
203 225 255
203 225 255
203 225 255
203 225 255
203 225 255
203 225 255
203 226 255
203 226 255
203 226 255
203 226 255
203 226 255
203 226 255
203 226 255
204 226 255
204 226 255
204 226 255
204 226 255
204 226 255
204 226 255
204 226 255
204 226 255
204 226 255
204 226 255
204 226 255
204 226 255
204 226 255
204 226 255
204 226 255
204 226 255
204 226 255
205 226 255
205 226 255
205 226 255
205 226 255
205 226 255
205 226 255
205 226 255
205 227 255
205 227 255
205 227 255
205 227 255
205 227 255
205 227 255
205 227 255
205 227 255
205 227 255
205 227 255
205 227 255
206 227 255
206 227 255
206 227 255
206 227 255
206 227 255
206 227 255
206 227 255
206 227 255
206 227 255
206 227 255
206 227 255
206 227 255
206 227 255
206 227 255
206 227 255
206 227 255
206 227 255
206 227 255
206 227 255
205 227 255
205 227 255
205 227 255
205 227 255
205 227 255
205 227 255
205 227 255
205 227 255
205 227 255
205 227 255
205 227 255
205 226 255
205 226 255
205 226 255
205 226 255
205 226 255
205 226 255
205 226 255
204 226 255
204 226 255
204 226 255
204 226 255
204 226 255
204 226 255
204 226 255
204 226 255
204 226 255
204 226 255
204 226 255
204 226 255
204 226 255
204 226 255
204 226 255
204 226 255
204 226 255
203 226 255
203 226 255
203 226 255
203 226 255
203 226 255
203 226 255
203 226 255
203 225 255
203 225 255
203 225 255
203 225 255
203 225 255
203 225 255
203 225 255
203 225 255
202 225 255
202 225 255
202 225 255
202 225 255
202 225 255
202 225 255
202 225 255
202 225 255
202 225 255
202 225 255
202 225 255
202 225 255
202 225 255
202 225 255
202 225 255
201 225 255
201 225 255
201 225 255
201 225 255
201 225 255
201 224 255
201 224 255
201 224 255
201 224 255
201 224 255
201 224 255
201 224 255
201 224 255
201 224 255
201 224 255
200 224 255
200 224 255
200 224 255
200 224 255
200 224 255
200 224 255
200 224 255
200 224 255
200 224 255
200 224 255
200 224 255
200 224 255
200 224 255
200 224 255
199 224 255
199 224 255
199 224 255
199 223 255
199 223 255
199 223 255
199 223 255
199 223 255
199 223 255
199 223 255
199 223 255
199 223 255
199 223 255
199 223 255
199 223 255
198 223 255
198 223 255
198 223 255
198 223 255
198 223 255
198 223 255
198 223 255
198 223 255
198 223 255
198 223 255
198 223 255
198 223 255
198 223 255
198 223 255
198 223 255
198 223 255
197 222 255
197 222 255
197 222 255
197 222 255
197 222 255
197 222 255
197 222 255
197 222 255
197 222 255
197 222 255
197 222 255
197 222 255
197 222 255
197 222 255
197 222 255
197 222 255
197 222 255
197 222 255
196 222 255
196 222 255
196 222 255
196 222 255
196 222 255
196 222 255
196 222 255
196 222 255
196 222 255
196 222 255
196 222 255
196 222 255
196 222 255
196 222 255
196 222 255
196 222 255
196 222 255
196 222 255
196 222 255
196 222 255
196 222 255
196 222 255
196 222 255
196 222 255
196 221 255
196 221 255
196 221 255
195 221 255
195 221 255
195 221 255
195 221 255
195 221 255
195 221 255
195 221 255
195 221 255
195 221 255
195 221 255
195 221 255
195 221 255
195 221 255
195 221 255
195 221 255
195 221 255
195 221 255
195 221 255
195 221 255
195 221 255
195 221 255
195 221 255
195 221 255
195 221 255
195 221 255
195 221 255
195 221 255
195 221 255
195 221 255
195 221 255
195 221 255
195 221 255
195 221 255
195 221 255
195 221 255
195 221 255
195 221 255
195 221 255
196 221 255
196 221 255
196 221 255
196 221 255
196 222 255
196 222 255
196 222 255
196 222 255
196 222 255
196 222 255
196 222 255
196 222 255
196 222 255
196 222 255
196 222 255
196 222 255
196 222 255
196 222 255
196 222 255
196 222 255
196 222 255
196 222 255
196 222 255
196 222 255
196 222 255
196 222 255
196 222 255
197 222 255
197 222 255
197 222 255
197 222 255
197 222 255
197 222 255
197 222 255
197 222 255
197 222 255
197 222 255
197 222 255
197 222 255
197 222 255
197 222 255
197 222 255
197 222 255
197 222 255
197 222 255
198 223 255
198 223 255
198 223 255
198 223 255
198 223 255
198 223 255
198 223 255
198 223 255
198 223 255
198 223 255
198 223 255
198 223 255
198 223 255
198 223 255
198 223 255
198 223 255
199 223 255
199 223 255
199 223 255
199 223 255
199 223 255
199 223 255
199 223 255
199 223 255
199 223 255
199 223 255
199 223 255
199 223 255
199 224 255
199 224 255
199 224 255
200 224 255
200 224 255
200 224 255
200 224 255
200 224 255
200 224 255
200 224 255
200 224 255
200 224 255
200 224 255
200 224 255
200 224 255
200 224 255
200 224 255
201 224 255
201 224 255
201 224 255
201 224 255
201 224 255
201 224 255
201 224 255
201 224 255
201 224 255
201 224 255
201 225 255
201 225 255
201 225 255
201 225 255
201 225 255
202 225 255
202 225 255
202 225 255
202 225 255
202 225 255
202 225 255
202 225 255
202 225 255
202 225 255
202 225 255
202 225 255
202 225 255
202 225 255
202 225 255
202 225 255
203 225 255
203 225 255
203 225 255
203 225 255
203 225 255
203 225 255
203 225 255
203 225 255
203 226 255
203 226 255
203 226 255
203 226 255
203 226 255
203 226 255
203 226 255
204 226 255
204 226 255
204 226 255
204 226 255
204 226 255
204 226 255
204 226 255
204 226 255
204 226 255
204 226 255
204 226 255
204 226 255
204 226 255
204 226 255
204 226 255
204 226 255
204 226 255
205 226 255
205 226 255
205 226 255
205 226 255
205 226 255
205 226 255
205 226 255
205 227 255
205 227 255
205 227 255
205 227 255
205 227 255
205 227 255
205 227 255
205 227 255
205 227 255
205 227 255
205 227 255
206 227 255
206 227 255
206 227 255
206 227 255
206 227 255
206 227 255
206 227 255
206 227 255
206 227 255
206 227 255
206 227 255
206 227 255
206 227 255
206 227 255
206 227 255
206 227 255
206 227 255
206 227 255
206 227 255
206 227 255
206 227 255
206 227 255
206 227 255
206 227 255
205 227 255
205 227 255
205 227 255
205 227 255
205 227 255
205 227 255
205 227 255
205 227 255
205 227 255
205 227 255
205 227 255
205 226 255
205 226 255
205 226 255
205 226 255
205 226 255
205 226 255
205 226 255
204 226 255
204 226 255
204 226 255
204 226 255
204 226 255
204 226 255
204 226 255
204 226 255
204 226 255
204 226 255
204 226 255
204 226 255
204 226 255
204 226 255
204 226 255
204 226 255
204 226 255
203 226 255
203 226 255
203 226 255
203 226 255
203 226 255
203 226 255
203 226 255
203 225 255
203 225 255
203 225 255
203 225 255
203 225 255
203 225 255
203 225 255
203 225 255
203 225 255
202 225 255
202 225 255
202 225 255
202 225 255
202 225 255
202 225 255
202 225 255
202 225 255
202 225 255
202 225 255
202 225 255
202 225 255
202 225 255
202 225 255
202 225 255
201 225 255
201 225 255
201 225 255
201 225 255
201 224 255
201 224 255
201 224 255
201 224 255
201 224 255
201 224 255
201 224 255
201 224 255
201 224 255
201 224 255
200 224 255
200 224 255
200 224 255
200 224 255
200 224 255
200 224 255
200 224 255
200 224 255
200 224 255
200 224 255
200 224 255
200 224 255
200 224 255
200 224 255
200 224 255
199 224 255
199 224 255
199 223 255
199 223 255
199 223 255
199 223 255
199 223 255
199 223 255
199 223 255
199 223 255
199 223 255
199 223 255
199 223 255
199 223 255
199 223 255
198 223 255
198 223 255
198 223 255
198 223 255
198 223 255
198 223 255
198 223 255
198 223 255
198 223 255
198 223 255
198 223 255
198 223 255
198 223 255
198 223 255
198 223 255
197 223 255
197 222 255
197 222 255
197 222 255
197 222 255
197 222 255
197 222 255
197 222 255
197 222 255
197 222 255
197 222 255
197 222 255
197 222 255
197 222 255
197 222 255
197 222 255
197 222 255
197 222 255
197 222 255
196 222 255
196 222 255
196 222 255
196 222 255
196 222 255
196 222 255
196 222 255
196 222 255
196 222 255
196 222 255
196 222 255
196 222 255
196 222 255
196 222 255
196 222 255
196 222 255
196 222 255
196 222 255
196 222 255
196 222 255
196 222 255
196 222 255
196 222 255
196 222 255
196 222 255
196 222 255
196 222 255
196 221 255
196 221 255
196 221 255
196 221 255
196 221 255
196 221 255
195 221 255
195 221 255
195 221 255
195 221 255
195 221 255
195 221 255
195 221 255
195 221 255
195 221 255
195 221 255
195 221 255
195 221 255
195 221 255
195 221 255
195 221 255
195 221 255
195 221 255
195 221 255
195 221 255
195 221 255
196 221 255
196 221 255
196 221 255
196 221 255
196 221 255
196 221 255
196 222 255
196 222 255
196 222 255
196 222 255
196 222 255
196 222 255
196 222 255
196 222 255
196 222 255
196 222 255
196 222 255
196 222 255
196 222 255
196 222 255
196 222 255
196 222 255
196 222 255
196 222 255
196 222 255
196 222 255
196 222 255
196 222 255
196 222 255
196 222 255
196 222 255
196 222 255
196 222 255
197 222 255
197 222 255
197 222 255
197 222 255
197 222 255
197 222 255
197 222 255
197 222 255
197 222 255
197 222 255
197 222 255
197 222 255
197 222 255
197 222 255
197 222 255
197 222 255
197 222 255
197 222 255
197 223 255
198 223 255
198 223 255
198 223 255
198 223 255
198 223 255
198 223 255
198 223 255
198 223 255
198 223 255
198 223 255
198 223 255
198 223 255
198 223 255
198 223 255
198 223 255
198 223 255
199 223 255
199 223 255
199 223 255
199 223 255
199 223 255
199 223 255
199 223 255
199 223 255
199 223 255
199 223 255
199 223 255
199 223 255
199 224 255
199 224 255
200 224 255
200 224 255
200 224 255
200 224 255
200 224 255
200 224 255
200 224 255
200 224 255
200 224 255
200 224 255
200 224 255
200 224 255
200 224 255
200 224 255
200 224 255
201 224 255
201 224 255
201 224 255
201 224 255
201 224 255
201 224 255
201 224 255
201 224 255
201 224 255
201 224 255
201 225 255
201 225 255
201 225 255
201 225 255
201 225 255
202 225 255
202 225 255
202 225 255
202 225 255
202 225 255
202 225 255
202 225 255
202 225 255
202 225 255
202 225 255
202 225 255
202 225 255
202 225 255
202 225 255
203 225 255
203 225 255
203 225 255
203 225 255
203 225 255
203 225 255
203 225 255
203 225 255
203 225 255
203 226 255
203 226 255
203 226 255
203 226 255
203 226 255
203 226 255
203 226 255
204 226 255
204 226 255
204 226 255
204 226 255
204 226 255
204 226 255
204 226 255
204 226 255
204 226 255
204 226 255
204 226 255
204 226 255
204 226 255
204 226 255
204 226 255
204 226 255
204 226 255
205 226 255
205 226 255
205 226 255
205 226 255
205 226 255
205 226 255
205 226 255
205 227 255
205 227 255
205 227 255
205 227 255
205 227 255
205 227 255
205 227 255
205 227 255
205 227 255
205 227 255
205 227 255
206 227 255
206 227 255
206 227 255
206 227 255
206 227 255
206 227 255
206 227 255
206 227 255
206 227 255
206 227 255
206 227 255
206 227 255
206 227 255
206 227 255
206 227 255
206 227 255
206 227 255
206 227 255
206 227 255
206 227 255
206 227 255
206 227 255
206 227 255
206 227 255
206 227 255
206 227 255
206 227 255
206 227 255
206 227 255
205 227 255
205 227 255
205 227 255
205 227 255
205 227 255
205 227 255
205 227 255
205 227 255
205 227 255
205 227 255
205 227 255
205 226 255
205 226 255
205 226 255
205 226 255
205 226 255
205 226 255
205 226 255
204 226 255
204 226 255
204 226 255
204 226 255
204 226 255
204 226 255
204 226 255
204 226 255
204 226 255
204 226 255
204 226 255
204 226 255
204 226 255
204 226 255
204 226 255
204 226 255
203 226 255
203 226 255
203 226 255
203 226 255
203 226 255
203 226 255
203 226 255
203 225 255
203 225 255
203 225 255
203 225 255
203 225 255
203 225 255
203 225 255
203 225 255
203 225 255
202 225 255
202 225 255
202 225 255
202 225 255
202 225 255
202 225 255
202 225 255
202 225 255
202 225 255
202 225 255
202 225 255
202 225 255
202 225 255
202 225 255
202 225 255
201 225 255
201 225 255
201 225 255
201 225 255
201 224 255
201 224 255
201 224 255
201 224 255
201 224 255
201 224 255
201 224 255
201 224 255
201 224 255
201 224 255
201 224 255
200 224 255
200 224 255
200 224 255
200 224 255
200 224 255
200 224 255
200 224 255
200 224 255
200 224 255
200 224 255
200 224 255
200 224 255
200 224 255
200 224 255
199 224 255
199 224 255
199 223 255
199 223 255
199 223 255
199 223 255
199 223 255
199 223 255
199 223 255
199 223 255
199 223 255
199 223 255
199 223 255
199 223 255
199 223 255
198 223 255
198 223 255
198 223 255
198 223 255
198 223 255
198 223 255
198 223 255
198 223 255
198 223 255
198 223 255
198 223 255
198 223 255
198 223 255
198 223 255
198 223 255
198 223 255
197 223 255
197 222 255
197 222 255
197 222 255
197 222 255
197 222 255
197 222 255
197 222 255
197 222 255
197 222 255
197 222 255
197 222 255
197 222 255
197 222 255
197 222 255
197 222 255
197 222 255
197 222 255
197 222 255
197 222 255
196 222 255
196 222 255
196 222 255
196 222 255
196 222 255
196 222 255
196 222 255
196 222 255
196 222 255
196 222 255
196 222 255
196 222 255
196 222 255
196 222 255
196 222 255
196 222 255
196 222 255
196 222 255
196 222 255
196 222 255
196 222 255
196 222 255
196 222 255
196 222 255
196 222 255
196 222 255
196 222 255
196 222 255
196 222 255
196 222 255
196 222 255
196 222 255
196 222 255
196 222 255
196 222 255
196 222 255
196 222 255
196 222 255
196 222 255
196 222 255
196 222 255
196 222 255
196 222 255
196 222 255
196 222 255
196 222 255
196 222 255
196 222 255
196 222 255
196 222 255
196 222 255
196 222 255
196 222 255
196 222 255
196 222 255
196 222 255
196 222 255
196 222 255
196 222 255
196 222 255
196 222 255
196 222 255
196 222 255
196 222 255
196 222 255
196 222 255
196 222 255
196 222 255
196 222 255
196 222 255
196 222 255
196 222 255
196 222 255
196 222 255
196 222 255
196 222 255
196 222 255
196 222 255
197 222 255
197 222 255
197 222 255
197 222 255
197 222 255
197 222 255
197 222 255
197 222 255
197 222 255
197 222 255
197 222 255
197 222 255
197 222 255
197 222 255
197 222 255
197 222 255
197 222 255
197 222 255
197 222 255
197 223 255
198 223 255
198 223 255
198 223 255
198 223 255
198 223 255
198 223 255
198 223 255
198 223 255
198 223 255
198 223 255
198 223 255
198 223 255
198 223 255
198 223 255
198 223 255
198 223 255
199 223 255
199 223 255
199 223 255
199 223 255
199 223 255
199 223 255
199 223 255
199 223 255
199 223 255
199 223 255
199 223 255
199 223 255
199 224 255
199 224 255
199 224 255
200 224 255
200 224 255
200 224 255
200 224 255
200 224 255
200 224 255
200 224 255
200 224 255
200 224 255
200 224 255
200 224 255
200 224 255
200 224 255
200 224 255
201 224 255
201 224 255
201 224 255
201 224 255
201 224 255
201 224 255
201 224 255
201 224 255
201 224 255
201 224 255
201 224 255
201 225 255
201 225 255
201 225 255
201 225 255
202 225 255
202 225 255
202 225 255
202 225 255
202 225 255
202 225 255
202 225 255
202 225 255
202 225 255
202 225 255
202 225 255
202 225 255
202 225 255
202 225 255
202 225 255
203 225 255
203 225 255
203 225 255
203 225 255
203 225 255
203 225 255
203 225 255
203 225 255
203 225 255
203 226 255
203 226 255
203 226 255
203 226 255
203 226 255
203 226 255
203 226 255
204 226 255
204 226 255
204 226 255
204 226 255
204 226 255
204 226 255
204 226 255
204 226 255
204 226 255
204 226 255
204 226 255
204 226 255
204 226 255
204 226 255
204 226 255
204 226 255
205 226 255
205 226 255
205 226 255
205 226 255
205 226 255
205 226 255
205 226 255
205 227 255
205 227 255
205 227 255
205 227 255
205 227 255
205 227 255
205 227 255
205 227 255
205 227 255
205 227 255
205 227 255
206 227 255
206 227 255
206 227 255
206 227 255
206 227 255
206 227 255
206 227 255
206 227 255
206 227 255
206 227 255
206 227 255
206 227 255
206 227 255
206 227 255
206 227 255
206 227 255
206 227 255
206 227 255
206 227 255
206 227 255
206 227 255
206 227 255
206 227 255
206 227 255
206 227 255
206 227 255
206 227 255
206 227 255
206 227 255
206 227 255
206 227 255
206 227 255
206 227 255
206 227 255
205 227 255
205 227 255
205 227 255
205 227 255
205 227 255
205 227 255
205 227 255
205 227 255
205 227 255
205 227 255
205 227 255
205 226 255
205 226 255
205 226 255
205 226 255
205 226 255
205 226 255
205 226 255
204 226 255
204 226 255
204 226 255
204 226 255
204 226 255
204 226 255
204 226 255
204 226 255
204 226 255
204 226 255
204 226 255
204 226 255
204 226 255
204 226 255
204 226 255
204 226 255
204 226 255
203 226 255
203 226 255
203 226 255
203 226 255
203 226 255
203 226 255
203 226 255
203 225 255
203 225 255
203 225 255
203 225 255
203 225 255
203 225 255
203 225 255
203 225 255
202 225 255
202 225 255
202 225 255
202 225 255
202 225 255
202 225 255
202 225 255
202 225 255
202 225 255
202 225 255
202 225 255
202 225 255
202 225 255
202 225 255
202 225 255
201 225 255
201 225 255
201 225 255
201 225 255
201 225 255
201 224 255
201 224 255
201 224 255
201 224 255
201 224 255
201 224 255
201 224 255
201 224 255
201 224 255
201 224 255
200 224 255
200 224 255
200 224 255
200 224 255
200 224 255
200 224 255
200 224 255
200 224 255
200 224 255
200 224 255
200 224 255
200 224 255
200 224 255
200 224 255
199 224 255
199 224 255
199 224 255
199 223 255
199 223 255
199 223 255
199 223 255
199 223 255
199 223 255
199 223 255
199 223 255
199 223 255
199 223 255
199 223 255
199 223 255
199 223 255
198 223 255
198 223 255
198 223 255
198 223 255
198 223 255
198 223 255
198 223 255
198 223 255
198 223 255
198 223 255
198 223 255
198 223 255
198 223 255
198 223 255
198 223 255
198 223 255
197 223 255
197 222 255
197 222 255
197 222 255
197 222 255
197 222 255
197 222 255
197 222 255
197 222 255
197 222 255
197 222 255
197 222 255
197 222 255
197 222 255
197 222 255
197 222 255
197 222 255
197 222 255
197 222 255
197 222 255
197 222 255
196 222 255
196 222 255
196 222 255
196 222 255
196 222 255
196 222 255
196 222 255
196 222 255
196 222 255
196 222 255
196 222 255
196 222 255
196 222 255
196 222 255
196 222 255
196 222 255
196 222 255
196 222 255
196 222 255
196 222 255
196 222 255
196 222 255
196 222 255
196 222 255
196 222 255
196 222 255
196 222 255
196 222 255
196 222 255
196 222 255
196 222 255
196 222 255
196 222 255
196 222 255
196 222 255
196 222 255
196 222 255
196 222 255
196 222 255
196 222 255
196 222 255
196 222 255
196 222 255
196 222 255
196 222 255
196 222 255
196 222 255
196 222 255
196 222 255
196 222 255
196 222 255
196 222 255
196 222 255
196 222 255
196 222 255
196 222 255
196 222 255
196 222 255
196 222 255
196 222 255
196 222 255
196 222 255
196 222 255
196 222 255
196 222 255
196 222 255
196 222 255
196 222 255
196 222 255
196 222 255
197 222 255
197 222 255
197 222 255
197 222 255
197 222 255
197 222 255
197 222 255
197 222 255
197 222 255
197 222 255
197 222 255
197 222 255
197 222 255
197 222 255
197 222 255
197 222 255
197 222 255
197 222 255
197 222 255
197 222 255
197 223 255
198 223 255
198 223 255
198 223 255
198 223 255
198 223 255
198 223 255
198 223 255
198 223 255
198 223 255
198 223 255
198 223 255
198 223 255
198 223 255
198 223 255
198 223 255
198 223 255
199 223 255
199 223 255
199 223 255
199 223 255
199 223 255
199 223 255
199 223 255
199 223 255
199 223 255
199 223 255
199 223 255
199 223 255
199 223 255
199 224 255
199 224 255
199 224 255
200 224 255
200 224 255
200 224 255
200 224 255
200 224 255
200 224 255
200 224 255
200 224 255
200 224 255
200 224 255
200 224 255
200 224 255
200 224 255
200 224 255
201 224 255
201 224 255
201 224 255
201 224 255
201 224 255
201 224 255
201 224 255
201 224 255
201 224 255
201 224 255
201 225 255
201 225 255
201 225 255
201 225 255
201 225 255
202 225 255
202 225 255
202 225 255
202 225 255
202 225 255
202 225 255
202 225 255
202 225 255
202 225 255
202 225 255
202 225 255
202 225 255
202 225 255
202 225 255
202 225 255
203 225 255
203 225 255
203 225 255
203 225 255
203 225 255
203 225 255
203 225 255
203 225 255
203 226 255
203 226 255
203 226 255
203 226 255
203 226 255
203 226 255
203 226 255
204 226 255
204 226 255
204 226 255
204 226 255
204 226 255
204 226 255
204 226 255
204 226 255
204 226 255
204 226 255
204 226 255
204 226 255
204 226 255
204 226 255
204 226 255
204 226 255
204 226 255
205 226 255
205 226 255
205 226 255
205 226 255
205 226 255
205 226 255
205 226 255
205 227 255
205 227 255
205 227 255
205 227 255
205 227 255
205 227 255
205 227 255
205 227 255
205 227 255
205 227 255
205 227 255
206 227 255
206 227 255
206 227 255
206 227 255
206 227 255
206 227 255
206 227 255
206 227 255
206 227 255
206 227 255
206 227 255
206 227 255
206 227 255
206 227 255
206 227 255
206 227 255
206 227 255
206 227 255
207 227 255
207 227 255
206 227 255
206 227 255
206 227 255
206 227 255
206 227 255
206 227 255
206 227 255
206 227 255
206 227 255
206 227 255
206 227 255
206 227 255
206 227 255
206 227 255
206 227 255
206 227 255
206 227 255
206 227 255
206 227 255
205 227 255
205 227 255
205 227 255
205 227 255
205 227 255
205 227 255
205 227 255
205 227 255
205 227 255
205 227 255
205 227 255
205 226 255
205 226 255
205 226 255
205 226 255
205 226 255
205 226 255
205 226 255
204 226 255
204 226 255
204 226 255
204 226 255
204 226 255
204 226 255
204 226 255
204 226 255
204 226 255
204 226 255
204 226 255
204 226 255
204 226 255
204 226 255
204 226 255
204 226 255
203 226 255
203 226 255
203 226 255
203 226 255
203 226 255
203 226 255
203 226 255
203 225 255
203 225 255
203 225 255
203 225 255
203 225 255
203 225 255
203 225 255
203 225 255
203 225 255
202 225 255
202 225 255
202 225 255
202 225 255
202 225 255
202 225 255
202 225 255
202 225 255
202 225 255
202 225 255
202 225 255
202 225 255
202 225 255
202 225 255
202 225 255
201 225 255
201 225 255
201 225 255
201 225 255
201 224 255
201 224 255
201 224 255
201 224 255
201 224 255
201 224 255
201 224 255
201 224 255
201 224 255
201 224 255
200 224 255
200 224 255
200 224 255
200 224 255
200 224 255
200 224 255
200 224 255
200 224 255
200 224 255
200 224 255
200 224 255
200 224 255
200 224 255
200 224 255
200 224 255
199 224 255
199 224 255
199 223 255
199 223 255
199 223 255
199 223 255
199 223 255
199 223 255
199 223 255
199 223 255
199 223 255
199 223 255
199 223 255
199 223 255
199 223 255
198 223 255
198 223 255
198 223 255
198 223 255
198 223 255
198 223 255
198 223 255
198 223 255
198 223 255
198 223 255
198 223 255
198 223 255
198 223 255
198 223 255
198 223 255
198 223 255
198 223 255
197 223 255
197 222 255
197 222 255
197 222 255
197 222 255
197 222 255
197 222 255
197 222 255
197 222 255
197 222 255
197 222 255
197 222 255
197 222 255
197 222 255
197 222 255
197 222 255
197 222 255
197 222 255
197 222 255
197 222 255
197 222 255
197 222 255
196 222 255
196 222 255
196 222 255
196 222 255
196 222 255
196 222 255
196 222 255
196 222 255
196 222 255
196 222 255
196 222 255
196 222 255
196 222 255
196 222 255
196 222 255
196 222 255
196 222 255
196 222 255
196 222 255
196 222 255
196 222 255
196 222 255
196 222 255
196 222 255
196 222 255
196 222 255
196 222 255
196 222 255
196 222 255
196 222 255
196 222 255
196 222 255
196 222 255
196 222 255
196 222 255
196 222 255
196 222 255
196 222 255
196 222 255
196 222 255
196 222 255
196 222 255
196 222 255
196 222 255
196 222 255
196 222 255
196 222 255
196 222 255
196 222 255
196 222 255
196 222 255
196 222 255
196 222 255
196 222 255
196 222 255
196 222 255
196 222 255
196 222 255
196 222 255
196 222 255
196 222 255
196 222 255
197 222 255
197 222 255
197 222 255
197 222 255
197 222 255
197 222 255
197 222 255
197 222 255
197 222 255
197 222 255
197 222 255
197 222 255
197 222 255
197 222 255
197 222 255
197 222 255
197 222 255
197 222 255
197 222 255
197 222 255
197 222 255
197 223 255
198 223 255
198 223 255
198 223 255
198 223 255
198 223 255
198 223 255
198 223 255
198 223 255
198 223 255
198 223 255
198 223 255
198 223 255
198 223 255
198 223 255
198 223 255
198 223 255
198 223 255
199 223 255
199 223 255
199 223 255
199 223 255
199 223 255
199 223 255
199 223 255
199 223 255
199 223 255
199 223 255
199 223 255
199 223 255
199 223 255
199 224 255
199 224 255
200 224 255
200 224 255
200 224 255
200 224 255
200 224 255
200 224 255
200 224 255
200 224 255
200 224 255
200 224 255
200 224 255
200 224 255
200 224 255
200 224 255
200 224 255
201 224 255
201 224 255
201 224 255
201 224 255
201 224 255
201 224 255
201 224 255
201 224 255
201 224 255
201 224 255
201 225 255
201 225 255
201 225 255
201 225 255
202 225 255
202 225 255
202 225 255
202 225 255
202 225 255
202 225 255
202 225 255
202 225 255
202 225 255
202 225 255
202 225 255
202 225 255
202 225 255
202 225 255
202 225 255
203 225 255
203 225 255
203 225 255
203 225 255
203 225 255
203 225 255
203 225 255
203 225 255
203 225 255
203 226 255
203 226 255
203 226 255
203 226 255
203 226 255
203 226 255
203 226 255
204 226 255
204 226 255
204 226 255
204 226 255
204 226 255
204 226 255
204 226 255
204 226 255
204 226 255
204 226 255
204 226 255
204 226 255
204 226 255
204 226 255
204 226 255
204 226 255
205 226 255
205 226 255
205 226 255
205 226 255
205 226 255
205 226 255
205 226 255
205 227 255
205 227 255
205 227 255
205 227 255
205 227 255
205 227 255
205 227 255
205 227 255
205 227 255
205 227 255
205 227 255
206 227 255
206 227 255
206 227 255
206 227 255
206 227 255
206 227 255
206 227 255
206 227 255
206 227 255
206 227 255
206 227 255
206 227 255
206 227 255
206 227 255
206 227 255
206 227 255
206 227 255
206 227 255
206 227 255
207 227 255
207 227 255
207 227 255
207 227 255
207 227 255
207 227 255
206 227 255
206 227 255
206 227 255
206 227 255
206 227 255
206 227 255
206 227 255
206 227 255
206 227 255
206 227 255
206 227 255
206 227 255
206 227 255
206 227 255
206 227 255
206 227 255
206 227 255
206 227 255
206 227 255
206 227 255
205 227 255
205 227 255
205 227 255
205 227 255
205 227 255
205 227 255
205 227 255
205 227 255
205 227 255
205 227 255
205 226 255
205 226 255
205 226 255
205 226 255
205 226 255
205 226 255
205 226 255
204 226 255
204 226 255
204 226 255
204 226 255
204 226 255
204 226 255
204 226 255
204 226 255
204 226 255
204 226 255
204 226 255
204 226 255
204 226 255
204 226 255
204 226 255
204 226 255
203 226 255
203 226 255
203 226 255
203 226 255
203 226 255
203 226 255
203 226 255
203 226 255
203 225 255
203 225 255
203 225 255
203 225 255
203 225 255
203 225 255
203 225 255
203 225 255
202 225 255
202 225 255
202 225 255
202 225 255
202 225 255
202 225 255
202 225 255
202 225 255
202 225 255
202 225 255
202 225 255
202 225 255
202 225 255
202 225 255
202 225 255
201 225 255
201 225 255
201 225 255
201 225 255
201 224 255
201 224 255
201 224 255
201 224 255
201 224 255
201 224 255
201 224 255
201 224 255
201 224 255
201 224 255
201 224 255
200 224 255
200 224 255
200 224 255
200 224 255
200 224 255
200 224 255
200 224 255
200 224 255
200 224 255
200 224 255
200 224 255
200 224 255
200 224 255
200 224 255
199 224 255
199 224 255
199 224 255
199 223 255
199 223 255
199 223 255
199 223 255
199 223 255
199 223 255
199 223 255
199 223 255
199 223 255
199 223 255
199 223 255
199 223 255
199 223 255
198 223 255
198 223 255
198 223 255
198 223 255
198 223 255
198 223 255
198 223 255
198 223 255
198 223 255
198 223 255
198 223 255
198 223 255
198 223 255
198 223 255
198 223 255
198 223 255
198 223 255
197 223 255
197 222 255
197 222 255
197 222 255
197 222 255
197 222 255
197 222 255
197 222 255
197 222 255
197 222 255
197 222 255
197 222 255
197 222 255
197 222 255
197 222 255
197 222 255
197 222 255
197 222 255
197 222 255
197 222 255
197 222 255
197 222 255
197 222 255
197 222 255
196 222 255
196 222 255
196 222 255
196 222 255
196 222 255
196 222 255
196 222 255
196 222 255
196 222 255
196 222 255
196 222 255
196 222 255
196 222 255
196 222 255
196 222 255
196 222 255
196 222 255
196 222 255
196 222 255
196 222 255
196 222 255
196 222 255
196 222 255
196 222 255
196 222 255
196 222 255
196 222 255
196 222 255
196 222 255
196 222 255
196 222 255
196 222 255
196 222 255
196 222 255
196 222 255
196 222 255
196 222 255
196 222 255
196 222 255
196 222 255
196 222 255
196 222 255
196 222 255
196 222 255
196 222 255
196 222 255
196 222 255
196 222 255
196 222 255
196 222 255
196 222 255
196 222 255
197 222 255
197 222 255
197 222 255
197 222 255
197 222 255
197 222 255
197 222 255
197 222 255
197 222 255
197 222 255
197 222 255
197 222 255
197 222 255
197 222 255
197 222 255
197 222 255
197 222 255
197 222 255
197 222 255
197 222 255
197 222 255
197 222 255
197 222 255
197 223 255
198 223 255
198 223 255
198 223 255
198 223 255
198 223 255
198 223 255
198 223 255
198 223 255
198 223 255
198 223 255
198 223 255
198 223 255
198 223 255
198 223 255
198 223 255
198 223 255
198 223 255
199 223 255
199 223 255
199 223 255
199 223 255
199 223 255
199 223 255
199 223 255
199 223 255
199 223 255
199 223 255
199 223 255
199 223 255
199 223 255
199 224 255
199 224 255
199 224 255
200 224 255
200 224 255
200 224 255
200 224 255
200 224 255
200 224 255
200 224 255
200 224 255
200 224 255
200 224 255
200 224 255
200 224 255
200 224 255
200 224 255
201 224 255
201 224 255
201 224 255
201 224 255
201 224 255
201 224 255
201 224 255
201 224 255
201 224 255
201 224 255
201 224 255
201 225 255
201 225 255
201 225 255
201 225 255
202 225 255
202 225 255
202 225 255
202 225 255
202 225 255
202 225 255
202 225 255
202 225 255
202 225 255
202 225 255
202 225 255
202 225 255
202 225 255
202 225 255
202 225 255
203 225 255
203 225 255
203 225 255
203 225 255
203 225 255
203 225 255
203 225 255
203 225 255
203 226 255
203 226 255
203 226 255
203 226 255
203 226 255
203 226 255
203 226 255
203 226 255
204 226 255
204 226 255
204 226 255
204 226 255
204 226 255
204 226 255
204 226 255
204 226 255
204 226 255
204 226 255
204 226 255
204 226 255
204 226 255
204 226 255
204 226 255
204 226 255
205 226 255
205 226 255
205 226 255
205 226 255
205 226 255
205 226 255
205 226 255
205 227 255
205 227 255
205 227 255
205 227 255
205 227 255
205 227 255
205 227 255
205 227 255
205 227 255
205 227 255
206 227 255
206 227 255
206 227 255
206 227 255
206 227 255
206 227 255
206 227 255
206 227 255
206 227 255
206 227 255
206 227 255
206 227 255
206 227 255
206 227 255
206 227 255
206 227 255
206 227 255
206 227 255
206 227 255
207 227 255
207 227 255
207 227 255
207 227 255
207 227 255
207 228 255
207 228 255
207 227 255
207 227 255
207 227 255
207 227 255
207 227 255
206 227 255
206 227 255
206 227 255
206 227 255
206 227 255
206 227 255
206 227 255
206 227 255
206 227 255
206 227 255
206 227 255
206 227 255
206 227 255
206 227 255
206 227 255
206 227 255
206 227 255
206 227 255
206 227 255
205 227 255
205 227 255
205 227 255
205 227 255
205 227 255
205 227 255
205 227 255
205 227 255
205 227 255
205 227 255
205 227 255
205 226 255
205 226 255
205 226 255
205 226 255
205 226 255
205 226 255
205 226 255
204 226 255
204 226 255
204 226 255
204 226 255
204 226 255
204 226 255
204 226 255
204 226 255
204 226 255
204 226 255
204 226 255
204 226 255
204 226 255
204 226 255
204 226 255
204 226 255
203 226 255
203 226 255
203 226 255
203 226 255
203 226 255
203 226 255
203 226 255
203 225 255
203 225 255
203 225 255
203 225 255
203 225 255
203 225 255
203 225 255
203 225 255
203 225 255
202 225 255
202 225 255
202 225 255
202 225 255
202 225 255
202 225 255
202 225 255
202 225 255
202 225 255
202 225 255
202 225 255
202 225 255
202 225 255
202 225 255
201 225 255
201 225 255
201 225 255
201 225 255
201 225 255
201 224 255
201 224 255
201 224 255
201 224 255
201 224 255
201 224 255
201 224 255
201 224 255
201 224 255
201 224 255
200 224 255
200 224 255
200 224 255
200 224 255
200 224 255
200 224 255
200 224 255
200 224 255
200 224 255
200 224 255
200 224 255
200 224 255
200 224 255
200 224 255
200 224 255
199 224 255
199 224 255
199 223 255
199 223 255
199 223 255
199 223 255
199 223 255
199 223 255
199 223 255
199 223 255
199 223 255
199 223 255
199 223 255
199 223 255
199 223 255
199 223 255
198 223 255
198 223 255
198 223 255
198 223 255
198 223 255
198 223 255
198 223 255
198 223 255
198 223 255
198 223 255
198 223 255
198 223 255
198 223 255
198 223 255
198 223 255
198 223 255
198 223 255
198 223 255
197 222 255
197 222 255
197 222 255
197 222 255
197 222 255
197 222 255
197 222 255
197 222 255
197 222 255
197 222 255
197 222 255
197 222 255
197 222 255
197 222 255
197 222 255
197 222 255
197 222 255
197 222 255
197 222 255
197 222 255
197 222 255
197 222 255
197 222 255
197 222 255
197 222 255
197 222 255
196 222 255
196 222 255
196 222 255
196 222 255
196 222 255
196 222 255
196 222 255
196 222 255
196 222 255
196 222 255
196 222 255
196 222 255
196 222 255
196 222 255
196 222 255
196 222 255
196 222 255
196 222 255
196 222 255
196 222 255
196 222 255
196 222 255
196 222 255
196 222 255
196 222 255
196 222 255
196 222 255
196 222 255
196 222 255
196 222 255
196 222 255
196 222 255
196 222 255
196 222 255
196 222 255
196 222 255
196 222 255
196 222 255
196 222 255
196 222 255
197 222 255
197 222 255
197 222 255
197 222 255
197 222 255
197 222 255
197 222 255
197 222 255
197 222 255
197 222 255
197 222 255
197 222 255
197 222 255
197 222 255
197 222 255
197 222 255
197 222 255
197 222 255
197 222 255
197 222 255
197 222 255
197 222 255
197 222 255
197 222 255
197 222 255
197 222 255
198 223 255
198 223 255
198 223 255
198 223 255
198 223 255
198 223 255
198 223 255
198 223 255
198 223 255
198 223 255
198 223 255
198 223 255
198 223 255
198 223 255
198 223 255
198 223 255
198 223 255
198 223 255
199 223 255
199 223 255
199 223 255
199 223 255
199 223 255
199 223 255
199 223 255
199 223 255
199 223 255
199 223 255
199 223 255
199 223 255
199 223 255
199 223 255
199 224 255
199 224 255
200 224 255
200 224 255
200 224 255
200 224 255
200 224 255
200 224 255
200 224 255
200 224 255
200 224 255
200 224 255
200 224 255
200 224 255
200 224 255
200 224 255
200 224 255
201 224 255
201 224 255
201 224 255
201 224 255
201 224 255
201 224 255
201 224 255
201 224 255
201 224 255
201 224 255
201 225 255
201 225 255
201 225 255
201 225 255
201 225 255
202 225 255
202 225 255
202 225 255
202 225 255
202 225 255
202 225 255
202 225 255
202 225 255
202 225 255
202 225 255
202 225 255
202 225 255
202 225 255
202 225 255
202 225 255
203 225 255
203 225 255
203 225 255
203 225 255
203 225 255
203 225 255
203 225 255
203 225 255
203 226 255
203 226 255
203 226 255
203 226 255
203 226 255
203 226 255
203 226 255
204 226 255
204 226 255
204 226 255
204 226 255
204 226 255
204 226 255
204 226 255
204 226 255
204 226 255
204 226 255
204 226 255
204 226 255
204 226 255
204 226 255
204 226 255
204 226 255
205 226 255
205 226 255
205 226 255
205 226 255
205 226 255
205 226 255
205 226 255
205 227 255
205 227 255
205 227 255
205 227 255
205 227 255
205 227 255
205 227 255
205 227 255
205 227 255
205 227 255
205 227 255
206 227 255
206 227 255
206 227 255
206 227 255
206 227 255
206 227 255
206 227 255
206 227 255
206 227 255
206 227 255
206 227 255
206 227 255
206 227 255
206 227 255
206 227 255
206 227 255
206 227 255
206 227 255
206 227 255
207 227 255
207 227 255
207 227 255
207 227 255
207 227 255
207 228 255
207 228 255
207 228 255
207 228 255
207 228 255
207 228 255
207 228 255
207 227 255
207 227 255
207 227 255
207 227 255
207 227 255
206 227 255
206 227 255
206 227 255
206 227 255
206 227 255
206 227 255
206 227 255
206 227 255
206 227 255
206 227 255
206 227 255
206 227 255
206 227 255
206 227 255
206 227 255
206 227 255
206 227 255
206 227 255
206 227 255
205 227 255
205 227 255
205 227 255
205 227 255
205 227 255
205 227 255
205 227 255
205 227 255
205 227 255
205 227 255
205 227 255
205 226 255
205 226 255
205 226 255
205 226 255
205 226 255
205 226 255
204 226 255
204 226 255
204 226 255
204 226 255
204 226 255
204 226 255
204 226 255
204 226 255
204 226 255
204 226 255
204 226 255
204 226 255
204 226 255
204 226 255
204 226 255
204 226 255
204 226 255
203 226 255
203 226 255
203 226 255
203 226 255
203 226 255
203 226 255
203 226 255
203 225 255
203 225 255
203 225 255
203 225 255
203 225 255
203 225 255
203 225 255
203 225 255
202 225 255
202 225 255
202 225 255
202 225 255
202 225 255
202 225 255
202 225 255
202 225 255
202 225 255
202 225 255
202 225 255
202 225 255
202 225 255
202 225 255
202 225 255
201 225 255
201 225 255
201 225 255
201 225 255
201 224 255
201 224 255
201 224 255
201 224 255
201 224 255
201 224 255
201 224 255
201 224 255
201 224 255
201 224 255
201 224 255
200 224 255
200 224 255
200 224 255
200 224 255
200 224 255
200 224 255
200 224 255
200 224 255
200 224 255
200 224 255
200 224 255
200 224 255
200 224 255
200 224 255
200 224 255
199 224 255
199 224 255
199 223 255
199 223 255
199 223 255
199 223 255
199 223 255
199 223 255
199 223 255
199 223 255
199 223 255
199 223 255
199 223 255
199 223 255
199 223 255
199 223 255
198 223 255
198 223 255
198 223 255
198 223 255
198 223 255
198 223 255
198 223 255
198 223 255
198 223 255
198 223 255
198 223 255
198 223 255
198 223 255
198 223 255
198 223 255
198 223 255
198 223 255
198 223 255
197 223 255
197 222 255
197 222 255
197 222 255
197 222 255
197 222 255
197 222 255
197 222 255
197 222 255
197 222 255
197 222 255
197 222 255
197 222 255
197 222 255
197 222 255
197 222 255
197 222 255
197 222 255
197 222 255
197 222 255
197 222 255
197 222 255
197 222 255
197 222 255
197 222 255
197 222 255
197 222 255
197 222 255
197 222 255
197 222 255
197 222 255
197 222 255
196 222 255
196 222 255
196 222 255
196 222 255
196 222 255
196 222 255
196 222 255
196 222 255
196 222 255
196 222 255
196 222 255
196 222 255
196 222 255
196 222 255
196 222 255
196 222 255
196 222 255
196 222 255
196 222 255
196 222 255
196 222 255
196 222 255
197 222 255
197 222 255
197 222 255
197 222 255
197 222 255
197 222 255
197 222 255
197 222 255
197 222 255
197 222 255
197 222 255
197 222 255
197 222 255
197 222 255
197 222 255
197 222 255
197 222 255
197 222 255
197 222 255
197 222 255
197 222 255
197 222 255
197 222 255
197 222 255
197 222 255
197 222 255
197 222 255
197 222 255
197 222 255
197 222 255
197 222 255
197 223 255
198 223 255
198 223 255
198 223 255
198 223 255
198 223 255
198 223 255
198 223 255
198 223 255
198 223 255
198 223 255
198 223 255
198 223 255
198 223 255
198 223 255
198 223 255
198 223 255
198 223 255
198 223 255
199 223 255
199 223 255
199 223 255
199 223 255
199 223 255
199 223 255
199 223 255
199 223 255
199 223 255
199 223 255
199 223 255
199 223 255
199 223 255
199 223 255
199 224 255
199 224 255
200 224 255
200 224 255
200 224 255
200 224 255
200 224 255
200 224 255
200 224 255
200 224 255
200 224 255
200 224 255
200 224 255
200 224 255
200 224 255
200 224 255
200 224 255
201 224 255
201 224 255
201 224 255
201 224 255
201 224 255
201 224 255
201 224 255
201 224 255
201 224 255
201 224 255
201 224 255
201 225 255
201 225 255
201 225 255
201 225 255
202 225 255
202 225 255
202 225 255
202 225 255
202 225 255
202 225 255
202 225 255
202 225 255
202 225 255
202 225 255
202 225 255
202 225 255
202 225 255
202 225 255
202 225 255
203 225 255
203 225 255
203 225 255
203 225 255
203 225 255
203 225 255
203 225 255
203 225 255
203 225 255
203 226 255
203 226 255
203 226 255
203 226 255
203 226 255
203 226 255
204 226 255
204 226 255
204 226 255
204 226 255
204 226 255
204 226 255
204 226 255
204 226 255
204 226 255
204 226 255
204 226 255
204 226 255
204 226 255
204 226 255
204 226 255
204 226 255
204 226 255
205 226 255
205 226 255
205 226 255
205 226 255
205 226 255
205 226 255
205 226 255
205 227 255
205 227 255
205 227 255
205 227 255
205 227 255
205 227 255
205 227 255
205 227 255
205 227 255
205 227 255
206 227 255
206 227 255
206 227 255
206 227 255
206 227 255
206 227 255
206 227 255
206 227 255
206 227 255
206 227 255
206 227 255
206 227 255
206 227 255
206 227 255
206 227 255
206 227 255
206 227 255
206 227 255
206 227 255
207 227 255
207 227 255
207 227 255
207 227 255
207 227 255
207 228 255
207 228 255
207 228 255
207 228 255
207 228 255
207 228 255
207 228 255
207 228 255
207 228 255
207 228 255
207 228 255
207 228 255
207 228 255
207 227 255
207 227 255
207 227 255
207 227 255
207 227 255
206 227 255
206 227 255
206 227 255
206 227 255
206 227 255
206 227 255
206 227 255
206 227 255
206 227 255
206 227 255
206 227 255
206 227 255
206 227 255
206 227 255
206 227 255
206 227 255
206 227 255
206 227 255
206 227 255
205 227 255
205 227 255
205 227 255
205 227 255
205 227 255
205 227 255
205 227 255
205 227 255
205 227 255
205 227 255
205 226 255
205 226 255
205 226 255
205 226 255
205 226 255
205 226 255
205 226 255
204 226 255
204 226 255
204 226 255
204 226 255
204 226 255
204 226 255
204 226 255
204 226 255
204 226 255
204 226 255
204 226 255
204 226 255
204 226 255
204 226 255
204 226 255
204 226 255
203 226 255
203 226 255
203 226 255
203 226 255
203 226 255
203 226 255
203 226 255
203 225 255
203 225 255
203 225 255
203 225 255
203 225 255
203 225 255
203 225 255
203 225 255
202 225 255
202 225 255
202 225 255
202 225 255
202 225 255
202 225 255
202 225 255
202 225 255
202 225 255
202 225 255
202 225 255
202 225 255
202 225 255
202 225 255
202 225 255
201 225 255
201 225 255
201 225 255
201 225 255
201 225 255
201 224 255
201 224 255
201 224 255
201 224 255
201 224 255
201 224 255
201 224 255
201 224 255
201 224 255
201 224 255
200 224 255
200 224 255
200 224 255
200 224 255
200 224 255
200 224 255
200 224 255
200 224 255
200 224 255
200 224 255
200 224 255
200 224 255
200 224 255
200 224 255
200 224 255
199 224 255
199 224 255
199 224 255
199 223 255
199 223 255
199 223 255
199 223 255
199 223 255
199 223 255
199 223 255
199 223 255
199 223 255
199 223 255
199 223 255
199 223 255
199 223 255
199 223 255
198 223 255
198 223 255
198 223 255
198 223 255
198 223 255
198 223 255
198 223 255
198 223 255
198 223 255
198 223 255
198 223 255
198 223 255
198 223 255
198 223 255
198 223 255
198 223 255
198 223 255
198 223 255
198 223 255
197 223 255
197 222 255
197 222 255
197 222 255
197 222 255
197 222 255
197 222 255
197 222 255
197 222 255
197 222 255
197 222 255
197 222 255
197 222 255
197 222 255
197 222 255
197 222 255
197 222 255
197 222 255
197 222 255
197 222 255
197 222 255
197 222 255
197 222 255
197 222 255
197 222 255
197 222 255
197 222 255
197 222 255
197 222 255
197 222 255
197 222 255
197 222 255
197 222 255
197 222 255
197 222 255
197 222 255
197 222 255
197 222 255
197 222 255
197 222 255
197 222 255
197 222 255
197 222 255
197 222 255
197 222 255
197 222 255
197 222 255
197 222 255
197 222 255
197 222 255
197 222 255
197 222 255
197 222 255
197 222 255
197 222 255
197 222 255
197 222 255
197 222 255
197 222 255
197 222 255
197 222 255
197 222 255
197 222 255
197 222 255
197 222 255
197 222 255
197 222 255
197 222 255
197 222 255
197 222 255
197 222 255
197 222 255
197 222 255
197 222 255
197 222 255
197 222 255
197 222 255
197 223 255
198 223 255
198 223 255
198 223 255
198 223 255
198 223 255
198 223 255
198 223 255
198 223 255
198 223 255
198 223 255
198 223 255
198 223 255
198 223 255
198 223 255
198 223 255
198 223 255
198 223 255
198 223 255
198 223 255
199 223 255
199 223 255
199 223 255
199 223 255
199 223 255
199 223 255
199 223 255
199 223 255
199 223 255
199 223 255
199 223 255
199 223 255
199 223 255
199 223 255
199 224 255
199 224 255
199 224 255
200 224 255
200 224 255
200 224 255
200 224 255
200 224 255
200 224 255
200 224 255
200 224 255
200 224 255
200 224 255
200 224 255
200 224 255
200 224 255
200 224 255
200 224 255
201 224 255
201 224 255
201 224 255
201 224 255
201 224 255
201 224 255
201 224 255
201 224 255
201 224 255
201 224 255
201 225 255
201 225 255
201 225 255
201 225 255
201 225 255
202 225 255
202 225 255
202 225 255
202 225 255
202 225 255
202 225 255
202 225 255
202 225 255
202 225 255
202 225 255
202 225 255
202 225 255
202 225 255
202 225 255
202 225 255
203 225 255
203 225 255
203 225 255
203 225 255
203 225 255
203 225 255
203 225 255
203 225 255
203 226 255
203 226 255
203 226 255
203 226 255
203 226 255
203 226 255
203 226 255
204 226 255
204 226 255
204 226 255
204 226 255
204 226 255
204 226 255
204 226 255
204 226 255
204 226 255
204 226 255
204 226 255
204 226 255
204 226 255
204 226 255
204 226 255
204 226 255
205 226 255
205 226 255
205 226 255
205 226 255
205 226 255
205 226 255
205 226 255
205 227 255
205 227 255
205 227 255
205 227 255
205 227 255
205 227 255
205 227 255
205 227 255
205 227 255
205 227 255
206 227 255
206 227 255
206 227 255
206 227 255
206 227 255
206 227 255
206 227 255
206 227 255
206 227 255
206 227 255
206 227 255
206 227 255
206 227 255
206 227 255
206 227 255
206 227 255
206 227 255
206 227 255
206 227 255
207 227 255
207 227 255
207 227 255
207 227 255
207 227 255
207 228 255
207 228 255
207 228 255
207 228 255
207 228 255
207 228 255
207 228 255
207 228 255
207 228 255
207 228 255
207 228 255
207 228 255
207 228 255
207 228 255
207 228 255
207 228 255
207 228 255
207 228 255
207 228 255
207 227 255
207 227 255
207 227 255
207 227 255
207 227 255
206 227 255
206 227 255
206 227 255
206 227 255
206 227 255
206 227 255
206 227 255
206 227 255
206 227 255
206 227 255
206 227 255
206 227 255
206 227 255
206 227 255
206 227 255
206 227 255
206 227 255
206 227 255
205 227 255
205 227 255
205 227 255
205 227 255
205 227 255
205 227 255
205 227 255
205 227 255
205 227 255
205 227 255
205 227 255
205 226 255
205 226 255
205 226 255
205 226 255
205 226 255
205 226 255
205 226 255
204 226 255
204 226 255
204 226 255
204 226 255
204 226 255
204 226 255
204 226 255
204 226 255
204 226 255
204 226 255
204 226 255
204 226 255
204 226 255
204 226 255
204 226 255
204 226 255
203 226 255
203 226 255
203 226 255
203 226 255
203 226 255
203 226 255
203 225 255
203 225 255
203 225 255
203 225 255
203 225 255
203 225 255
203 225 255
203 225 255
203 225 255
202 225 255
202 225 255
202 225 255
202 225 255
202 225 255
202 225 255
202 225 255
202 225 255
202 225 255
202 225 255
202 225 255
202 225 255
202 225 255
202 225 255
202 225 255
201 225 255
201 225 255
201 225 255
201 225 255
201 224 255
201 224 255
201 224 255
201 224 255
201 224 255
201 224 255
201 224 255
201 224 255
201 224 255
201 224 255
201 224 255
200 224 255
200 224 255
200 224 255
200 224 255
200 224 255
200 224 255
200 224 255
200 224 255
200 224 255
200 224 255
200 224 255
200 224 255
200 224 255
200 224 255
200 224 255
199 224 255
199 224 255
199 224 255
199 223 255
199 223 255
199 223 255
199 223 255
199 223 255
199 223 255
199 223 255
199 223 255
199 223 255
199 223 255
199 223 255
199 223 255
199 223 255
199 223 255
198 223 255
198 223 255
198 223 255
198 223 255
198 223 255
198 223 255
198 223 255
198 223 255
198 223 255
198 223 255
198 223 255
198 223 255
198 223 255
198 223 255
198 223 255
198 223 255
198 223 255
198 223 255
198 223 255
198 223 255
197 223 255
197 222 255
197 222 255
197 222 255
197 222 255
197 222 255
197 222 255
197 222 255
197 222 255
197 222 255
197 222 255
197 222 255
197 222 255
197 222 255
197 222 255
197 222 255
197 222 255
197 222 255
197 222 255
197 222 255
197 222 255
197 222 255
197 222 255
197 222 255
197 222 255
197 222 255
197 222 255
197 222 255
197 222 255
197 222 255
197 222 255
197 222 255
197 222 255
197 222 255
197 222 255
197 222 255
197 222 255
197 222 255
197 222 255
197 222 255
197 222 255
197 222 255
197 222 255
197 222 255
197 222 255
197 222 255
197 222 255
197 222 255
197 222 255
197 222 255
197 222 255
197 222 255
197 222 255
197 222 255
197 222 255
197 222 255
197 222 255
197 222 255
197 222 255
197 222 255
197 222 255
197 222 255
197 222 255
197 222 255
197 222 255
197 222 255
197 222 255
197 222 255
197 222 255
197 223 255
198 223 255
198 223 255
198 223 255
198 223 255
198 223 255
198 223 255
198 223 255
198 223 255
198 223 255
198 223 255
198 223 255
198 223 255
198 223 255
198 223 255
198 223 255
198 223 255
198 223 255
198 223 255
198 223 255
198 223 255
198 223 255
199 223 255
199 223 255
199 223 255
199 223 255
199 223 255
199 223 255
199 223 255
199 223 255
199 223 255
199 223 255
199 223 255
199 223 255
199 223 255
199 223 255
199 224 255
199 224 255
200 224 255
200 224 255
200 224 255
200 224 255
200 224 255
200 224 255
200 224 255
200 224 255
200 224 255
200 224 255
200 224 255
200 224 255
200 224 255
200 224 255
200 224 255
201 224 255
201 224 255
201 224 255
201 224 255
201 224 255
201 224 255
201 224 255
201 224 255
201 224 255
201 224 255
201 224 255
201 225 255
201 225 255
201 225 255
201 225 255
202 225 255
202 225 255
202 225 255
202 225 255
202 225 255
202 225 255
202 225 255
202 225 255
202 225 255
202 225 255
202 225 255
202 225 255
202 225 255
202 225 255
202 225 255
203 225 255
203 225 255
203 225 255
203 225 255
203 225 255
203 225 255
203 225 255
203 225 255
203 226 255
203 226 255
203 226 255
203 226 255
203 226 255
203 226 255
203 226 255
204 226 255
204 226 255
204 226 255
204 226 255
204 226 255
204 226 255
204 226 255
204 226 255
204 226 255
204 226 255
204 226 255
204 226 255
204 226 255
204 226 255
204 226 255
204 226 255
204 226 255
205 226 255
205 226 255
205 226 255
205 226 255
205 226 255
205 226 255
205 227 255
205 227 255
205 227 255
205 227 255
205 227 255
205 227 255
205 227 255
205 227 255
205 227 255
205 227 255
205 227 255
206 227 255
206 227 255
206 227 255
206 227 255
206 227 255
206 227 255
206 227 255
206 227 255
206 227 255
206 227 255
206 227 255
206 227 255
206 227 255
206 227 255
206 227 255
206 227 255
206 227 255
206 227 255
207 227 255
207 227 255
207 227 255
207 227 255
207 227 255
207 228 255
207 228 255
207 228 255
207 228 255
207 228 255
207 228 255
207 228 255
207 228 255
207 228 255
207 228 255
207 228 255
207 228 255
207 228 255
207 228 255
207 228 255
207 228 255
207 228 255
207 228 255
207 228 255
207 228 255
207 228 255
207 228 255
207 228 255
207 228 255
207 228 255
207 227 255
207 227 255
207 227 255
207 227 255
207 227 255
206 227 255
206 227 255
206 227 255
206 227 255
206 227 255
206 227 255
206 227 255
206 227 255
206 227 255
206 227 255
206 227 255
206 227 255
206 227 255
206 227 255
206 227 255
206 227 255
206 227 255
206 227 255
205 227 255
205 227 255
205 227 255
205 227 255
205 227 255
205 227 255
205 227 255
205 227 255
205 227 255
205 227 255
205 227 255
205 226 255
205 226 255
205 226 255
205 226 255
205 226 255
205 226 255
204 226 255
204 226 255
204 226 255
204 226 255
204 226 255
204 226 255
204 226 255
204 226 255
204 226 255
204 226 255
204 226 255
204 226 255
204 226 255
204 226 255
204 226 255
204 226 255
203 226 255
203 226 255
203 226 255
203 226 255
203 226 255
203 226 255
203 226 255
203 225 255
203 225 255
203 225 255
203 225 255
203 225 255
203 225 255
203 225 255
203 225 255
202 225 255
202 225 255
202 225 255
202 225 255
202 225 255
202 225 255
202 225 255
202 225 255
202 225 255
202 225 255
202 225 255
202 225 255
202 225 255
202 225 255
202 225 255
201 225 255
201 225 255
201 225 255
201 225 255
201 225 255
201 224 255
201 224 255
201 224 255
201 224 255
201 224 255
201 224 255
201 224 255
201 224 255
201 224 255
201 224 255
200 224 255
200 224 255
200 224 255
200 224 255
200 224 255
200 224 255
200 224 255
200 224 255
200 224 255
200 224 255
200 224 255
200 224 255
200 224 255
200 224 255
200 224 255
200 224 255
199 224 255
199 224 255
199 223 255
199 223 255
199 223 255
199 223 255
199 223 255
199 223 255
199 223 255
199 223 255
199 223 255
199 223 255
199 223 255
199 223 255
199 223 255
199 223 255
199 223 255
198 223 255
198 223 255
198 223 255
198 223 255
198 223 255
198 223 255
198 223 255
198 223 255
198 223 255
198 223 255
198 223 255
198 223 255
198 223 255
198 223 255
198 223 255
198 223 255
198 223 255
198 223 255
198 223 255
198 223 255
198 223 255
198 223 255
197 223 255
197 222 255
197 222 255
197 222 255
197 222 255
197 222 255
197 222 255
197 222 255
197 222 255
197 222 255
197 222 255
197 222 255
197 222 255
197 222 255
197 222 255
197 222 255
197 222 255
197 222 255
197 222 255
197 222 255
197 222 255
197 222 255
197 222 255
197 222 255
197 222 255
197 222 255
197 222 255
197 222 255
197 222 255
197 222 255
197 222 255
197 222 255
197 222 255
197 222 255
197 222 255
197 222 255
197 222 255
197 222 255
197 222 255
197 222 255
197 222 255
197 222 255
197 222 255
197 222 255
197 222 255
197 222 255
197 222 255
197 222 255
197 222 255
197 222 255
197 222 255
197 222 255
197 222 255
197 222 255
197 222 255
197 222 255
197 222 255
197 222 255
197 222 255
197 223 255
198 223 255
198 223 255
198 223 255
198 223 255
198 223 255
198 223 255
198 223 255
198 223 255
198 223 255
198 223 255
198 223 255
198 223 255
198 223 255
198 223 255
198 223 255
198 223 255
198 223 255
198 223 255
198 223 255
198 223 255
198 223 255
198 223 255
199 223 255
199 223 255
199 223 255
199 223 255
199 223 255
199 223 255
199 223 255
199 223 255
199 223 255
199 223 255
199 223 255
199 223 255
199 223 255
199 223 255
199 223 255
199 224 255
199 224 255
200 224 255
200 224 255
200 224 255
200 224 255
200 224 255
200 224 255
200 224 255
200 224 255
200 224 255
200 224 255
200 224 255
200 224 255
200 224 255
200 224 255
200 224 255
200 224 255
201 224 255
201 224 255
201 224 255
201 224 255
201 224 255
201 224 255
201 224 255
201 224 255
201 224 255
201 224 255
201 225 255
201 225 255
201 225 255
201 225 255
201 225 255
202 225 255
202 225 255
202 225 255
202 225 255
202 225 255
202 225 255
202 225 255
202 225 255
202 225 255
202 225 255
202 225 255
202 225 255
202 225 255
202 225 255
203 225 255
203 225 255
203 225 255
203 225 255
203 225 255
203 225 255
203 225 255
203 225 255
203 225 255
203 226 255
203 226 255
203 226 255
203 226 255
203 226 255
203 226 255
203 226 255
204 226 255
204 226 255
204 226 255
204 226 255
204 226 255
204 226 255
204 226 255
204 226 255
204 226 255
204 226 255
204 226 255
204 226 255
204 226 255
204 226 255
204 226 255
204 226 255
205 226 255
205 226 255
205 226 255
205 226 255
205 226 255
205 226 255
205 226 255
205 227 255
205 227 255
205 227 255
205 227 255
205 227 255
205 227 255
205 227 255
205 227 255
205 227 255
205 227 255
206 227 255
206 227 255
206 227 255
206 227 255
206 227 255
206 227 255
206 227 255
206 227 255
206 227 255
206 227 255
206 227 255
206 227 255
206 227 255
206 227 255
206 227 255
206 227 255
206 227 255
206 227 255
207 227 255
207 227 255
207 227 255
207 227 255
207 227 255
207 228 255
207 228 255
207 228 255
207 228 255
207 228 255
207 228 255
207 228 255
207 228 255
207 228 255
207 228 255
207 228 255
207 228 255
207 228 255
207 228 255
208 228 255
207 228 255
207 228 255
207 228 255
207 228 255
207 228 255
207 228 255
207 228 255
207 228 255
207 228 255
207 228 255
207 228 255
207 228 255
207 228 255
207 228 255
207 228 255
207 228 255
207 227 255
207 227 255
207 227 255
207 227 255
206 227 255
206 227 255
206 227 255
206 227 255
206 227 255
206 227 255
206 227 255
206 227 255
206 227 255
206 227 255
206 227 255
206 227 255
206 227 255
206 227 255
206 227 255
206 227 255
206 227 255
206 227 255
206 227 255
205 227 255
205 227 255
205 227 255
205 227 255
205 227 255
205 227 255
205 227 255
205 227 255
205 227 255
205 227 255
205 226 255
205 226 255
205 226 255
205 226 255
205 226 255
205 226 255
205 226 255
204 226 255
204 226 255
204 226 255
204 226 255
204 226 255
204 226 255
204 226 255
204 226 255
204 226 255
204 226 255
204 226 255
204 226 255
204 226 255
204 226 255
204 226 255
204 226 255
203 226 255
203 226 255
203 226 255
203 226 255
203 226 255
203 226 255
203 226 255
203 225 255
203 225 255
203 225 255
203 225 255
203 225 255
203 225 255
203 225 255
203 225 255
202 225 255
202 225 255
202 225 255
202 225 255
202 225 255
202 225 255
202 225 255
202 225 255
202 225 255
202 225 255
202 225 255
202 225 255
202 225 255
202 225 255
202 225 255
201 225 255
201 225 255
201 225 255
201 225 255
201 224 255
201 224 255
201 224 255
201 224 255
201 224 255
201 224 255
201 224 255
201 224 255
201 224 255
201 224 255
201 224 255
200 224 255
200 224 255
200 224 255
200 224 255
200 224 255
200 224 255
200 224 255
200 224 255
200 224 255
200 224 255
200 224 255
200 224 255
200 224 255
200 224 255
200 224 255
200 224 255
199 224 255
199 224 255
199 223 255
199 223 255
199 223 255
199 223 255
199 223 255
199 223 255
199 223 255
199 223 255
199 223 255
199 223 255
199 223 255
199 223 255
199 223 255
199 223 255
199 223 255
198 223 255
198 223 255
198 223 255
198 223 255
198 223 255
198 223 255
198 223 255
198 223 255
198 223 255
198 223 255
198 223 255
198 223 255
198 223 255
198 223 255
198 223 255
198 223 255
198 223 255
198 223 255
198 223 255
198 223 255
198 223 255
198 223 255
198 223 255
198 223 255
198 223 255
197 222 255
197 222 255
197 222 255
197 222 255
197 222 255
197 222 255
197 222 255
197 222 255
197 222 255
197 222 255
197 222 255
197 222 255
197 222 255
197 222 255
197 222 255
197 222 255
197 222 255
197 222 255
197 222 255
197 222 255
197 222 255
197 222 255
197 222 255
197 222 255
197 222 255
197 222 255
197 222 255
197 222 255
197 222 255
197 222 255
197 222 255
197 222 255
197 222 255
197 222 255
197 222 255
197 222 255
197 222 255
197 222 255
197 222 255
197 222 255
197 222 255
197 222 255
197 222 255
197 222 255
197 222 255
197 222 255
197 222 255
197 223 255
197 223 255
198 223 255
198 223 255
198 223 255
198 223 255
198 223 255
198 223 255
198 223 255
198 223 255
198 223 255
198 223 255
198 223 255
198 223 255
198 223 255
198 223 255
198 223 255
198 223 255
198 223 255
198 223 255
198 223 255
198 223 255
198 223 255
198 223 255
198 223 255
198 223 255
199 223 255
199 223 255
199 223 255
199 223 255
199 223 255
199 223 255
199 223 255
199 223 255
199 223 255
199 223 255
199 223 255
199 223 255
199 223 255
199 223 255
199 223 255
199 224 255
199 224 255
199 224 255
200 224 255
200 224 255
200 224 255
200 224 255
200 224 255
200 224 255
200 224 255
200 224 255
200 224 255
200 224 255
200 224 255
200 224 255
200 224 255
200 224 255
200 224 255
201 224 255
201 224 255
201 224 255
201 224 255
201 224 255
201 224 255
201 224 255
201 224 255
201 224 255
201 224 255
201 224 255
201 225 255
201 225 255
201 225 255
201 225 255
202 225 255
202 225 255
202 225 255
202 225 255
202 225 255
202 225 255
202 225 255
202 225 255
202 225 255
202 225 255
202 225 255
202 225 255
202 225 255
202 225 255
202 225 255
203 225 255
203 225 255
203 225 255
203 225 255
203 225 255
203 225 255
203 225 255
203 225 255
203 226 255
203 226 255
203 226 255
203 226 255
203 226 255
203 226 255
203 226 255
204 226 255
204 226 255
204 226 255
204 226 255
204 226 255
204 226 255
204 226 255
204 226 255
204 226 255
204 226 255
204 226 255
204 226 255
204 226 255
204 226 255
204 226 255
204 226 255
205 226 255
205 226 255
205 226 255
205 226 255
205 226 255
205 226 255
205 226 255
205 227 255
205 227 255
205 227 255
205 227 255
205 227 255
205 227 255
205 227 255
205 227 255
205 227 255
205 227 255
206 227 255
206 227 255
206 227 255
206 227 255
206 227 255
206 227 255
206 227 255
206 227 255
206 227 255
206 227 255
206 227 255
206 227 255
206 227 255
206 227 255
206 227 255
206 227 255
206 227 255
206 227 255
206 227 255
207 227 255
207 227 255
207 227 255
207 227 255
207 228 255
207 228 255
207 228 255
207 228 255
207 228 255
207 228 255
207 228 255
207 228 255
207 228 255
207 228 255
207 228 255
207 228 255
207 228 255
207 228 255
207 228 255
207 228 255
208 228 255
208 228 255
208 228 255
208 228 255
208 228 255
207 228 255
207 228 255
207 228 255
207 228 255
207 228 255
207 228 255
207 228 255
207 228 255
207 228 255
207 228 255
207 228 255
207 228 255
207 228 255
207 228 255
207 228 255
207 227 255
207 227 255
207 227 255
207 227 255
207 227 255
206 227 255
206 227 255
206 227 255
206 227 255
206 227 255
206 227 255
206 227 255
206 227 255
206 227 255
206 227 255
206 227 255
206 227 255
206 227 255
206 227 255
206 227 255
206 227 255
206 227 255
206 227 255
205 227 255
205 227 255
205 227 255
205 227 255
205 227 255
205 227 255
205 227 255
205 227 255
205 227 255
205 227 255
205 227 255
205 226 255
205 226 255
205 226 255
205 226 255
205 226 255
205 226 255
204 226 255
204 226 255
204 226 255
204 226 255
204 226 255
204 226 255
204 226 255
204 226 255
204 226 255
204 226 255
204 226 255
204 226 255
204 226 255
204 226 255
204 226 255
204 226 255
203 226 255
203 226 255
203 226 255
203 226 255
203 226 255
203 226 255
203 226 255
203 225 255
203 225 255
203 225 255
203 225 255
203 225 255
203 225 255
203 225 255
203 225 255
203 225 255
202 225 255
202 225 255
202 225 255
202 225 255
202 225 255
202 225 255
202 225 255
202 225 255
202 225 255
202 225 255
202 225 255
202 225 255
202 225 255
202 225 255
201 225 255
201 225 255
201 225 255
201 225 255
201 225 255
201 224 255
201 224 255
201 224 255
201 224 255
201 224 255
201 224 255
201 224 255
201 224 255
201 224 255
201 224 255
201 224 255
200 224 255
200 224 255
200 224 255
200 224 255
200 224 255
200 224 255
200 224 255
200 224 255
200 224 255
200 224 255
200 224 255
200 224 255
200 224 255
200 224 255
200 224 255
200 224 255
199 224 255
199 224 255
199 223 255
199 223 255
199 223 255
199 223 255
199 223 255
199 223 255
199 223 255
199 223 255
199 223 255
199 223 255
199 223 255
199 223 255
199 223 255
199 223 255
199 223 255
199 223 255
198 223 255
198 223 255
198 223 255
198 223 255
198 223 255
198 223 255
198 223 255
198 223 255
198 223 255
198 223 255
198 223 255
198 223 255
198 223 255
198 223 255
198 223 255
198 223 255
198 223 255
198 223 255
198 223 255
198 223 255
198 223 255
198 223 255
198 223 255
198 223 255
198 223 255
198 223 255
198 223 255
198 223 255
197 223 255
197 222 255
197 222 255
197 222 255
197 222 255
197 222 255
197 222 255
197 222 255
197 222 255
197 222 255
197 222 255
197 222 255
197 222 255
197 222 255
197 222 255
197 222 255
197 222 255
197 222 255
197 222 255
197 222 255
197 222 255
197 222 255
197 222 255
197 222 255
197 222 255
197 222 255
197 222 255
197 222 255
197 222 255
197 222 255
197 222 255
197 222 255
197 222 255
197 223 255
198 223 255
198 223 255
198 223 255
198 223 255
198 223 255
198 223 255
198 223 255
198 223 255
198 223 255
198 223 255
198 223 255
198 223 255
198 223 255
198 223 255
198 223 255
198 223 255
198 223 255
198 223 255
198 223 255
198 223 255
198 223 255
198 223 255
198 223 255
198 223 255
198 223 255
198 223 255
198 223 255
198 223 255
199 223 255
199 223 255
199 223 255
199 223 255
199 223 255
199 223 255
199 223 255
199 223 255
199 223 255
199 223 255
199 223 255
199 223 255
199 223 255
199 223 255
199 223 255
199 223 255
199 224 255
199 224 255
200 224 255
200 224 255
200 224 255
200 224 255
200 224 255
200 224 255
200 224 255
200 224 255
200 224 255
200 224 255
200 224 255
200 224 255
200 224 255
200 224 255
200 224 255
200 224 255
201 224 255
201 224 255
201 224 255
201 224 255
201 224 255
201 224 255
201 224 255
201 224 255
201 224 255
201 224 255
201 224 255
201 225 255
201 225 255
201 225 255
201 225 255
202 225 255
202 225 255
202 225 255
202 225 255
202 225 255
202 225 255
202 225 255
202 225 255
202 225 255
202 225 255
202 225 255
202 225 255
202 225 255
202 225 255
202 225 255
203 225 255
203 225 255
203 225 255
203 225 255
203 225 255
203 225 255
203 225 255
203 225 255
203 225 255
203 226 255
203 226 255
203 226 255
203 226 255
203 226 255
203 226 255
203 226 255
204 226 255
204 226 255
204 226 255
204 226 255
204 226 255
204 226 255
204 226 255
204 226 255
204 226 255
204 226 255
204 226 255
204 226 255
204 226 255
204 226 255
204 226 255
204 226 255
205 226 255
205 226 255
205 226 255
205 226 255
205 226 255
205 226 255
205 227 255
205 227 255
205 227 255
205 227 255
205 227 255
205 227 255
205 227 255
205 227 255
205 227 255
205 227 255
206 227 255
206 227 255
206 227 255
206 227 255
206 227 255
206 227 255
206 227 255
206 227 255
206 227 255
206 227 255
206 227 255
206 227 255
206 227 255
206 227 255
206 227 255
206 227 255
206 227 255
206 227 255
206 227 255
207 227 255
207 227 255
207 227 255
207 227 255
207 228 255
207 228 255
207 228 255
207 228 255
207 228 255
207 228 255
207 228 255
207 228 255
207 228 255
207 228 255
207 228 255
207 228 255
207 228 255
207 228 255
207 228 255
207 228 255
208 228 255
208 228 255
208 228 255
208 228 255
208 228 255
208 228 255
208 228 255
208 228 255
208 228 255
208 228 255
208 228 255
207 228 255
207 228 255
207 228 255
207 228 255
207 228 255
207 228 255
207 228 255
207 228 255
207 228 255
207 228 255
207 228 255
207 228 255
207 228 255
207 228 255
207 228 255
207 227 255
207 227 255
207 227 255
207 227 255
207 227 255
206 227 255
206 227 255
206 227 255
206 227 255
206 227 255
206 227 255
206 227 255
206 227 255
206 227 255
206 227 255
206 227 255
206 227 255
206 227 255
206 227 255
206 227 255
206 227 255
206 227 255
206 227 255
205 227 255
205 227 255
205 227 255
205 227 255
205 227 255
205 227 255
205 227 255
205 227 255
205 227 255
205 227 255
205 226 255
205 226 255
205 226 255
205 226 255
205 226 255
205 226 255
205 226 255
204 226 255
204 226 255
204 226 255
204 226 255
204 226 255
204 226 255
204 226 255
204 226 255
204 226 255
204 226 255
204 226 255
204 226 255
204 226 255
204 226 255
204 226 255
204 226 255
203 226 255
203 226 255
203 226 255
203 226 255
203 226 255
203 226 255
203 226 255
203 225 255
203 225 255
203 225 255
203 225 255
203 225 255
203 225 255
203 225 255
203 225 255
202 225 255
202 225 255
202 225 255
202 225 255
202 225 255
202 225 255
202 225 255
202 225 255
202 225 255
202 225 255
202 225 255
202 225 255
202 225 255
202 225 255
202 225 255
201 225 255
201 225 255
201 225 255
201 225 255
201 224 255
201 224 255
201 224 255
201 224 255
201 224 255
201 224 255
201 224 255
201 224 255
201 224 255
201 224 255
201 224 255
200 224 255
200 224 255
200 224 255
200 224 255
200 224 255
200 224 255
200 224 255
200 224 255
200 224 255
200 224 255
200 224 255
200 224 255
200 224 255
200 224 255
200 224 255
200 224 255
199 224 255
199 224 255
199 224 255
199 223 255
199 223 255
199 223 255
199 223 255
199 223 255
199 223 255
199 223 255
199 223 255
199 223 255
199 223 255
199 223 255
199 223 255
199 223 255
199 223 255
199 223 255
199 223 255
199 223 255
198 223 255
198 223 255
198 223 255
198 223 255
198 223 255
198 223 255
198 223 255
198 223 255
198 223 255
198 223 255
198 223 255
198 223 255
198 223 255
198 223 255
198 223 255
198 223 255
198 223 255
198 223 255
198 223 255
198 223 255
198 223 255
198 223 255
198 223 255
198 223 255
198 223 255
198 223 255
198 223 255
198 223 255
198 223 255
198 223 255
198 223 255
198 223 255
198 223 255
198 223 255
198 223 255
198 223 255
198 223 255
198 223 255
197 223 255
197 223 255
197 223 255
197 223 255
197 223 255
197 223 255
197 223 255
198 223 255
198 223 255
198 223 255
198 223 255
198 223 255
198 223 255
198 223 255
198 223 255
198 223 255
198 223 255
198 223 255
198 223 255
198 223 255
198 223 255
198 223 255
198 223 255
198 223 255
198 223 255
198 223 255
198 223 255
198 223 255
198 223 255
198 223 255
198 223 255
198 223 255
198 223 255
198 223 255
198 223 255
198 223 255
198 223 255
198 223 255
198 223 255
198 223 255
198 223 255
198 223 255
198 223 255
198 223 255
199 223 255
199 223 255
199 223 255
199 223 255
199 223 255
199 223 255
199 223 255
199 223 255
199 223 255
199 223 255
199 223 255
199 223 255
199 223 255
199 223 255
199 223 255
199 223 255
199 223 255
199 224 255
199 224 255
200 224 255
200 224 255
200 224 255
200 224 255
200 224 255
200 224 255
200 224 255
200 224 255
200 224 255
200 224 255
200 224 255
200 224 255
200 224 255
200 224 255
200 224 255
200 224 255
200 224 255
201 224 255
201 224 255
201 224 255
201 224 255
201 224 255
201 224 255
201 224 255
201 224 255
201 224 255
201 224 255
201 225 255
201 225 255
201 225 255
201 225 255
201 225 255
202 225 255
202 225 255
202 225 255
202 225 255
202 225 255
202 225 255
202 225 255
202 225 255
202 225 255
202 225 255
202 225 255
202 225 255
202 225 255
202 225 255
202 225 255
203 225 255
203 225 255
203 225 255
203 225 255
203 225 255
203 225 255
203 225 255
203 225 255
203 226 255
203 226 255
203 226 255
203 226 255
203 226 255
203 226 255
203 226 255
204 226 255
204 226 255
204 226 255
204 226 255
204 226 255
204 226 255
204 226 255
204 226 255
204 226 255
204 226 255
204 226 255
204 226 255
204 226 255
204 226 255
204 226 255
204 226 255
205 226 255
205 226 255
205 226 255
205 226 255
205 226 255
205 226 255
205 226 255
205 227 255
205 227 255
205 227 255
205 227 255
205 227 255
205 227 255
205 227 255
205 227 255
205 227 255
205 227 255
206 227 255
206 227 255
206 227 255
206 227 255
206 227 255
206 227 255
206 227 255
206 227 255
206 227 255
206 227 255
206 227 255
206 227 255
206 227 255
206 227 255
206 227 255
206 227 255
206 227 255
206 227 255
207 227 255
207 227 255
207 227 255
207 227 255
207 227 255
207 228 255
207 228 255
207 228 255
207 228 255
207 228 255
207 228 255
207 228 255
207 228 255
207 228 255
207 228 255
207 228 255
207 228 255
207 228 255
207 228 255
207 228 255
208 228 255
208 228 255
208 228 255
208 228 255
208 228 255
208 228 255
208 228 255
208 228 255
208 228 255
208 228 255
208 228 255
208 228 255
208 228 255
208 228 255
208 228 255
208 228 255
208 228 255
207 228 255
207 228 255
207 228 255
207 228 255
207 228 255
207 228 255
207 228 255
207 228 255
207 228 255
207 228 255
207 228 255
207 228 255
207 228 255
207 228 255
207 228 255
207 227 255
207 227 255
207 227 255
207 227 255
207 227 255
206 227 255
206 227 255
206 227 255
206 227 255
206 227 255
206 227 255
206 227 255
206 227 255
206 227 255
206 227 255
206 227 255
206 227 255
206 227 255
206 227 255
206 227 255
206 227 255
206 227 255
206 227 255
205 227 255
205 227 255
205 227 255
205 227 255
205 227 255
205 227 255
205 227 255
205 227 255
205 227 255
205 227 255
205 226 255
205 226 255
205 226 255
205 226 255
205 226 255
205 226 255
205 226 255
204 226 255
204 226 255
204 226 255
204 226 255
204 226 255
204 226 255
204 226 255
204 226 255
204 226 255
204 226 255
204 226 255
204 226 255
204 226 255
204 226 255
204 226 255
203 226 255
203 226 255
203 226 255
203 226 255
203 226 255
203 226 255
203 226 255
203 225 255
203 225 255
203 225 255
203 225 255
203 225 255
203 225 255
203 225 255
203 225 255
203 225 255
202 225 255
202 225 255
202 225 255
202 225 255
202 225 255
202 225 255
202 225 255
202 225 255
202 225 255
202 225 255
202 225 255
202 225 255
202 225 255
202 225 255
202 225 255
201 225 255
201 225 255
201 225 255
201 225 255
201 224 255
201 224 255
201 224 255
201 224 255
201 224 255
201 224 255
201 224 255
201 224 255
201 224 255
201 224 255
201 224 255
200 224 255
200 224 255
200 224 255
200 224 255
200 224 255
200 224 255
200 224 255
200 224 255
200 224 255
200 224 255
200 224 255
200 224 255
200 224 255
200 224 255
200 224 255
200 224 255
200 224 255
199 224 255
199 224 255
199 224 255
199 223 255
199 223 255
199 223 255
199 223 255
199 223 255
199 223 255
199 223 255
199 223 255
199 223 255
199 223 255
199 223 255
199 223 255
199 223 255
199 223 255
199 223 255
199 223 255
199 223 255
198 223 255
198 223 255
198 223 255
198 223 255
198 223 255
198 223 255
198 223 255
198 223 255
198 223 255
198 223 255
198 223 255
198 223 255
198 223 255
198 223 255
198 223 255
198 223 255
198 223 255
198 223 255
198 223 255
198 223 255
198 223 255
198 223 255
198 223 255
198 223 255
198 223 255
198 223 255
198 223 255
198 223 255
198 223 255
198 223 255
198 223 255
198 223 255
198 223 255
198 223 255
198 223 255
198 223 255
198 223 255
198 223 255
198 223 255
198 223 255
198 223 255
198 223 255
198 223 255
198 223 255
198 223 255
198 223 255
198 223 255
198 223 255
198 223 255
198 223 255
198 223 255
198 223 255
198 223 255
198 223 255
198 223 255
198 223 255
198 223 255
198 223 255
198 223 255
198 223 255
198 223 255
198 223 255
198 223 255
198 223 255
198 223 255
198 223 255
198 223 255
198 223 255
198 223 255
198 223 255
198 223 255
198 223 255
198 223 255
198 223 255
199 223 255
199 223 255
199 223 255
199 223 255
199 223 255
199 223 255
199 223 255
199 223 255
199 223 255
199 223 255
199 223 255
199 223 255
199 223 255
199 223 255
199 223 255
199 223 255
199 223 255
199 224 255
199 224 255
199 224 255
200 224 255
200 224 255
200 224 255
200 224 255
200 224 255
200 224 255
200 224 255
200 224 255
200 224 255
200 224 255
200 224 255
200 224 255
200 224 255
200 224 255
200 224 255
200 224 255
200 224 255
201 224 255
201 224 255
201 224 255
201 224 255
201 224 255
201 224 255
201 224 255
201 224 255
201 224 255
201 224 255
201 224 255
201 225 255
201 225 255
201 225 255
201 225 255
202 225 255
202 225 255
202 225 255
202 225 255
202 225 255
202 225 255
202 225 255
202 225 255
202 225 255
202 225 255
202 225 255
202 225 255
202 225 255
202 225 255
202 225 255
203 225 255
203 225 255
203 225 255
203 225 255
203 225 255
203 225 255
203 225 255
203 225 255
203 225 255
203 226 255
203 226 255
203 226 255
203 226 255
203 226 255
203 226 255
203 226 255
204 226 255
204 226 255
204 226 255
204 226 255
204 226 255
204 226 255
204 226 255
204 226 255
204 226 255
204 226 255
204 226 255
204 226 255
204 226 255
204 226 255
204 226 255
205 226 255
205 226 255
205 226 255
205 226 255
205 226 255
205 226 255
205 226 255
205 227 255
205 227 255
205 227 255
205 227 255
205 227 255
205 227 255
205 227 255
205 227 255
205 227 255
205 227 255
206 227 255
206 227 255
206 227 255
206 227 255
206 227 255
206 227 255
206 227 255
206 227 255
206 227 255
206 227 255
206 227 255
206 227 255
206 227 255
206 227 255
206 227 255
206 227 255
206 227 255
206 227 255
207 227 255
207 227 255
207 227 255
207 227 255
207 227 255
207 228 255
207 228 255
207 228 255
207 228 255
207 228 255
207 228 255
207 228 255
207 228 255
207 228 255
207 228 255
207 228 255
207 228 255
207 228 255
207 228 255
207 228 255
208 228 255
208 228 255
208 228 255
208 228 255
208 228 255
208 228 255
208 228 255
208 228 255
208 228 255
208 228 255
208 228 255
208 228 255
208 228 255
208 228 255
208 228 255
208 228 255
208 228 255
208 228 255
208 228 255
208 228 255
208 228 255
208 228 255
208 228 255
207 228 255
207 228 255
207 228 255
207 228 255
207 228 255
207 228 255
207 228 255
207 228 255
207 228 255
207 228 255
207 228 255
207 228 255
207 228 255
207 228 255
207 228 255
207 227 255
207 227 255
207 227 255
207 227 255
207 227 255
206 227 255
206 227 255
206 227 255
206 227 255
206 227 255
206 227 255
206 227 255
206 227 255
206 227 255
206 227 255
206 227 255
206 227 255
206 227 255
206 227 255
206 227 255
206 227 255
206 227 255
206 227 255
205 227 255
205 227 255
205 227 255
205 227 255
205 227 255
205 227 255
205 227 255
205 227 255
205 227 255
205 227 255
205 226 255
205 226 255
205 226 255
205 226 255
205 226 255
205 226 255
204 226 255
204 226 255
204 226 255
204 226 255
204 226 255
204 226 255
204 226 255
204 226 255
204 226 255
204 226 255
204 226 255
204 226 255
204 226 255
204 226 255
204 226 255
204 226 255
203 226 255
203 226 255
203 226 255
203 226 255
203 226 255
203 226 255
203 226 255
203 225 255
203 225 255
203 225 255
203 225 255
203 225 255
203 225 255
203 225 255
203 225 255
202 225 255
202 225 255
202 225 255
202 225 255
202 225 255
202 225 255
202 225 255
202 225 255
202 225 255
202 225 255
202 225 255
202 225 255
202 225 255
202 225 255
202 225 255
202 225 255
201 225 255
201 225 255
201 225 255
201 225 255
201 224 255
201 224 255
201 224 255
201 224 255
201 224 255
201 224 255
201 224 255
201 224 255
201 224 255
201 224 255
201 224 255
200 224 255
200 224 255
200 224 255
200 224 255
200 224 255
200 224 255
200 224 255
200 224 255
200 224 255
200 224 255
200 224 255
200 224 255
200 224 255
200 224 255
200 224 255
200 224 255
200 224 255
199 224 255
199 224 255
199 224 255
199 223 255
199 223 255
199 223 255
199 223 255
199 223 255
199 223 255
199 223 255
199 223 255
199 223 255
199 223 255
199 223 255
199 223 255
199 223 255
199 223 255
199 223 255
199 223 255
199 223 255
199 223 255
199 223 255
198 223 255
198 223 255
198 223 255
198 223 255
198 223 255
198 223 255
198 223 255
198 223 255
198 223 255
198 223 255
198 223 255
198 223 255
198 223 255
198 223 255
198 223 255
198 223 255
198 223 255
198 223 255
198 223 255
198 223 255
198 223 255
198 223 255
198 223 255
198 223 255
198 223 255
198 223 255
198 223 255
198 223 255
198 223 255
198 223 255
198 223 255
198 223 255
198 223 255
198 223 255
198 223 255
198 223 255
198 223 255
198 223 255
198 223 255
198 223 255
198 223 255
198 223 255
198 223 255
198 223 255
198 223 255
198 223 255
198 223 255
198 223 255
198 223 255
198 223 255
198 223 255
198 223 255
198 223 255
198 223 255
198 223 255
198 223 255
198 223 255
198 223 255
198 223 255
198 223 255
198 223 255
198 223 255
198 223 255
198 223 255
199 223 255
199 223 255
199 223 255
199 223 255
199 223 255
199 223 255
199 223 255
199 223 255
199 223 255
199 223 255
199 223 255
199 223 255
199 223 255
199 223 255
199 223 255
199 223 255
199 223 255
199 223 255
199 223 255
199 224 255
199 224 255
199 224 255
200 224 255
200 224 255
200 224 255
200 224 255
200 224 255
200 224 255
200 224 255
200 224 255
200 224 255
200 224 255
200 224 255
200 224 255
200 224 255
200 224 255
200 224 255
200 224 255
200 224 255
201 224 255
201 224 255
201 224 255
201 224 255
201 224 255
201 224 255
201 224 255
201 224 255
201 224 255
201 224 255
201 224 255
201 225 255
201 225 255
201 225 255
201 225 255
202 225 255
202 225 255
202 225 255
202 225 255
202 225 255
202 225 255
202 225 255
202 225 255
202 225 255
202 225 255
202 225 255
202 225 255
202 225 255
202 225 255
202 225 255
202 225 255
203 225 255
203 225 255
203 225 255
203 225 255
203 225 255
203 225 255
203 225 255
203 225 255
203 226 255
203 226 255
203 226 255
203 226 255
203 226 255
203 226 255
203 226 255
204 226 255
204 226 255
204 226 255
204 226 255
204 226 255
204 226 255
204 226 255
204 226 255
204 226 255
204 226 255
204 226 255
204 226 255
204 226 255
204 226 255
204 226 255
204 226 255
205 226 255
205 226 255
205 226 255
205 226 255
205 226 255
205 226 255
205 227 255
205 227 255
205 227 255
205 227 255
205 227 255
205 227 255
205 227 255
205 227 255
205 227 255
205 227 255
206 227 255
206 227 255
206 227 255
206 227 255
206 227 255
206 227 255
206 227 255
206 227 255
206 227 255
206 227 255
206 227 255
206 227 255
206 227 255
206 227 255
206 227 255
206 227 255
206 227 255
206 227 255
207 227 255
207 227 255
207 227 255
207 227 255
207 227 255
207 228 255
207 228 255
207 228 255
207 228 255
207 228 255
207 228 255
207 228 255
207 228 255
207 228 255
207 228 255
207 228 255
207 228 255
207 228 255
207 228 255
207 228 255
208 228 255
208 228 255
208 228 255
208 228 255
208 228 255
208 228 255
208 228 255
208 228 255
208 228 255
208 228 255
208 228 255
208 228 255
208 228 255
208 228 255
208 228 255
208 228 255
208 228 255
208 228 255
208 228 255
208 228 255
208 228 255
208 228 255
208 228 255
208 228 255
208 228 255
208 228 255
208 228 255
208 228 255
208 228 255
207 228 255
207 228 255
207 228 255
207 228 255
207 228 255
207 228 255
207 228 255
207 228 255
207 228 255
207 228 255
207 228 255
207 228 255
207 228 255
207 228 255
207 228 255
207 227 255
207 227 255
207 227 255
207 227 255
207 227 255
206 227 255
206 227 255
206 227 255
206 227 255
206 227 255
206 227 255
206 227 255
206 227 255
206 227 255
206 227 255
206 227 255
206 227 255
206 227 255
206 227 255
206 227 255
206 227 255
206 227 255
206 227 255
205 227 255
205 227 255
205 227 255
205 227 255
205 227 255
205 227 255
205 227 255
205 227 255
205 227 255
205 227 255
205 226 255
205 226 255
205 226 255
205 226 255
205 226 255
205 226 255
204 226 255
204 226 255
204 226 255
204 226 255
204 226 255
204 226 255
204 226 255
204 226 255
204 226 255
204 226 255
204 226 255
204 226 255
204 226 255
204 226 255
204 226 255
204 226 255
203 226 255
203 226 255
203 226 255
203 226 255
203 226 255
203 226 255
203 226 255
203 225 255
203 225 255
203 225 255
203 225 255
203 225 255
203 225 255
203 225 255
203 225 255
202 225 255
202 225 255
202 225 255
202 225 255
202 225 255
202 225 255
202 225 255
202 225 255
202 225 255
202 225 255
202 225 255
202 225 255
202 225 255
202 225 255
202 225 255
201 225 255
201 225 255
201 225 255
201 225 255
201 225 255
201 224 255
201 224 255
201 224 255
201 224 255
201 224 255
201 224 255
201 224 255
201 224 255
201 224 255
201 224 255
201 224 255
200 224 255
200 224 255
200 224 255
200 224 255
200 224 255
200 224 255
200 224 255
200 224 255
200 224 255
200 224 255
200 224 255
200 224 255
200 224 255
200 224 255
200 224 255
200 224 255
200 224 255
200 224 255
199 224 255
199 224 255
199 224 255
199 223 255
199 223 255
199 223 255
199 223 255
199 223 255
199 223 255
199 223 255
199 223 255
199 223 255
199 223 255
199 223 255
199 223 255
199 223 255
199 223 255
199 223 255
199 223 255
199 223 255
199 223 255
199 223 255
199 223 255
198 223 255
198 223 255
198 223 255
198 223 255
198 223 255
198 223 255
198 223 255
198 223 255
198 223 255
198 223 255
198 223 255
198 223 255
198 223 255
198 223 255
198 223 255
198 223 255
198 223 255
198 223 255
198 223 255
198 223 255
198 223 255
198 223 255
198 223 255
198 223 255
198 223 255
198 223 255
198 223 255
198 223 255
198 223 255
198 223 255
198 223 255
198 223 255
198 223 255
198 223 255
198 223 255
198 223 255
198 223 255
198 223 255
198 223 255
198 223 255
198 223 255
198 223 255
198 223 255
198 223 255
198 223 255
198 223 255
198 223 255
198 223 255
198 223 255
198 223 255
198 223 255
198 223 255
198 223 255
198 223 255
199 223 255
199 223 255
199 223 255
199 223 255
199 223 255
199 223 255
199 223 255
199 223 255
199 223 255
199 223 255
199 223 255
199 223 255
199 223 255
199 223 255
199 223 255
199 223 255
199 223 255
199 223 255
199 223 255
199 223 255
199 224 255
199 224 255
199 224 255
200 224 255
200 224 255
200 224 255
200 224 255
200 224 255
200 224 255
200 224 255
200 224 255
200 224 255
200 224 255
200 224 255
200 224 255
200 224 255
200 224 255
200 224 255
200 224 255
200 224 255
200 224 255
201 224 255
201 224 255
201 224 255
201 224 255
201 224 255
201 224 255
201 224 255
201 224 255
201 224 255
201 224 255
201 224 255
201 225 255
201 225 255
201 225 255
201 225 255
201 225 255
202 225 255
202 225 255
202 225 255
202 225 255
202 225 255
202 225 255
202 225 255
202 225 255
202 225 255
202 225 255
202 225 255
202 225 255
202 225 255
202 225 255
202 225 255
203 225 255
203 225 255
203 225 255
203 225 255
203 225 255
203 225 255
203 225 255
203 225 255
203 226 255
203 226 255
203 226 255
203 226 255
203 226 255
203 226 255
203 226 255
204 226 255
204 226 255
204 226 255
204 226 255
204 226 255
204 226 255
204 226 255
204 226 255
204 226 255
204 226 255
204 226 255
204 226 255
204 226 255
204 226 255
204 226 255
204 226 255
205 226 255
205 226 255
205 226 255
205 226 255
205 226 255
205 226 255
205 227 255
205 227 255
205 227 255
205 227 255
205 227 255
205 227 255
205 227 255
205 227 255
205 227 255
205 227 255
206 227 255
206 227 255
206 227 255
206 227 255
206 227 255
206 227 255
206 227 255
206 227 255
206 227 255
206 227 255
206 227 255
206 227 255
206 227 255
206 227 255
206 227 255
206 227 255
206 227 255
206 227 255
207 227 255
207 227 255
207 227 255
207 227 255
207 227 255
207 228 255
207 228 255
207 228 255
207 228 255
207 228 255
207 228 255
207 228 255
207 228 255
207 228 255
207 228 255
207 228 255
207 228 255
207 228 255
207 228 255
207 228 255
208 228 255
208 228 255
208 228 255
208 228 255
208 228 255
208 228 255
208 228 255
208 228 255
208 228 255
208 228 255
208 228 255
208 228 255
208 228 255
208 228 255
208 228 255
208 228 255
208 228 255
208 228 255
208 228 255
208 228 255
208 228 255
208 228 255
208 228 255
208 228 255
208 228 255
208 228 255
208 228 255
208 228 255
208 228 255
208 228 255
208 228 255
208 228 255
208 228 255
208 228 255
208 228 255
207 228 255
207 228 255
207 228 255
207 228 255
207 228 255
207 228 255
207 228 255
207 228 255
207 228 255
207 228 255
207 228 255
207 228 255
207 228 255
207 228 255
207 228 255
207 227 255
207 227 255
207 227 255
207 227 255
207 227 255
206 227 255
206 227 255
206 227 255
206 227 255
206 227 255
206 227 255
206 227 255
206 227 255
206 227 255
206 227 255
206 227 255
206 227 255
206 227 255
206 227 255
206 227 255
206 227 255
206 227 255
205 227 255
205 227 255
205 227 255
205 227 255
205 227 255
205 227 255
205 227 255
205 227 255
205 227 255
205 227 255
205 226 255
205 226 255
205 226 255
205 226 255
205 226 255
205 226 255
205 226 255
204 226 255
204 226 255
204 226 255
204 226 255
204 226 255
204 226 255
204 226 255
204 226 255
204 226 255
204 226 255
204 226 255
204 226 255
204 226 255
204 226 255
204 226 255
204 226 255
203 226 255
203 226 255
203 226 255
203 226 255
203 226 255
203 226 255
203 225 255
203 225 255
203 225 255
203 225 255
203 225 255
203 225 255
203 225 255
203 225 255
203 225 255
202 225 255
202 225 255
202 225 255
202 225 255
202 225 255
202 225 255
202 225 255
202 225 255
202 225 255
202 225 255
202 225 255
202 225 255
202 225 255
202 225 255
202 225 255
201 225 255
201 225 255
201 225 255
201 225 255
201 225 255
201 224 255
201 224 255
201 224 255
201 224 255
201 224 255
201 224 255
201 224 255
201 224 255
201 224 255
201 224 255
201 224 255
200 224 255
200 224 255
200 224 255
200 224 255
200 224 255
200 224 255
200 224 255
200 224 255
200 224 255
200 224 255
200 224 255
200 224 255
200 224 255
200 224 255
200 224 255
200 224 255
200 224 255
200 224 255
200 224 255
199 224 255
199 224 255
199 224 255
199 223 255
199 223 255
199 223 255
199 223 255
199 223 255
199 223 255
199 223 255
199 223 255
199 223 255
199 223 255
199 223 255
199 223 255
199 223 255
199 223 255
199 223 255
199 223 255
199 223 255
199 223 255
199 223 255
199 223 255
199 223 255
199 223 255
199 223 255
198 223 255
198 223 255
198 223 255
198 223 255
198 223 255
198 223 255
198 223 255
198 223 255
198 223 255
198 223 255
198 223 255
198 223 255
198 223 255
198 223 255
198 223 255
198 223 255
198 223 255
198 223 255
198 223 255
198 223 255
198 223 255
198 223 255
198 223 255
198 223 255
198 223 255
198 223 255
198 223 255
198 223 255
198 223 255
198 223 255
198 223 255
198 223 255
198 223 255
198 223 255
198 223 255
198 223 255
198 223 255
198 223 255
198 223 255
198 223 255
199 223 255
199 223 255
199 223 255
199 223 255
199 223 255
199 223 255
199 223 255
199 223 255
199 223 255
199 223 255
199 223 255
199 223 255
199 223 255
199 223 255
199 223 255
199 223 255
199 223 255
199 223 255
199 223 255
199 223 255
199 223 255
199 223 255
199 223 255
199 224 255
199 224 255
199 224 255
199 224 255
200 224 255
200 224 255
200 224 255
200 224 255
200 224 255
200 224 255
200 224 255
200 224 255
200 224 255
200 224 255
200 224 255
200 224 255
200 224 255
200 224 255
200 224 255
200 224 255
200 224 255
200 224 255
201 224 255
201 224 255
201 224 255
201 224 255
201 224 255
201 224 255
201 224 255
201 224 255
201 224 255
201 224 255
201 224 255
201 225 255
201 225 255
201 225 255
201 225 255
201 225 255
202 225 255
202 225 255
202 225 255
202 225 255
202 225 255
202 225 255
202 225 255
202 225 255
202 225 255
202 225 255
202 225 255
202 225 255
202 225 255
202 225 255
202 225 255
203 225 255
203 225 255
203 225 255
203 225 255
203 225 255
203 225 255
203 225 255
203 225 255
203 225 255
203 226 255
203 226 255
203 226 255
203 226 255
203 226 255
203 226 255
204 226 255
204 226 255
204 226 255
204 226 255
204 226 255
204 226 255
204 226 255
204 226 255
204 226 255
204 226 255
204 226 255
204 226 255
204 226 255
204 226 255
204 226 255
204 226 255
205 226 255
205 226 255
205 226 255
205 226 255
205 226 255
205 226 255
205 227 255
205 227 255
205 227 255
205 227 255
205 227 255
205 227 255
205 227 255
205 227 255
205 227 255
205 227 255
205 227 255
206 227 255
206 227 255
206 227 255
206 227 255
206 227 255
206 227 255
206 227 255
206 227 255
206 227 255
206 227 255
206 227 255
206 227 255
206 227 255
206 227 255
206 227 255
206 227 255
206 227 255
207 227 255
207 227 255
207 227 255
207 227 255
207 227 255
207 228 255
207 228 255
207 228 255
207 228 255
207 228 255
207 228 255
207 228 255
207 228 255
207 228 255
207 228 255
207 228 255
207 228 255
207 228 255
207 228 255
207 228 255
208 228 255
208 228 255
208 228 255
208 228 255
208 228 255
208 228 255
208 228 255
208 228 255
208 228 255
208 228 255
208 228 255
208 228 255
208 228 255
208 228 255
208 228 255
208 228 255
208 228 255
208 228 255
208 228 255
209 228 255
208 228 255
208 228 255
208 228 255
208 228 255
208 228 255
208 228 255
208 228 255
208 228 255
208 228 255
208 228 255
208 228 255
208 228 255
208 228 255
208 228 255
208 228 255
208 228 255
208 228 255
208 228 255
208 228 255
208 228 255
208 228 255
207 228 255
207 228 255
207 228 255
207 228 255
207 228 255
207 228 255
207 228 255
207 228 255
207 228 255
207 228 255
207 228 255
207 228 255
207 228 255
207 228 255
207 228 255
207 227 255
207 227 255
207 227 255
207 227 255
206 227 255
206 227 255
206 227 255
206 227 255
206 227 255
206 227 255
206 227 255
206 227 255
206 227 255
206 227 255
206 227 255
206 227 255
206 227 255
206 227 255
206 227 255
206 227 255
206 227 255
206 227 255
205 227 255
205 227 255
205 227 255
205 227 255
205 227 255
205 227 255
205 227 255
205 227 255
205 227 255
205 227 255
205 226 255
205 226 255
205 226 255
205 226 255
205 226 255
205 226 255
205 226 255
204 226 255
204 226 255
204 226 255
204 226 255
204 226 255
204 226 255
204 226 255
204 226 255
204 226 255
204 226 255
204 226 255
204 226 255
204 226 255
204 226 255
204 226 255
203 226 255
203 226 255
203 226 255
203 226 255
203 226 255
203 226 255
203 226 255
203 225 255
203 225 255
203 225 255
203 225 255
203 225 255
203 225 255
203 225 255
203 225 255
203 225 255
202 225 255
202 225 255
202 225 255
202 225 255
202 225 255
202 225 255
202 225 255
202 225 255
202 225 255
202 225 255
202 225 255
202 225 255
202 225 255
202 225 255
202 225 255
201 225 255
201 225 255
201 225 255
201 225 255
201 225 255
201 224 255
201 224 255
201 224 255
201 224 255
201 224 255
201 224 255
201 224 255
201 224 255
201 224 255
201 224 255
201 224 255
201 224 255
200 224 255
200 224 255
200 224 255
200 224 255
200 224 255
200 224 255
200 224 255
200 224 255
200 224 255
200 224 255
200 224 255
200 224 255
200 224 255
200 224 255
200 224 255
200 224 255
200 224 255
200 224 255
199 224 255
199 224 255
199 224 255
199 224 255
199 223 255
199 223 255
199 223 255
199 223 255
199 223 255
199 223 255
199 223 255
199 223 255
199 223 255
199 223 255
199 223 255
199 223 255
199 223 255
199 223 255
199 223 255
199 223 255
199 223 255
199 223 255
199 223 255
199 223 255
199 223 255
199 223 255
199 223 255
199 223 255
199 223 255
199 223 255
199 223 255
199 223 255
199 223 255
198 223 255
198 223 255
198 223 255
198 223 255
198 223 255
198 223 255
198 223 255
198 223 255
198 223 255
198 223 255
198 223 255
198 223 255
198 223 255
198 223 255
198 223 255
198 223 255
198 223 255
198 223 255
198 223 255
198 223 255
199 223 255
199 223 255
199 223 255
199 223 255
199 223 255
199 223 255
199 223 255
199 223 255
199 223 255
199 223 255
199 223 255
199 223 255
199 223 255
199 223 255
199 223 255
199 223 255
199 223 255
199 223 255
199 223 255
199 223 255
199 223 255
199 223 255
199 223 255
199 223 255
199 223 255
199 223 255
199 223 255
199 223 255
199 223 255
199 224 255
199 224 255
199 224 255
199 224 255
200 224 255
200 224 255
200 224 255
200 224 255
200 224 255
200 224 255
200 224 255
200 224 255
200 224 255
200 224 255
200 224 255
200 224 255
200 224 255
200 224 255
200 224 255
200 224 255
200 224 255
200 224 255
200 224 255
201 224 255
201 224 255
201 224 255
201 224 255
201 224 255
201 224 255
201 224 255
201 224 255
201 224 255
201 224 255
201 224 255
201 225 255
201 225 255
201 225 255
201 225 255
201 225 255
202 225 255
202 225 255
202 225 255
202 225 255
202 225 255
202 225 255
202 225 255
202 225 255
202 225 255
202 225 255
202 225 255
202 225 255
202 225 255
202 225 255
202 225 255
203 225 255
203 225 255
203 225 255
203 225 255
203 225 255
203 225 255
203 225 255
203 225 255
203 225 255
203 226 255
203 226 255
203 226 255
203 226 255
203 226 255
203 226 255
203 226 255
204 226 255
204 226 255
204 226 255
204 226 255
204 226 255
204 226 255
204 226 255
204 226 255
204 226 255
204 226 255
204 226 255
204 226 255
204 226 255
204 226 255
204 226 255
205 226 255
205 226 255
205 226 255
205 226 255
205 226 255
205 226 255
205 226 255
205 227 255
205 227 255
205 227 255
205 227 255
205 227 255
205 227 255
205 227 255
205 227 255
205 227 255
205 227 255
206 227 255
206 227 255
206 227 255
206 227 255
206 227 255
206 227 255
206 227 255
206 227 255
206 227 255
206 227 255
206 227 255
206 227 255
206 227 255
206 227 255
206 227 255
206 227 255
206 227 255
207 227 255
207 227 255
207 227 255
207 227 255
207 227 255
207 228 255
207 228 255
207 228 255
207 228 255
207 228 255
207 228 255
207 228 255
207 228 255
207 228 255
207 228 255
207 228 255
207 228 255
207 228 255
207 228 255
207 228 255
208 228 255
208 228 255
208 228 255
208 228 255
208 228 255
208 228 255
208 228 255
208 228 255
208 228 255
208 228 255
208 228 255
208 228 255
208 228 255
208 228 255
208 228 255
208 228 255
208 228 255
208 228 255
208 228 255
208 228 255
208 228 255
209 228 255
209 229 255
209 229 255
209 228 255
209 228 255
208 228 255
208 228 255
208 228 255
208 228 255
208 228 255
208 228 255
208 228 255
208 228 255
208 228 255
208 228 255
208 228 255
208 228 255
208 228 255
208 228 255
208 228 255
208 228 255
208 228 255
208 228 255
208 228 255
208 228 255
208 228 255
207 228 255
207 228 255
207 228 255
207 228 255
207 228 255
207 228 255
207 228 255
207 228 255
207 228 255
207 228 255
207 228 255
207 228 255
207 228 255
207 228 255
207 228 255
207 227 255
207 227 255
207 227 255
207 227 255
206 227 255
206 227 255
206 227 255
206 227 255
206 227 255
206 227 255
206 227 255
206 227 255
206 227 255
206 227 255
206 227 255
206 227 255
206 227 255
206 227 255
206 227 255
206 227 255
206 227 255
206 227 255
205 227 255
205 227 255
205 227 255
205 227 255
205 227 255
205 227 255
205 227 255
205 227 255
205 227 255
205 227 255
205 226 255
205 226 255
205 226 255
205 226 255
205 226 255
205 226 255
205 226 255
204 226 255
204 226 255
204 226 255
204 226 255
204 226 255
204 226 255
204 226 255
204 226 255
204 226 255
204 226 255
204 226 255
204 226 255
204 226 255
204 226 255
204 226 255
203 226 255
203 226 255
203 226 255
203 226 255
203 226 255
203 226 255
203 226 255
203 225 255
203 225 255
203 225 255
203 225 255
203 225 255
203 225 255
203 225 255
203 225 255
203 225 255
202 225 255
202 225 255
202 225 255
202 225 255
202 225 255
202 225 255
202 225 255
202 225 255
202 225 255
202 225 255
202 225 255
202 225 255
202 225 255
202 225 255
202 225 255
201 225 255
201 225 255
201 225 255
201 225 255
201 225 255
201 224 255
201 224 255
201 224 255
201 224 255
201 224 255
201 224 255
201 224 255
201 224 255
201 224 255
201 224 255
201 224 255
201 224 255
200 224 255
200 224 255
200 224 255
200 224 255
200 224 255
200 224 255
200 224 255
200 224 255
200 224 255
200 224 255
200 224 255
200 224 255
200 224 255
200 224 255
200 224 255
200 224 255
200 224 255
200 224 255
200 224 255
200 224 255
199 224 255
199 224 255
199 224 255
199 224 255
199 223 255
199 223 255
199 223 255
199 223 255
199 223 255
199 223 255
199 223 255
199 223 255
199 223 255
199 223 255
199 223 255
199 223 255
199 223 255
199 223 255
199 223 255
199 223 255
199 223 255
199 223 255
199 223 255
199 223 255
199 223 255
199 223 255
199 223 255
199 223 255
199 223 255
199 223 255
199 223 255
199 223 255
199 223 255
199 223 255
199 223 255
199 223 255
199 223 255
199 223 255
199 223 255
199 223 255
199 223 255
199 223 255
199 223 255
199 223 255
199 223 255
199 223 255
199 223 255
199 223 255
199 223 255
199 223 255
199 223 255
199 223 255
199 223 255
199 223 255
199 223 255
199 223 255
199 223 255
199 223 255
199 223 255
199 223 255
199 223 255
199 223 255
199 223 255
199 223 255
199 223 255
199 223 255
199 223 255
199 223 255
199 223 255
199 223 255
199 223 255
199 223 255
199 224 255
199 224 255
199 224 255
199 224 255
200 224 255
200 224 255
200 224 255
200 224 255
200 224 255
200 224 255
200 224 255
200 224 255
200 224 255
200 224 255
200 224 255
200 224 255
200 224 255
200 224 255
200 224 255
200 224 255
200 224 255
200 224 255
200 224 255
200 224 255
201 224 255
201 224 255
201 224 255
201 224 255
201 224 255
201 224 255
201 224 255
201 224 255
201 224 255
201 224 255
201 224 255
201 224 255
201 225 255
201 225 255
201 225 255
201 225 255
201 225 255
202 225 255
202 225 255
202 225 255
202 225 255
202 225 255
202 225 255
202 225 255
202 225 255
202 225 255
202 225 255
202 225 255
202 225 255
202 225 255
202 225 255
202 225 255
203 225 255
203 225 255
203 225 255
203 225 255
203 225 255
203 225 255
203 225 255
203 225 255
203 225 255
203 226 255
203 226 255
203 226 255
203 226 255
203 226 255
203 226 255
203 226 255
204 226 255
204 226 255
204 226 255
204 226 255
204 226 255
204 226 255
204 226 255
204 226 255
204 226 255
204 226 255
204 226 255
204 226 255
204 226 255
204 226 255
204 226 255
205 226 255
205 226 255
205 226 255
205 226 255
205 226 255
205 226 255
205 226 255
205 227 255
205 227 255
205 227 255
205 227 255
205 227 255
205 227 255
205 227 255
205 227 255
205 227 255
205 227 255
206 227 255
206 227 255
206 227 255
206 227 255
206 227 255
206 227 255
206 227 255
206 227 255
206 227 255
206 227 255
206 227 255
206 227 255
206 227 255
206 227 255
206 227 255
206 227 255
206 227 255
207 227 255
207 227 255
207 227 255
207 227 255
207 227 255
207 228 255
207 228 255
207 228 255
207 228 255
207 228 255
207 228 255
207 228 255
207 228 255
207 228 255
207 228 255
207 228 255
207 228 255
207 228 255
207 228 255
207 228 255
208 228 255
208 228 255
208 228 255
208 228 255
208 228 255
208 228 255
208 228 255
208 228 255
208 228 255
208 228 255
208 228 255
208 228 255
208 228 255
208 228 255
208 228 255
208 228 255
208 228 255
208 228 255
208 228 255
208 228 255
208 228 255
209 228 255
209 229 255
209 229 255
209 229 255
209 229 255
209 229 255
209 229 255
209 229 255
209 229 255
209 229 255
209 228 255
209 228 255
208 228 255
208 228 255
208 228 255
208 228 255
208 228 255
208 228 255
208 228 255
208 228 255
208 228 255
208 228 255
208 228 255
208 228 255
208 228 255
208 228 255
208 228 255
208 228 255
208 228 255
208 228 255
208 228 255
208 228 255
208 228 255
207 228 255
207 228 255
207 228 255
207 228 255
207 228 255
207 228 255
207 228 255
207 228 255
207 228 255
207 228 255
207 228 255
207 228 255
207 228 255
207 228 255
207 227 255
207 227 255
207 227 255
207 227 255
207 227 255
206 227 255
206 227 255
206 227 255
206 227 255
206 227 255
206 227 255
206 227 255
206 227 255
206 227 255
206 227 255
206 227 255
206 227 255
206 227 255
206 227 255
206 227 255
206 227 255
206 227 255
205 227 255
205 227 255
205 227 255
205 227 255
205 227 255
205 227 255
205 227 255
205 227 255
205 227 255
205 227 255
205 226 255
205 226 255
205 226 255
205 226 255
205 226 255
205 226 255
204 226 255
204 226 255
204 226 255
204 226 255
204 226 255
204 226 255
204 226 255
204 226 255
204 226 255
204 226 255
204 226 255
204 226 255
204 226 255
204 226 255
204 226 255
204 226 255
203 226 255
203 226 255
203 226 255
203 226 255
203 226 255
203 226 255
203 226 255
203 225 255
203 225 255
203 225 255
203 225 255
203 225 255
203 225 255
203 225 255
203 225 255
202 225 255
202 225 255
202 225 255
202 225 255
202 225 255
202 225 255
202 225 255
202 225 255
202 225 255
202 225 255
202 225 255
202 225 255
202 225 255
202 225 255
202 225 255
202 225 255
201 225 255
201 225 255
201 225 255
201 225 255
201 225 255
201 224 255
201 224 255
201 224 255
201 224 255
201 224 255
201 224 255
201 224 255
201 224 255
201 224 255
201 224 255
201 224 255
201 224 255
200 224 255
200 224 255
200 224 255
200 224 255
200 224 255
200 224 255
200 224 255
200 224 255
200 224 255
200 224 255
200 224 255
200 224 255
200 224 255
200 224 255
200 224 255
200 224 255
200 224 255
200 224 255
200 224 255
200 224 255
200 224 255
200 224 255
199 224 255
199 224 255
199 224 255
199 224 255
199 223 255
199 223 255
199 223 255
199 223 255
199 223 255
199 223 255
199 223 255
199 223 255
199 223 255
199 223 255
199 223 255
199 223 255
199 223 255
199 223 255
199 223 255
199 223 255
199 223 255
199 223 255
199 223 255
199 223 255
199 223 255
199 223 255
199 223 255
199 223 255
199 223 255
199 223 255
199 223 255
199 223 255
199 223 255
199 223 255
199 223 255
199 223 255
199 223 255
199 223 255
199 223 255
199 223 255
199 223 255
199 223 255
199 223 255
199 223 255
199 223 255
199 223 255
199 223 255
199 223 255
199 223 255
199 223 255
199 223 255
199 223 255
199 223 255
199 223 255
199 223 255
199 223 255
199 223 255
199 223 255
199 223 255
199 223 255
199 223 255
199 223 255
199 224 255
199 224 255
199 224 255
199 224 255
200 224 255
200 224 255
200 224 255
200 224 255
200 224 255
200 224 255
200 224 255
200 224 255
200 224 255
200 224 255
200 224 255
200 224 255
200 224 255
200 224 255
200 224 255
200 224 255
200 224 255
200 224 255
200 224 255
200 224 255
200 224 255
200 224 255
201 224 255
201 224 255
201 224 255
201 224 255
201 224 255
201 224 255
201 224 255
201 224 255
201 224 255
201 224 255
201 224 255
201 224 255
201 225 255
201 225 255
201 225 255
201 225 255
201 225 255
202 225 255
202 225 255
202 225 255
202 225 255
202 225 255
202 225 255
202 225 255
202 225 255
202 225 255
202 225 255
202 225 255
202 225 255
202 225 255
202 225 255
202 225 255
202 225 255
203 225 255
203 225 255
203 225 255
203 225 255
203 225 255
203 225 255
203 225 255
203 225 255
203 226 255
203 226 255
203 226 255
203 226 255
203 226 255
203 226 255
203 226 255
204 226 255
204 226 255
204 226 255
204 226 255
204 226 255
204 226 255
204 226 255
204 226 255
204 226 255
204 226 255
204 226 255
204 226 255
204 226 255
204 226 255
204 226 255
204 226 255
205 226 255
205 226 255
205 226 255
205 226 255
205 226 255
205 226 255
205 227 255
205 227 255
205 227 255
205 227 255
205 227 255
205 227 255
205 227 255
205 227 255
205 227 255
205 227 255
206 227 255
206 227 255
206 227 255
206 227 255
206 227 255
206 227 255
206 227 255
206 227 255
206 227 255
206 227 255
206 227 255
206 227 255
206 227 255
206 227 255
206 227 255
206 227 255
206 227 255
206 227 255
207 227 255
207 227 255
207 227 255
207 227 255
207 228 255
207 228 255
207 228 255
207 228 255
207 228 255
207 228 255
207 228 255
207 228 255
207 228 255
207 228 255
207 228 255
207 228 255
207 228 255
207 228 255
207 228 255
208 228 255
208 228 255
208 228 255
208 228 255
208 228 255
208 228 255
208 228 255
208 228 255
208 228 255
208 228 255
208 228 255
208 228 255
208 228 255
208 228 255
208 228 255
208 228 255
208 228 255
208 228 255
208 228 255
208 228 255
208 228 255
209 228 255
209 229 255
209 229 255
209 229 255
209 229 255
209 229 255
209 229 255
209 229 255
209 229 255
209 229 255
209 229 255
209 229 255
209 229 255
209 229 255
209 229 255
209 229 255
209 228 255
209 228 255
208 228 255
208 228 255
208 228 255
208 228 255
208 228 255
208 228 255
208 228 255
208 228 255
208 228 255
208 228 255
208 228 255
208 228 255
208 228 255
208 228 255
208 228 255
208 228 255
208 228 255
208 228 255
208 228 255
208 228 255
208 228 255
207 228 255
207 228 255
207 228 255
207 228 255
207 228 255
207 228 255
207 228 255
207 228 255
207 228 255
207 228 255
207 228 255
207 228 255
207 228 255
207 228 255
207 227 255
207 227 255
207 227 255
207 227 255
206 227 255
206 227 255
206 227 255
206 227 255
206 227 255
206 227 255
206 227 255
206 227 255
206 227 255
206 227 255
206 227 255
206 227 255
206 227 255
206 227 255
206 227 255
206 227 255
206 227 255
206 227 255
205 227 255
205 227 255
205 227 255
205 227 255
205 227 255
205 227 255
205 227 255
205 227 255
205 227 255
205 227 255
205 226 255
205 226 255
205 226 255
205 226 255
205 226 255
205 226 255
204 226 255
204 226 255
204 226 255
204 226 255
204 226 255
204 226 255
204 226 255
204 226 255
204 226 255
204 226 255
204 226 255
204 226 255
204 226 255
204 226 255
204 226 255
204 226 255
203 226 255
203 226 255
203 226 255
203 226 255
203 226 255
203 226 255
203 226 255
203 225 255
203 225 255
203 225 255
203 225 255
203 225 255
203 225 255
203 225 255
203 225 255
202 225 255
202 225 255
202 225 255
202 225 255
202 225 255
202 225 255
202 225 255
202 225 255
202 225 255
202 225 255
202 225 255
202 225 255
202 225 255
202 225 255
202 225 255
202 225 255
202 225 255
201 225 255
201 225 255
201 225 255
201 225 255
201 224 255
201 224 255
201 224 255
201 224 255
201 224 255
201 224 255
201 224 255
201 224 255
201 224 255
201 224 255
201 224 255
201 224 255
201 224 255
200 224 255
200 224 255
200 224 255
200 224 255
200 224 255
200 224 255
200 224 255
200 224 255
200 224 255
200 224 255
200 224 255
200 224 255
200 224 255
200 224 255
200 224 255
200 224 255
200 224 255
200 224 255
200 224 255
200 224 255
200 224 255
200 224 255
200 224 255
199 224 255
199 224 255
199 224 255
199 224 255
199 224 255
199 224 255
199 223 255
199 223 255
199 223 255
199 223 255
199 223 255
199 223 255
199 223 255
199 223 255
199 223 255
199 223 255
199 223 255
199 223 255
199 223 255
199 223 255
199 223 255
199 223 255
199 223 255
199 223 255
199 223 255
199 223 255
199 223 255
199 223 255
199 223 255
199 223 255
199 223 255
199 223 255
199 223 255
199 223 255
199 223 255
199 223 255
199 223 255
199 223 255
199 223 255
199 223 255
199 223 255
199 223 255
199 223 255
199 223 255
199 223 255
199 223 255
199 223 255
199 223 255
199 223 255
199 223 255
199 224 255
199 224 255
199 224 255
199 224 255
199 224 255
199 224 255
200 224 255
200 224 255
200 224 255
200 224 255
200 224 255
200 224 255
200 224 255
200 224 255
200 224 255
200 224 255
200 224 255
200 224 255
200 224 255
200 224 255
200 224 255
200 224 255
200 224 255
200 224 255
200 224 255
200 224 255
200 224 255
200 224 255
200 224 255
201 224 255
201 224 255
201 224 255
201 224 255
201 224 255
201 224 255
201 224 255
201 224 255
201 224 255
201 224 255
201 224 255
201 224 255
201 224 255
201 225 255
201 225 255
201 225 255
201 225 255
201 225 255
202 225 255
202 225 255
202 225 255
202 225 255
202 225 255
202 225 255
202 225 255
202 225 255
202 225 255
202 225 255
202 225 255
202 225 255
202 225 255
202 225 255
202 225 255
203 225 255
203 225 255
203 225 255
203 225 255
203 225 255
203 225 255
203 225 255
203 225 255
203 225 255
203 226 255
203 226 255
203 226 255
203 226 255
203 226 255
203 226 255
203 226 255
204 226 255
204 226 255
204 226 255
204 226 255
204 226 255
204 226 255
204 226 255
204 226 255
204 226 255
204 226 255
204 226 255
204 226 255
204 226 255
204 226 255
204 226 255
204 226 255
205 226 255
205 226 255
205 226 255
205 226 255
205 226 255
205 226 255
205 227 255
205 227 255
205 227 255
205 227 255
205 227 255
205 227 255
205 227 255
205 227 255
205 227 255
205 227 255
206 227 255
206 227 255
206 227 255
206 227 255
206 227 255
206 227 255
206 227 255
206 227 255
206 227 255
206 227 255
206 227 255
206 227 255
206 227 255
206 227 255
206 227 255
206 227 255
206 227 255
207 227 255
207 227 255
207 227 255
207 227 255
207 227 255
207 228 255
207 228 255
207 228 255
207 228 255
207 228 255
207 228 255
207 228 255
207 228 255
207 228 255
207 228 255
207 228 255
207 228 255
207 228 255
207 228 255
208 228 255
208 228 255
208 228 255
208 228 255
208 228 255
208 228 255
208 228 255
208 228 255
208 228 255
208 228 255
208 228 255
208 228 255
208 228 255
208 228 255
208 228 255
208 228 255
208 228 255
208 228 255
208 228 255
208 228 255
208 228 255
209 228 255
209 228 255
209 229 255
209 229 255
209 229 255
209 229 255
209 229 255
209 229 255
209 229 255
209 229 255
209 229 255
209 229 255
209 229 255
209 229 255
209 229 255
209 229 255
209 229 255
209 229 255
209 229 255
209 229 255
209 229 255
209 229 255
209 229 255
209 228 255
209 228 255
208 228 255
208 228 255
208 228 255
208 228 255
208 228 255
208 228 255
208 228 255
208 228 255
208 228 255
208 228 255
208 228 255
208 228 255
208 228 255
208 228 255
208 228 255
208 228 255
208 228 255
208 228 255
208 228 255
208 228 255
208 228 255
207 228 255
207 228 255
207 228 255
207 228 255
207 228 255
207 228 255
207 228 255
207 228 255
207 228 255
207 228 255
207 228 255
207 228 255
207 228 255
207 228 255
207 227 255
207 227 255
207 227 255
207 227 255
206 227 255
206 227 255
206 227 255
206 227 255
206 227 255
206 227 255
206 227 255
206 227 255
206 227 255
206 227 255
206 227 255
206 227 255
206 227 255
206 227 255
206 227 255
206 227 255
206 227 255
206 227 255
205 227 255
205 227 255
205 227 255
205 227 255
205 227 255
205 227 255
205 227 255
205 227 255
205 227 255
205 227 255
205 226 255
205 226 255
205 226 255
205 226 255
205 226 255
205 226 255
204 226 255
204 226 255
204 226 255
204 226 255
204 226 255
204 226 255
204 226 255
204 226 255
204 226 255
204 226 255
204 226 255
204 226 255
204 226 255
204 226 255
204 226 255
204 226 255
203 226 255
203 226 255
203 226 255
203 226 255
203 226 255
203 226 255
203 226 255
203 225 255
203 225 255
203 225 255
203 225 255
203 225 255
203 225 255
203 225 255
203 225 255
203 225 255
202 225 255
202 225 255
202 225 255
202 225 255
202 225 255
202 225 255
202 225 255
202 225 255
202 225 255
202 225 255
202 225 255
202 225 255
202 225 255
202 225 255
202 225 255
202 225 255
201 225 255
201 225 255
201 225 255
201 225 255
201 225 255
201 224 255
201 224 255
201 224 255
201 224 255
201 224 255
201 224 255
201 224 255
201 224 255
201 224 255
201 224 255
201 224 255
201 224 255
201 224 255
200 224 255
200 224 255
200 224 255
200 224 255
200 224 255
200 224 255
200 224 255
200 224 255
200 224 255
200 224 255
200 224 255
200 224 255
200 224 255
200 224 255
200 224 255
200 224 255
200 224 255
200 224 255
200 224 255
200 224 255
200 224 255
200 224 255
200 224 255
200 224 255
200 224 255
200 224 255
200 224 255
199 224 255
199 224 255
199 224 255
199 224 255
199 224 255
199 224 255
199 224 255
199 224 255
199 223 255
199 223 255
199 223 255
199 223 255
199 223 255
199 223 255
199 223 255
199 223 255
199 223 255
199 223 255
199 223 255
199 223 255
199 223 255
199 223 255
199 223 255
199 223 255
199 223 255
199 223 255
199 223 255
199 223 255
199 223 255
199 223 255
199 223 255
199 223 255
199 224 255
199 224 255
199 224 255
199 224 255
199 224 255
199 224 255
199 224 255
199 224 255
200 224 255
200 224 255
200 224 255
200 224 255
200 224 255
200 224 255
200 224 255
200 224 255
200 224 255
200 224 255
200 224 255
200 224 255
200 224 255
200 224 255
200 224 255
200 224 255
200 224 255
200 224 255
200 224 255
200 224 255
200 224 255
200 224 255
200 224 255
200 224 255
200 224 255
200 224 255
200 224 255
201 224 255
201 224 255
201 224 255
201 224 255
201 224 255
201 224 255
201 224 255
201 224 255
201 224 255
201 224 255
201 224 255
201 224 255
201 224 255
201 225 255
201 225 255
201 225 255
201 225 255
201 225 255
202 225 255
202 225 255
202 225 255
202 225 255
202 225 255
202 225 255
202 225 255
202 225 255
202 225 255
202 225 255
202 225 255
202 225 255
202 225 255
202 225 255
202 225 255
202 225 255
203 225 255
203 225 255
203 225 255
203 225 255
203 225 255
203 225 255
203 225 255
203 225 255
203 225 255
203 226 255
203 226 255
203 226 255
203 226 255
203 226 255
203 226 255
203 226 255
204 226 255
204 226 255
204 226 255
204 226 255
204 226 255
204 226 255
204 226 255
204 226 255
204 226 255
204 226 255
204 226 255
204 226 255
204 226 255
204 226 255
204 226 255
204 226 255
205 226 255
205 226 255
205 226 255
205 226 255
205 226 255
205 226 255
205 227 255
205 227 255
205 227 255
205 227 255
205 227 255
205 227 255
205 227 255
205 227 255
205 227 255
205 227 255
206 227 255
206 227 255
206 227 255
206 227 255
206 227 255
206 227 255
206 227 255
206 227 255
206 227 255
206 227 255
206 227 255
206 227 255
206 227 255
206 227 255
206 227 255
206 227 255
206 227 255
207 227 255
207 227 255
207 227 255
207 227 255
207 227 255
207 228 255
207 228 255
207 228 255
207 228 255
207 228 255
207 228 255
207 228 255
207 228 255
207 228 255
207 228 255
207 228 255
207 228 255
207 228 255
207 228 255
208 228 255
208 228 255
208 228 255
208 228 255
208 228 255
208 228 255
208 228 255
208 228 255
208 228 255
208 228 255
208 228 255
208 228 255
208 228 255
208 228 255
208 228 255
208 228 255
208 228 255
208 228 255
208 228 255
208 228 255
208 228 255
209 228 255
209 229 255
209 229 255
209 229 255
209 229 255
209 229 255
209 229 255
209 229 255
209 229 255
209 229 255
209 229 255
209 229 255
209 229 255
209 229 255
209 229 255
209 229 255
209 229 255
209 229 255
209 229 255
209 229 255
209 229 255
209 229 255
209 229 255
209 229 255
209 229 255
209 229 255
209 229 255
209 229 255
209 229 255
209 229 255
209 228 255
208 228 255
208 228 255
208 228 255
208 228 255
208 228 255
208 228 255
208 228 255
208 228 255
208 228 255
208 228 255
208 228 255
208 228 255
208 228 255
208 228 255
208 228 255
208 228 255
208 228 255
208 228 255
208 228 255
208 228 255
208 228 255
207 228 255
207 228 255
207 228 255
207 228 255
207 228 255
207 228 255
207 228 255
207 228 255
207 228 255
207 228 255
207 228 255
207 228 255
207 228 255
207 228 255
207 227 255
207 227 255
207 227 255
207 227 255
207 227 255
206 227 255
206 227 255
206 227 255
206 227 255
206 227 255
206 227 255
206 227 255
206 227 255
206 227 255
206 227 255
206 227 255
206 227 255
206 227 255
206 227 255
206 227 255
206 227 255
206 227 255
205 227 255
205 227 255
205 227 255
205 227 255
205 227 255
205 227 255
205 227 255
205 227 255
205 227 255
205 227 255
205 226 255
205 226 255
205 226 255
205 226 255
205 226 255
205 226 255
204 226 255
204 226 255
204 226 255
204 226 255
204 226 255
204 226 255
204 226 255
204 226 255
204 226 255
204 226 255
204 226 255
204 226 255
204 226 255
204 226 255
204 226 255
204 226 255
203 226 255
203 226 255
203 226 255
203 226 255
203 226 255
203 226 255
203 226 255
203 225 255
203 225 255
203 225 255
203 225 255
203 225 255
203 225 255
203 225 255
203 225 255
203 225 255
202 225 255
202 225 255
202 225 255
202 225 255
202 225 255
202 225 255
202 225 255
202 225 255
202 225 255
202 225 255
202 225 255
202 225 255
202 225 255
202 225 255
202 225 255
202 225 255
201 225 255
201 225 255
201 225 255
201 225 255
201 225 255
201 224 255
201 224 255
201 224 255
201 224 255
201 224 255
201 224 255
201 224 255
201 224 255
201 224 255
201 224 255
201 224 255
201 224 255
201 224 255
201 224 255
200 224 255
200 224 255
200 224 255
200 224 255
200 224 255
200 224 255
200 224 255
200 224 255
200 224 255
200 224 255
200 224 255
200 224 255
200 224 255
200 224 255
200 224 255
200 224 255
200 224 255
200 224 255
200 224 255
200 224 255
200 224 255
200 224 255
200 224 255
200 224 255
200 224 255
200 224 255
200 224 255
200 224 255
200 224 255
200 224 255
200 224 255
200 224 255
200 224 255
200 224 255
199 224 255
199 224 255
199 224 255
199 224 255
199 224 255
199 224 255
199 224 255
199 224 255
199 224 255
199 224 255
199 224 255
199 224 255
199 224 255
199 224 255
199 224 255
199 224 255
199 224 255
199 224 255
200 224 255
200 224 255
200 224 255
200 224 255
200 224 255
200 224 255
200 224 255
200 224 255
200 224 255
200 224 255
200 224 255
200 224 255
200 224 255
200 224 255
200 224 255
200 224 255
200 224 255
200 224 255
200 224 255
200 224 255
200 224 255
200 224 255
200 224 255
200 224 255
200 224 255
200 224 255
200 224 255
200 224 255
200 224 255
200 224 255
200 224 255
200 224 255
200 224 255
200 224 255
201 224 255
201 224 255
201 224 255
201 224 255
201 224 255
201 224 255
201 224 255
201 224 255
201 224 255
201 224 255
201 224 255
201 224 255
201 224 255
201 225 255
201 225 255
201 225 255
201 225 255
201 225 255
201 225 255
202 225 255
202 225 255
202 225 255
202 225 255
202 225 255
202 225 255
202 225 255
202 225 255
202 225 255
202 225 255
202 225 255
202 225 255
202 225 255
202 225 255
202 225 255
202 225 255
203 225 255
203 225 255
203 225 255
203 225 255
203 225 255
203 225 255
203 225 255
203 225 255
203 225 255
203 226 255
203 226 255
203 226 255
203 226 255
203 226 255
203 226 255
203 226 255
204 226 255
204 226 255
204 226 255
204 226 255
204 226 255
204 226 255
204 226 255
204 226 255
204 226 255
204 226 255
204 226 255
204 226 255
204 226 255
204 226 255
204 226 255
204 226 255
205 226 255
205 226 255
205 226 255
205 226 255
205 226 255
205 226 255
205 227 255
205 227 255
205 227 255
205 227 255
205 227 255
205 227 255
205 227 255
205 227 255
205 227 255
205 227 255
206 227 255
206 227 255
206 227 255
206 227 255
206 227 255
206 227 255
206 227 255
206 227 255
206 227 255
206 227 255
206 227 255
206 227 255
206 227 255
206 227 255
206 227 255
206 227 255
206 227 255
206 227 255
207 227 255
207 227 255
207 227 255
207 227 255
207 228 255
207 228 255
207 228 255
207 228 255
207 228 255
207 228 255
207 228 255
207 228 255
207 228 255
207 228 255
207 228 255
207 228 255
207 228 255
207 228 255
208 228 255
208 228 255
208 228 255
208 228 255
208 228 255
208 228 255
208 228 255
208 228 255
208 228 255
208 228 255
208 228 255
208 228 255
208 228 255
208 228 255
208 228 255
208 228 255
208 228 255
208 228 255
208 228 255
208 228 255
208 228 255
209 228 255
209 229 255
209 229 255
209 229 255
209 229 255
209 229 255
209 229 255
209 229 255
209 229 255
209 229 255
209 229 255
209 229 255
209 229 255
209 229 255
209 229 255
209 229 255
209 229 255
209 229 255
209 229 255
209 229 255
209 229 255
209 229 255
209 229 255
209 229 255
209 229 255
209 229 255
209 229 255
209 229 255
209 229 255
209 229 255
209 229 255
209 229 255
209 229 255
209 229 255
209 229 255
209 229 255
209 228 255
208 228 255
208 228 255
208 228 255
208 228 255
208 228 255
208 228 255
208 228 255
208 228 255
208 228 255
208 228 255
208 228 255
208 228 255
208 228 255
208 228 255
208 228 255
208 228 255
208 228 255
208 228 255
208 228 255
208 228 255
208 228 255
207 228 255
207 228 255
207 228 255
207 228 255
207 228 255
207 228 255
207 228 255
207 228 255
207 228 255
207 228 255
207 228 255
207 228 255
207 228 255
207 228 255
207 227 255
207 227 255
207 227 255
207 227 255
207 227 255
206 227 255
206 227 255
206 227 255
206 227 255
206 227 255
206 227 255
206 227 255
206 227 255
206 227 255
206 227 255
206 227 255
206 227 255
206 227 255
206 227 255
206 227 255
206 227 255
206 227 255
205 227 255
205 227 255
205 227 255
205 227 255
205 227 255
205 227 255
205 227 255
205 227 255
205 227 255
205 227 255
205 226 255
205 226 255
205 226 255
205 226 255
205 226 255
205 226 255
204 226 255
204 226 255
204 226 255
204 226 255
204 226 255
204 226 255
204 226 255
204 226 255
204 226 255
204 226 255
204 226 255
204 226 255
204 226 255
204 226 255
204 226 255
204 226 255
203 226 255
203 226 255
203 226 255
203 226 255
203 226 255
203 226 255
203 226 255
203 225 255
203 225 255
203 225 255
203 225 255
203 225 255
203 225 255
203 225 255
203 225 255
203 225 255
202 225 255
202 225 255
202 225 255
202 225 255
202 225 255
202 225 255
202 225 255
202 225 255
202 225 255
202 225 255
202 225 255
202 225 255
202 225 255
202 225 255
202 225 255
202 225 255
202 225 255
201 225 255
201 225 255
201 225 255
201 225 255
201 225 255
201 224 255
201 224 255
201 224 255
201 224 255
201 224 255
201 224 255
201 224 255
201 224 255
201 224 255
201 224 255
201 224 255
201 224 255
201 224 255
201 224 255
201 224 255
200 224 255
200 224 255
200 224 255
200 224 255
200 224 255
200 224 255
200 224 255
200 224 255
200 224 255
200 224 255
200 224 255
200 224 255
200 224 255
200 224 255
200 224 255
200 224 255
200 224 255
200 224 255
200 224 255
200 224 255
200 224 255
200 224 255
200 224 255
200 224 255
200 224 255
200 224 255
200 224 255
200 224 255
200 224 255
200 224 255
200 224 255
200 224 255
200 224 255
200 224 255
200 224 255
200 224 255
200 224 255
200 224 255
200 224 255
200 224 255
200 224 255
200 224 255
200 224 255
200 224 255
200 224 255
200 224 255
200 224 255
200 224 255
200 224 255
200 224 255
200 224 255
200 224 255
200 224 255
200 224 255
200 224 255
200 224 255
200 224 255
200 224 255
200 224 255
200 224 255
200 224 255
200 224 255
200 224 255
200 224 255
200 224 255
200 224 255
200 224 255
200 224 255
200 224 255
200 224 255
200 224 255
200 224 255
200 224 255
200 224 255
200 224 255
200 224 255
201 224 255
201 224 255
201 224 255
201 224 255
201 224 255
201 224 255
201 224 255
201 224 255
201 224 255
201 224 255
201 224 255
201 224 255
201 224 255
201 224 255
201 224 255
201 225 255
201 225 255
201 225 255
201 225 255
201 225 255
202 225 255
202 225 255
202 225 255
202 225 255
202 225 255
202 225 255
202 225 255
202 225 255
202 225 255
202 225 255
202 225 255
202 225 255
202 225 255
202 225 255
202 225 255
202 225 255
202 225 255
203 225 255
203 225 255
203 225 255
203 225 255
203 225 255
203 225 255
203 225 255
203 225 255
203 225 255
203 226 255
203 226 255
203 226 255
203 226 255
203 226 255
203 226 255
203 226 255
204 226 255
204 226 255
204 226 255
204 226 255
204 226 255
204 226 255
204 226 255
204 226 255
204 226 255
204 226 255
204 226 255
204 226 255
204 226 255
204 226 255
204 226 255
204 226 255
205 226 255
205 226 255
205 226 255
205 226 255
205 226 255
205 226 255
205 227 255
205 227 255
205 227 255
205 227 255
205 227 255
205 227 255
205 227 255
205 227 255
205 227 255
205 227 255
206 227 255
206 227 255
206 227 255
206 227 255
206 227 255
206 227 255
206 227 255
206 227 255
206 227 255
206 227 255
206 227 255
206 227 255
206 227 255
206 227 255
206 227 255
206 227 255
206 227 255
207 227 255
207 227 255
207 227 255
207 227 255
207 227 255
207 228 255
207 228 255
207 228 255
207 228 255
207 228 255
207 228 255
207 228 255
207 228 255
207 228 255
207 228 255
207 228 255
207 228 255
207 228 255
207 228 255
208 228 255
208 228 255
208 228 255
208 228 255
208 228 255
208 228 255
208 228 255
208 228 255
208 228 255
208 228 255
208 228 255
208 228 255
208 228 255
208 228 255
208 228 255
208 228 255
208 228 255
208 228 255
208 228 255
208 228 255
209 228 255
209 228 255
209 229 255
209 229 255
209 229 255
209 229 255
209 229 255
209 229 255
209 229 255
209 229 255
209 229 255
209 229 255
209 229 255
209 229 255
209 229 255
209 229 255
209 229 255
209 229 255
209 229 255
209 229 255
209 229 255
210 229 255
209 229 255
209 229 255
209 229 255
209 229 255
209 229 255
209 229 255
209 229 255
209 229 255
209 229 255
209 229 255
209 229 255
209 229 255
209 229 255
209 229 255
209 229 255
209 229 255
209 229 255
209 229 255
209 229 255
209 229 255
209 229 255
209 228 255
209 228 255
208 228 255
208 228 255
208 228 255
208 228 255
208 228 255
208 228 255
208 228 255
208 228 255
208 228 255
208 228 255
208 228 255
208 228 255
208 228 255
208 228 255
208 228 255
208 228 255
208 228 255
208 228 255
208 228 255
208 228 255
207 228 255
207 228 255
207 228 255
207 228 255
207 228 255
207 228 255
207 228 255
207 228 255
207 228 255
207 228 255
207 228 255
207 228 255
207 228 255
207 228 255
207 227 255
207 227 255
207 227 255
207 227 255
207 227 255
206 227 255
206 227 255
206 227 255
206 227 255
206 227 255
206 227 255
206 227 255
206 227 255
206 227 255
206 227 255
206 227 255
206 227 255
206 227 255
206 227 255
206 227 255
206 227 255
206 227 255
205 227 255
205 227 255
205 227 255
205 227 255
205 227 255
205 227 255
205 227 255
205 227 255
205 227 255
205 227 255
205 226 255
205 226 255
205 226 255
205 226 255
205 226 255
205 226 255
204 226 255
204 226 255
204 226 255
204 226 255
204 226 255
204 226 255
204 226 255
204 226 255
204 226 255
204 226 255
204 226 255
204 226 255
204 226 255
204 226 255
204 226 255
204 226 255
203 226 255
203 226 255
203 226 255
203 226 255
203 226 255
203 226 255
203 226 255
203 225 255
203 225 255
203 225 255
203 225 255
203 225 255
203 225 255
203 225 255
203 225 255
203 225 255
202 225 255
202 225 255
202 225 255
202 225 255
202 225 255
202 225 255
202 225 255
202 225 255
202 225 255
202 225 255
202 225 255
202 225 255
202 225 255
202 225 255
202 225 255
202 225 255
202 225 255
202 225 255
201 225 255
201 225 255
201 225 255
201 225 255
201 225 255
201 224 255
201 224 255
201 224 255
201 224 255
201 224 255
201 224 255
201 224 255
201 224 255
201 224 255
201 224 255
201 224 255
201 224 255
201 224 255
201 224 255
201 224 255
201 224 255
200 224 255
200 224 255
200 224 255
200 224 255
200 224 255
200 224 255
200 224 255
200 224 255
200 224 255
200 224 255
200 224 255
200 224 255
200 224 255
200 224 255
200 224 255
200 224 255
200 224 255
200 224 255
200 224 255
200 224 255
200 224 255
200 224 255
200 224 255
200 224 255
200 224 255
200 224 255
200 224 255
200 224 255
200 224 255
200 224 255
200 224 255
200 224 255
200 224 255
200 224 255
200 224 255
200 224 255
200 224 255
200 224 255
200 224 255
200 224 255
200 224 255
200 224 255
200 224 255
200 224 255
200 224 255
200 224 255
200 224 255
200 224 255
200 224 255
200 224 255
200 224 255
200 224 255
200 224 255
200 224 255
200 224 255
200 224 255
200 224 255
200 224 255
200 224 255
200 224 255
200 224 255
200 224 255
200 224 255
200 224 255
200 224 255
200 224 255
201 224 255
201 224 255
201 224 255
201 224 255
201 224 255
201 224 255
201 224 255
201 224 255
201 224 255
201 224 255
201 224 255
201 224 255
201 224 255
201 224 255
201 224 255
201 224 255
201 225 255
201 225 255
201 225 255
201 225 255
201 225 255
202 225 255
202 225 255
202 225 255
202 225 255
202 225 255
202 225 255
202 225 255
202 225 255
202 225 255
202 225 255
202 225 255
202 225 255
202 225 255
202 225 255
202 225 255
202 225 255
202 225 255
202 225 255
203 225 255
203 225 255
203 225 255
203 225 255
203 225 255
203 225 255
203 225 255
203 225 255
203 225 255
203 226 255
203 226 255
203 226 255
203 226 255
203 226 255
203 226 255
203 226 255
204 226 255
204 226 255
204 226 255
204 226 255
204 226 255
204 226 255
204 226 255
204 226 255
204 226 255
204 226 255
204 226 255
204 226 255
204 226 255
204 226 255
204 226 255
204 226 255
205 226 255
205 226 255
205 226 255
205 226 255
205 226 255
205 226 255
205 226 255
205 227 255
205 227 255
205 227 255
205 227 255
205 227 255
205 227 255
205 227 255
205 227 255
205 227 255
206 227 255
206 227 255
206 227 255
206 227 255
206 227 255
206 227 255
206 227 255
206 227 255
206 227 255
206 227 255
206 227 255
206 227 255
206 227 255
206 227 255
206 227 255
206 227 255
206 227 255
207 227 255
207 227 255
207 227 255
207 227 255
207 227 255
207 228 255
207 228 255
207 228 255
207 228 255
207 228 255
207 228 255
207 228 255
207 228 255
207 228 255
207 228 255
207 228 255
207 228 255
207 228 255
207 228 255
208 228 255
208 228 255
208 228 255
208 228 255
208 228 255
208 228 255
208 228 255
208 228 255
208 228 255
208 228 255
208 228 255
208 228 255
208 228 255
208 228 255
208 228 255
208 228 255
208 228 255
208 228 255
208 228 255
208 228 255
209 228 255
209 229 255
209 229 255
209 229 255
209 229 255
209 229 255
209 229 255
209 229 255
209 229 255
209 229 255
209 229 255
209 229 255
209 229 255
209 229 255
209 229 255
209 229 255
209 229 255
209 229 255
209 229 255
209 229 255
209 229 255
209 229 255
210 229 255
210 229 255
210 229 255
210 229 255
210 229 255
210 229 255
210 229 255
209 229 255
209 229 255
209 229 255
209 229 255
209 229 255
209 229 255
209 229 255
209 229 255
209 229 255
209 229 255
209 229 255
209 229 255
209 229 255
209 229 255
209 229 255
209 229 255
209 229 255
209 229 255
209 229 255
209 229 255
209 229 255
209 228 255
208 228 255
208 228 255
208 228 255
208 228 255
208 228 255
208 228 255
208 228 255
208 228 255
208 228 255
208 228 255
208 228 255
208 228 255
208 228 255
208 228 255
208 228 255
208 228 255
208 228 255
208 228 255
208 228 255
208 228 255
207 228 255
207 228 255
207 228 255
207 228 255
207 228 255
207 228 255
207 228 255
207 228 255
207 228 255
207 228 255
207 228 255
207 228 255
207 228 255
207 228 255
207 227 255
207 227 255
207 227 255
207 227 255
207 227 255
206 227 255
206 227 255
206 227 255
206 227 255
206 227 255
206 227 255
206 227 255
206 227 255
206 227 255
206 227 255
206 227 255
206 227 255
206 227 255
206 227 255
206 227 255
206 227 255
206 227 255
205 227 255
205 227 255
205 227 255
205 227 255
205 227 255
205 227 255
205 227 255
205 227 255
205 227 255
205 227 255
205 226 255
205 226 255
205 226 255
205 226 255
205 226 255
205 226 255
204 226 255
204 226 255
204 226 255
204 226 255
204 226 255
204 226 255
204 226 255
204 226 255
204 226 255
204 226 255
204 226 255
204 226 255
204 226 255
204 226 255
204 226 255
204 226 255
203 226 255
203 226 255
203 226 255
203 226 255
203 226 255
203 226 255
203 226 255
203 225 255
203 225 255
203 225 255
203 225 255
203 225 255
203 225 255
203 225 255
203 225 255
203 225 255
203 225 255
202 225 255
202 225 255
202 225 255
202 225 255
202 225 255
202 225 255
202 225 255
202 225 255
202 225 255
202 225 255
202 225 255
202 225 255
202 225 255
202 225 255
202 225 255
202 225 255
202 225 255
201 225 255
201 225 255
201 225 255
201 225 255
201 225 255
201 225 255
201 225 255
201 224 255
201 224 255
201 224 255
201 224 255
201 224 255
201 224 255
201 224 255
201 224 255
201 224 255
201 224 255
201 224 255
201 224 255
201 224 255
201 224 255
201 224 255
201 224 255
201 224 255
201 224 255
200 224 255
200 224 255
200 224 255
200 224 255
200 224 255
200 224 255
200 224 255
200 224 255
200 224 255
200 224 255
200 224 255
200 224 255
200 224 255
200 224 255
200 224 255
200 224 255
200 224 255
200 224 255
200 224 255
200 224 255
200 224 255
200 224 255
200 224 255
200 224 255
200 224 255
200 224 255
200 224 255
200 224 255
200 224 255
200 224 255
200 224 255
200 224 255
200 224 255
200 224 255
200 224 255
200 224 255
200 224 255
200 224 255
200 224 255
200 224 255
200 224 255
200 224 255
200 224 255
200 224 255
200 224 255
200 224 255
200 224 255
200 224 255
200 224 255
200 224 255
200 224 255
200 224 255
201 224 255
201 224 255
201 224 255
201 224 255
201 224 255
201 224 255
201 224 255
201 224 255
201 224 255
201 224 255
201 224 255
201 224 255
201 224 255
201 224 255
201 224 255
201 224 255
201 224 255
201 224 255
201 225 255
201 225 255
201 225 255
201 225 255
201 225 255
201 225 255
202 225 255
202 225 255
202 225 255
202 225 255
202 225 255
202 225 255
202 225 255
202 225 255
202 225 255
202 225 255
202 225 255
202 225 255
202 225 255
202 225 255
202 225 255
202 225 255
202 225 255
202 225 255
202 225 255
203 225 255
203 225 255
203 225 255
203 225 255
203 225 255
203 225 255
203 225 255
203 225 255
203 225 255
203 226 255
203 226 255
203 226 255
203 226 255
203 226 255
203 226 255
203 226 255
204 226 255
204 226 255
204 226 255
204 226 255
204 226 255
204 226 255
204 226 255
204 226 255
204 226 255
204 226 255
204 226 255
204 226 255
204 226 255
204 226 255
204 226 255
204 226 255
205 226 255
205 226 255
205 226 255
205 226 255
205 226 255
205 226 255
205 227 255
205 227 255
205 227 255
205 227 255
205 227 255
205 227 255
205 227 255
205 227 255
205 227 255
205 227 255
206 227 255
206 227 255
206 227 255
206 227 255
206 227 255
206 227 255
206 227 255
206 227 255
206 227 255
206 227 255
206 227 255
206 227 255
206 227 255
206 227 255
206 227 255
206 227 255
206 227 255
207 227 255
207 227 255
207 227 255
207 227 255
207 228 255
207 228 255
207 228 255
207 228 255
207 228 255
207 228 255
207 228 255
207 228 255
207 228 255
207 228 255
207 228 255
207 228 255
207 228 255
207 228 255
207 228 255
208 228 255
208 228 255
208 228 255
208 228 255
208 228 255
208 228 255
208 228 255
208 228 255
208 228 255
208 228 255
208 228 255
208 228 255
208 228 255
208 228 255
208 228 255
208 228 255
208 228 255
208 228 255
208 228 255
208 228 255
209 228 255
209 229 255
209 229 255
209 229 255
209 229 255
209 229 255
209 229 255
209 229 255
209 229 255
209 229 255
209 229 255
209 229 255
209 229 255
209 229 255
209 229 255
209 229 255
209 229 255
209 229 255
209 229 255
209 229 255
209 229 255
209 229 255
210 229 255
210 229 255
210 229 255
210 229 255
210 229 255
210 229 255
210 229 255
210 229 255
210 229 255
210 229 255
210 229 255
210 229 255
210 229 255
209 229 255
209 229 255
209 229 255
209 229 255
209 229 255
209 229 255
209 229 255
209 229 255
209 229 255
209 229 255
209 229 255
209 229 255
209 229 255
209 229 255
209 229 255
209 229 255
209 229 255
209 229 255
209 229 255
209 229 255
209 229 255
209 228 255
209 228 255
208 228 255
208 228 255
208 228 255
208 228 255
208 228 255
208 228 255
208 228 255
208 228 255
208 228 255
208 228 255
208 228 255
208 228 255
208 228 255
208 228 255
208 228 255
208 228 255
208 228 255
208 228 255
208 228 255
208 228 255
207 228 255
207 228 255
207 228 255
207 228 255
207 228 255
207 228 255
207 228 255
207 228 255
207 228 255
207 228 255
207 228 255
207 228 255
207 228 255
207 228 255
207 227 255
207 227 255
207 227 255
207 227 255
206 227 255
206 227 255
206 227 255
206 227 255
206 227 255
206 227 255
206 227 255
206 227 255
206 227 255
206 227 255
206 227 255
206 227 255
206 227 255
206 227 255
206 227 255
206 227 255
206 227 255
205 227 255
205 227 255
205 227 255
205 227 255
205 227 255
205 227 255
205 227 255
205 227 255
205 227 255
205 227 255
205 226 255
205 226 255
205 226 255
205 226 255
205 226 255
205 226 255
204 226 255
204 226 255
204 226 255
204 226 255
204 226 255
204 226 255
204 226 255
204 226 255
204 226 255
204 226 255
204 226 255
204 226 255
204 226 255
204 226 255
204 226 255
204 226 255
203 226 255
203 226 255
203 226 255
203 226 255
203 226 255
203 226 255
203 226 255
203 225 255
203 225 255
203 225 255
203 225 255
203 225 255
203 225 255
203 225 255
203 225 255
203 225 255
203 225 255
202 225 255
202 225 255
202 225 255
202 225 255
202 225 255
202 225 255
202 225 255
202 225 255
202 225 255
202 225 255
202 225 255
202 225 255
202 225 255
202 225 255
202 225 255
202 225 255
202 225 255
202 225 255
202 225 255
201 225 255
201 225 255
201 225 255
201 225 255
201 225 255
201 225 255
201 224 255
201 224 255
201 224 255
201 224 255
201 224 255
201 224 255
201 224 255
201 224 255
201 224 255
201 224 255
201 224 255
201 224 255
201 224 255
201 224 255
201 224 255
201 224 255
201 224 255
201 224 255
201 224 255
201 224 255
201 224 255
201 224 255
200 224 255
200 224 255
200 224 255
200 224 255
200 224 255
200 224 255
200 224 255
200 224 255
200 224 255
200 224 255
200 224 255
200 224 255
200 224 255
200 224 255
200 224 255
200 224 255
200 224 255
200 224 255
200 224 255
200 224 255
200 224 255
200 224 255
200 224 255
200 224 255
200 224 255
200 224 255
200 224 255
200 224 255
200 224 255
200 224 255
200 224 255
200 224 255
200 224 255
200 224 255
200 224 255
200 224 255
201 224 255
201 224 255
201 224 255
201 224 255
201 224 255
201 224 255
201 224 255
201 224 255
201 224 255
201 224 255
201 224 255
201 224 255
201 224 255
201 224 255
201 224 255
201 224 255
201 224 255
201 224 255
201 224 255
201 224 255
201 224 255
201 224 255
201 225 255
201 225 255
201 225 255
201 225 255
201 225 255
201 225 255
202 225 255
202 225 255
202 225 255
202 225 255
202 225 255
202 225 255
202 225 255
202 225 255
202 225 255
202 225 255
202 225 255
202 225 255
202 225 255
202 225 255
202 225 255
202 225 255
202 225 255
202 225 255
202 225 255
203 225 255
203 225 255
203 225 255
203 225 255
203 225 255
203 225 255
203 225 255
203 225 255
203 225 255
203 225 255
203 226 255
203 226 255
203 226 255
203 226 255
203 226 255
203 226 255
203 226 255
204 226 255
204 226 255
204 226 255
204 226 255
204 226 255
204 226 255
204 226 255
204 226 255
204 226 255
204 226 255
204 226 255
204 226 255
204 226 255
204 226 255
204 226 255
204 226 255
205 226 255
205 226 255
205 226 255
205 226 255
205 226 255
205 226 255
205 227 255
205 227 255
205 227 255
205 227 255
205 227 255
205 227 255
205 227 255
205 227 255
205 227 255
205 227 255
206 227 255
206 227 255
206 227 255
206 227 255
206 227 255
206 227 255
206 227 255
206 227 255
206 227 255
206 227 255
206 227 255
206 227 255
206 227 255
206 227 255
206 227 255
206 227 255
206 227 255
207 227 255
207 227 255
207 227 255
207 227 255
207 228 255
207 228 255
207 228 255
207 228 255
207 228 255
207 228 255
207 228 255
207 228 255
207 228 255
207 228 255
207 228 255
207 228 255
207 228 255
207 228 255
208 228 255
208 228 255
208 228 255
208 228 255
208 228 255
208 228 255
208 228 255
208 228 255
208 228 255
208 228 255
208 228 255
208 228 255
208 228 255
208 228 255
208 228 255
208 228 255
208 228 255
208 228 255
208 228 255
208 228 255
209 228 255
209 228 255
209 229 255
209 229 255
209 229 255
209 229 255
209 229 255
209 229 255
209 229 255
209 229 255
209 229 255
209 229 255
209 229 255
209 229 255
209 229 255
209 229 255
209 229 255
209 229 255
209 229 255
209 229 255
209 229 255
209 229 255
209 229 255
210 229 255
210 229 255
210 229 255
210 229 255
210 229 255
210 229 255
210 229 255
210 229 255
210 229 255
210 229 255
210 229 255
210 229 255
210 229 255
210 229 255
210 229 255
210 229 255
210 229 255
210 229 255
210 229 255
210 229 255
209 229 255
209 229 255
209 229 255
209 229 255
209 229 255
209 229 255
209 229 255
209 229 255
209 229 255
209 229 255
209 229 255
209 229 255
209 229 255
209 229 255
209 229 255
209 229 255
209 229 255
209 229 255
209 229 255
209 229 255
209 229 255
209 228 255
208 228 255
208 228 255
208 228 255
208 228 255
208 228 255
208 228 255
208 228 255
208 228 255
208 228 255
208 228 255
208 228 255
208 228 255
208 228 255
208 228 255
208 228 255
208 228 255
208 228 255
208 228 255
208 228 255
208 228 255
207 228 255
207 228 255
207 228 255
207 228 255
207 228 255
207 228 255
207 228 255
207 228 255
207 228 255
207 228 255
207 228 255
207 228 255
207 228 255
207 228 255
207 227 255
207 227 255
207 227 255
207 227 255
206 227 255
206 227 255
206 227 255
206 227 255
206 227 255
206 227 255
206 227 255
206 227 255
206 227 255
206 227 255
206 227 255
206 227 255
206 227 255
206 227 255
206 227 255
206 227 255
206 227 255
205 227 255
205 227 255
205 227 255
205 227 255
205 227 255
205 227 255
205 227 255
205 227 255
205 227 255
205 227 255
205 226 255
205 226 255
205 226 255
205 226 255
205 226 255
205 226 255
204 226 255
204 226 255
204 226 255
204 226 255
204 226 255
204 226 255
204 226 255
204 226 255
204 226 255
204 226 255
204 226 255
204 226 255
204 226 255
204 226 255
204 226 255
204 226 255
204 226 255
203 226 255
203 226 255
203 226 255
203 226 255
203 226 255
203 226 255
203 226 255
203 225 255
203 225 255
203 225 255
203 225 255
203 225 255
203 225 255
203 225 255
203 225 255
203 225 255
203 225 255
202 225 255
202 225 255
202 225 255
202 225 255
202 225 255
202 225 255
202 225 255
202 225 255
202 225 255
202 225 255
202 225 255
202 225 255
202 225 255
202 225 255
202 225 255
202 225 255
202 225 255
202 225 255
202 225 255
201 225 255
201 225 255
201 225 255
201 225 255
201 225 255
201 225 255
201 225 255
201 225 255
201 224 255
201 224 255
201 224 255
201 224 255
201 224 255
201 224 255
201 224 255
201 224 255
201 224 255
201 224 255
201 224 255
201 224 255
201 224 255
201 224 255
201 224 255
201 224 255
201 224 255
201 224 255
201 224 255
201 224 255
201 224 255
201 224 255
201 224 255
201 224 255
201 224 255
201 224 255
201 224 255
201 224 255
201 224 255
201 224 255
201 224 255
201 224 255
201 224 255
201 224 255
201 224 255
201 224 255
201 224 255
201 224 255
201 224 255
201 224 255
201 224 255
201 224 255
201 224 255
201 224 255
201 224 255
201 224 255
201 224 255
201 224 255
201 224 255
201 224 255
201 224 255
201 224 255
201 224 255
201 224 255
201 224 255
201 224 255
201 224 255
201 224 255
201 224 255
201 224 255
201 224 255
201 224 255
201 224 255
201 224 255
201 224 255
201 224 255
201 224 255
201 224 255
201 225 255
201 225 255
201 225 255
201 225 255
201 225 255
201 225 255
201 225 255
201 225 255
202 225 255
202 225 255
202 225 255
202 225 255
202 225 255
202 225 255
202 225 255
202 225 255
202 225 255
202 225 255
202 225 255
202 225 255
202 225 255
202 225 255
202 225 255
202 225 255
202 225 255
202 225 255
202 225 255
203 225 255
203 225 255
203 225 255
203 225 255
203 225 255
203 225 255
203 225 255
203 225 255
203 225 255
203 225 255
203 226 255
203 226 255
203 226 255
203 226 255
203 226 255
203 226 255
203 226 255
204 226 255
204 226 255
204 226 255
204 226 255
204 226 255
204 226 255
204 226 255
204 226 255
204 226 255
204 226 255
204 226 255
204 226 255
204 226 255
204 226 255
204 226 255
204 226 255
205 226 255
205 226 255
205 226 255
205 226 255
205 226 255
205 226 255
205 226 255
205 227 255
205 227 255
205 227 255
205 227 255
205 227 255
205 227 255
205 227 255
205 227 255
205 227 255
205 227 255
206 227 255
206 227 255
206 227 255
206 227 255
206 227 255
206 227 255
206 227 255
206 227 255
206 227 255
206 227 255
206 227 255
206 227 255
206 227 255
206 227 255
206 227 255
206 227 255
206 227 255
207 227 255
207 227 255
207 227 255
207 227 255
207 228 255
207 228 255
207 228 255
207 228 255
207 228 255
207 228 255
207 228 255
207 228 255
207 228 255
207 228 255
207 228 255
207 228 255
207 228 255
207 228 255
208 228 255
208 228 255
208 228 255
208 228 255
208 228 255
208 228 255
208 228 255
208 228 255
208 228 255
208 228 255
208 228 255
208 228 255
208 228 255
208 228 255
208 228 255
208 228 255
208 228 255
208 228 255
208 228 255
208 228 255
209 228 255
209 229 255
209 229 255
209 229 255
209 229 255
209 229 255
209 229 255
209 229 255
209 229 255
209 229 255
209 229 255
209 229 255
209 229 255
209 229 255
209 229 255
209 229 255
209 229 255
209 229 255
209 229 255
209 229 255
209 229 255
209 229 255
210 229 255
210 229 255
210 229 255
210 229 255
210 229 255
210 229 255
210 229 255
210 229 255
210 229 255
210 229 255
210 229 255
210 229 255
210 229 255
210 229 255
210 229 255
210 229 255
210 229 255
210 229 255
210 229 255
210 229 255
210 229 255
210 229 255
210 229 255
210 229 255
210 229 255
210 229 255
210 229 255
210 229 255
209 229 255
209 229 255
209 229 255
209 229 255
209 229 255
209 229 255
209 229 255
209 229 255
209 229 255
209 229 255
209 229 255
209 229 255
209 229 255
209 229 255
209 229 255
209 229 255
209 229 255
209 229 255
209 229 255
209 229 255
209 228 255
209 228 255
208 228 255
208 228 255
208 228 255
208 228 255
208 228 255
208 228 255
208 228 255
208 228 255
208 228 255
208 228 255
208 228 255
208 228 255
208 228 255
208 228 255
208 228 255
208 228 255
208 228 255
208 228 255
208 228 255
207 228 255
207 228 255
207 228 255
207 228 255
207 228 255
207 228 255
207 228 255
207 228 255
207 228 255
207 228 255
207 228 255
207 228 255
207 228 255
207 228 255
207 227 255
207 227 255
207 227 255
207 227 255
206 227 255
206 227 255
206 227 255
206 227 255
206 227 255
206 227 255
206 227 255
206 227 255
206 227 255
206 227 255
206 227 255
206 227 255
206 227 255
206 227 255
206 227 255
206 227 255
206 227 255
205 227 255
205 227 255
205 227 255
205 227 255
205 227 255
205 227 255
205 227 255
205 227 255
205 227 255
205 227 255
205 226 255
205 226 255
205 226 255
205 226 255
205 226 255
205 226 255
205 226 255
204 226 255
204 226 255
204 226 255
204 226 255
204 226 255
204 226 255
204 226 255
204 226 255
204 226 255
204 226 255
204 226 255
204 226 255
204 226 255
204 226 255
204 226 255
204 226 255
203 226 255
203 226 255
203 226 255
203 226 255
203 226 255
203 226 255
203 226 255
203 226 255
203 225 255
203 225 255
203 225 255
203 225 255
203 225 255
203 225 255
203 225 255
203 225 255
203 225 255
202 225 255
202 225 255
202 225 255
202 225 255
202 225 255
202 225 255
202 225 255
202 225 255
202 225 255
202 225 255
202 225 255
202 225 255
202 225 255
202 225 255
202 225 255
202 225 255
202 225 255
202 225 255
202 225 255
202 225 255
202 225 255
202 225 255
201 225 255
201 225 255
201 225 255
201 225 255
201 225 255
201 225 255
201 225 255
201 225 255
201 224 255
201 224 255
201 224 255
201 224 255
201 224 255
201 224 255
201 224 255
201 224 255
201 224 255
201 224 255
201 224 255
201 224 255
201 224 255
201 224 255
201 224 255
201 224 255
201 224 255
201 224 255
201 224 255
201 224 255
201 224 255
201 224 255
201 224 255
201 224 255
201 224 255
201 224 255
201 224 255
201 224 255
201 224 255
201 224 255
201 224 255
201 224 255
201 224 255
201 224 255
201 224 255
201 224 255
201 224 255
201 224 255
201 224 255
201 224 255
201 224 255
201 224 255
201 224 255
201 224 255
201 224 255
201 224 255
201 224 255
201 224 255
201 224 255
201 224 255
201 224 255
201 224 255
201 224 255
201 224 255
201 224 255
201 224 255
201 225 255
201 225 255
201 225 255
201 225 255
201 225 255
201 225 255
201 225 255
201 225 255
202 225 255
202 225 255
202 225 255
202 225 255
202 225 255
202 225 255
202 225 255
202 225 255
202 225 255
202 225 255
202 225 255
202 225 255
202 225 255
202 225 255
202 225 255
202 225 255
202 225 255
202 225 255
202 225 255
202 225 255
202 225 255
203 225 255
203 225 255
203 225 255
203 225 255
203 225 255
203 225 255
203 225 255
203 225 255
203 225 255
203 225 255
203 226 255
203 226 255
203 226 255
203 226 255
203 226 255
203 226 255
203 226 255
203 226 255
204 226 255
204 226 255
204 226 255
204 226 255
204 226 255
204 226 255
204 226 255
204 226 255
204 226 255
204 226 255
204 226 255
204 226 255
204 226 255
204 226 255
204 226 255
204 226 255
205 226 255
205 226 255
205 226 255
205 226 255
205 226 255
205 226 255
205 226 255
205 227 255
205 227 255
205 227 255
205 227 255
205 227 255
205 227 255
205 227 255
205 227 255
205 227 255
205 227 255
206 227 255
206 227 255
206 227 255
206 227 255
206 227 255
206 227 255
206 227 255
206 227 255
206 227 255
206 227 255
206 227 255
206 227 255
206 227 255
206 227 255
206 227 255
206 227 255
206 227 255
207 227 255
207 227 255
207 227 255
207 227 255
207 228 255
207 228 255
207 228 255
207 228 255
207 228 255
207 228 255
207 228 255
207 228 255
207 228 255
207 228 255
207 228 255
207 228 255
207 228 255
207 228 255
208 228 255
208 228 255
208 228 255
208 228 255
208 228 255
208 228 255
208 228 255
208 228 255
208 228 255
208 228 255
208 228 255
208 228 255
208 228 255
208 228 255
208 228 255
208 228 255
208 228 255
208 228 255
208 228 255
208 228 255
209 228 255
209 229 255
209 229 255
209 229 255
209 229 255
209 229 255
209 229 255
209 229 255
209 229 255
209 229 255
209 229 255
209 229 255
209 229 255
209 229 255
209 229 255
209 229 255
209 229 255
209 229 255
209 229 255
209 229 255
209 229 255
209 229 255
210 229 255
210 229 255
210 229 255
210 229 255
210 229 255
210 229 255
210 229 255
210 229 255
210 229 255
210 229 255
210 229 255
210 229 255
210 229 255
210 229 255
210 229 255
210 229 255
210 229 255
210 229 255
210 229 255
210 229 255
210 229 255
210 229 255
210 229 255
210 229 255
210 229 255
210 229 255
210 229 255
210 229 255
210 229 255
210 229 255
210 229 255
210 229 255
210 229 255
210 229 255
209 229 255
209 229 255
209 229 255
209 229 255
209 229 255
209 229 255
209 229 255
209 229 255
209 229 255
209 229 255
209 229 255
209 229 255
209 229 255
209 229 255
209 229 255
209 229 255
209 229 255
209 229 255
209 229 255
209 229 255
209 229 255
209 228 255
208 228 255
208 228 255
208 228 255
208 228 255
208 228 255
208 228 255
208 228 255
208 228 255
208 228 255
208 228 255
208 228 255
208 228 255
208 228 255
208 228 255
208 228 255
208 228 255
208 228 255
208 228 255
208 228 255
208 228 255
207 228 255
207 228 255
207 228 255
207 228 255
207 228 255
207 228 255
207 228 255
207 228 255
207 228 255
207 228 255
207 228 255
207 228 255
207 228 255
207 227 255
207 227 255
207 227 255
207 227 255
206 227 255
206 227 255
206 227 255
206 227 255
206 227 255
206 227 255
206 227 255
206 227 255
206 227 255
206 227 255
206 227 255
206 227 255
206 227 255
206 227 255
206 227 255
206 227 255
206 227 255
206 227 255
205 227 255
205 227 255
205 227 255
205 227 255
205 227 255
205 227 255
205 227 255
205 227 255
205 227 255
205 227 255
205 226 255
205 226 255
205 226 255
205 226 255
205 226 255
205 226 255
204 226 255
204 226 255
204 226 255
204 226 255
204 226 255
204 226 255
204 226 255
204 226 255
204 226 255
204 226 255
204 226 255
204 226 255
204 226 255
204 226 255
204 226 255
204 226 255
204 226 255
203 226 255
203 226 255
203 226 255
203 226 255
203 226 255
203 226 255
203 226 255
203 225 255
203 225 255
203 225 255
203 225 255
203 225 255
203 225 255
203 225 255
203 225 255
203 225 255
203 225 255
203 225 255
202 225 255
202 225 255
202 225 255
202 225 255
202 225 255
202 225 255
202 225 255
202 225 255
202 225 255
202 225 255
202 225 255
202 225 255
202 225 255
202 225 255
202 225 255
202 225 255
202 225 255
202 225 255
202 225 255
202 225 255
202 225 255
202 225 255
202 225 255
201 225 255
201 225 255
201 225 255
201 225 255
201 225 255
201 225 255
201 225 255
201 225 255
201 225 255
201 225 255
201 224 255
201 224 255
201 224 255
201 224 255
201 224 255
201 224 255
201 224 255
201 224 255
201 224 255
201 224 255
201 224 255
201 224 255
201 224 255
201 224 255
201 224 255
201 224 255
201 224 255
201 224 255
201 224 255
201 224 255
201 224 255
201 224 255
201 224 255
201 224 255
201 224 255
201 224 255
201 224 255
201 224 255
201 224 255
201 224 255
201 224 255
201 224 255
201 224 255
201 224 255
201 224 255
201 224 255
201 224 255
201 224 255
201 224 255
201 224 255
201 225 255
201 225 255
201 225 255
201 225 255
201 225 255
201 225 255
201 225 255
201 225 255
201 225 255
201 225 255
202 225 255
202 225 255
202 225 255
202 225 255
202 225 255
202 225 255
202 225 255
202 225 255
202 225 255
202 225 255
202 225 255
202 225 255
202 225 255
202 225 255
202 225 255
202 225 255
202 225 255
202 225 255
202 225 255
202 225 255
202 225 255
202 225 255
202 225 255
203 225 255
203 225 255
203 225 255
203 225 255
203 225 255
203 225 255
203 225 255
203 225 255
203 225 255
203 225 255
203 226 255
203 226 255
203 226 255
203 226 255
203 226 255
203 226 255
203 226 255
203 226 255
204 226 255
204 226 255
204 226 255
204 226 255
204 226 255
204 226 255
204 226 255
204 226 255
204 226 255
204 226 255
204 226 255
204 226 255
204 226 255
204 226 255
204 226 255
204 226 255
204 226 255
205 226 255
205 226 255
205 226 255
205 226 255
205 226 255
205 226 255
205 226 255
205 227 255
205 227 255
205 227 255
205 227 255
205 227 255
205 227 255
205 227 255
205 227 255
205 227 255
205 227 255
206 227 255
206 227 255
206 227 255
206 227 255
206 227 255
206 227 255
206 227 255
206 227 255
206 227 255
206 227 255
206 227 255
206 227 255
206 227 255
206 227 255
206 227 255
206 227 255
207 227 255
207 227 255
207 227 255
207 227 255
207 227 255
207 228 255
207 228 255
207 228 255
207 228 255
207 228 255
207 228 255
207 228 255
207 228 255
207 228 255
207 228 255
207 228 255
207 228 255
207 228 255
208 228 255
208 228 255
208 228 255
208 228 255
208 228 255
208 228 255
208 228 255
208 228 255
208 228 255
208 228 255
208 228 255
208 228 255
208 228 255
208 228 255
208 228 255
208 228 255
208 228 255
208 228 255
208 228 255
208 228 255
209 228 255
209 228 255
209 229 255
209 229 255
209 229 255
209 229 255
209 229 255
209 229 255
209 229 255
209 229 255
209 229 255
209 229 255
209 229 255
209 229 255
209 229 255
209 229 255
209 229 255
209 229 255
209 229 255
209 229 255
209 229 255
209 229 255
210 229 255
210 229 255
210 229 255
210 229 255
210 229 255
210 229 255
210 229 255
210 229 255
210 229 255
210 229 255
210 229 255
210 229 255
210 229 255
210 229 255
210 229 255
210 229 255
210 229 255
210 229 255
210 229 255
210 230 255
210 229 255
210 229 255
210 229 255
210 229 255
210 229 255
210 229 255
210 229 255
210 229 255
210 229 255
210 229 255
210 229 255
210 229 255
210 229 255
210 229 255
210 229 255
210 229 255
210 229 255
210 229 255
210 229 255
210 229 255
210 229 255
210 229 255
209 229 255
209 229 255
209 229 255
209 229 255
209 229 255
209 229 255
209 229 255
209 229 255
209 229 255
209 229 255
209 229 255
209 229 255
209 229 255
209 229 255
209 229 255
209 229 255
209 229 255
209 229 255
209 229 255
209 229 255
209 228 255
208 228 255
208 228 255
208 228 255
208 228 255
208 228 255
208 228 255
208 228 255
208 228 255
208 228 255
208 228 255
208 228 255
208 228 255
208 228 255
208 228 255
208 228 255
208 228 255
208 228 255
208 228 255
208 228 255
208 228 255
207 228 255
207 228 255
207 228 255
207 228 255
207 228 255
207 228 255
207 228 255
207 228 255
207 228 255
207 228 255
207 228 255
207 228 255
207 228 255
207 228 255
207 227 255
207 227 255
207 227 255
207 227 255
206 227 255
206 227 255
206 227 255
206 227 255
206 227 255
206 227 255
206 227 255
206 227 255
206 227 255
206 227 255
206 227 255
206 227 255
206 227 255
206 227 255
206 227 255
206 227 255
206 227 255
205 227 255
205 227 255
205 227 255
205 227 255
205 227 255
205 227 255
205 227 255
205 227 255
205 227 255
205 227 255
205 226 255
205 226 255
205 226 255
205 226 255
205 226 255
205 226 255
204 226 255
204 226 255
204 226 255
204 226 255
204 226 255
204 226 255
204 226 255
204 226 255
204 226 255
204 226 255
204 226 255
204 226 255
204 226 255
204 226 255
204 226 255
204 226 255
204 226 255
203 226 255
203 226 255
203 226 255
203 226 255
203 226 255
203 226 255
203 226 255
203 226 255
203 225 255
203 225 255
203 225 255
203 225 255
203 225 255
203 225 255
203 225 255
203 225 255
203 225 255
203 225 255
203 225 255
202 225 255
202 225 255
202 225 255
202 225 255
202 225 255
202 225 255
202 225 255
202 225 255
202 225 255
202 225 255
202 225 255
202 225 255
202 225 255
202 225 255
202 225 255
202 225 255
202 225 255
202 225 255
202 225 255
202 225 255
202 225 255
202 225 255
202 225 255
202 225 255
202 225 255
202 225 255
201 225 255
201 225 255
201 225 255
201 225 255
201 225 255
201 225 255
201 225 255
201 225 255
201 225 255
201 225 255
201 225 255
201 225 255
201 225 255
201 225 255
201 225 255
201 225 255
201 225 255
201 225 255
201 225 255
201 224 255
201 224 255
201 224 255
201 224 255
201 224 255
201 224 255
201 224 255
201 224 255
201 224 255
201 224 255
201 225 255
201 225 255
201 225 255
201 225 255
201 225 255
201 225 255
201 225 255
201 225 255
201 225 255
201 225 255
201 225 255
201 225 255
201 225 255
201 225 255
201 225 255
201 225 255
201 225 255
202 225 255
202 225 255
202 225 255
202 225 255
202 225 255
202 225 255
202 225 255
202 225 255
202 225 255
202 225 255
202 225 255
202 225 255
202 225 255
202 225 255
202 225 255
202 225 255
202 225 255
202 225 255
202 225 255
202 225 255
202 225 255
202 225 255
202 225 255
202 225 255
202 225 255
202 225 255
203 225 255
203 225 255
203 225 255
203 225 255
203 225 255
203 225 255
203 225 255
203 225 255
203 225 255
203 225 255
203 225 255
203 226 255
203 226 255
203 226 255
203 226 255
203 226 255
203 226 255
203 226 255
203 226 255
204 226 255
204 226 255
204 226 255
204 226 255
204 226 255
204 226 255
204 226 255
204 226 255
204 226 255
204 226 255
204 226 255
204 226 255
204 226 255
204 226 255
204 226 255
204 226 255
204 226 255
205 226 255
205 226 255
205 226 255
205 226 255
205 226 255
205 226 255
205 227 255
205 227 255
205 227 255
205 227 255
205 227 255
205 227 255
205 227 255
205 227 255
205 227 255
205 227 255
206 227 255
206 227 255
206 227 255
206 227 255
206 227 255
206 227 255
206 227 255
206 227 255
206 227 255
206 227 255
206 227 255
206 227 255
206 227 255
206 227 255
206 227 255
206 227 255
206 227 255
207 227 255
207 227 255
207 227 255
207 227 255
207 228 255
207 228 255
207 228 255
207 228 255
207 228 255
207 228 255
207 228 255
207 228 255
207 228 255
207 228 255
207 228 255
207 228 255
207 228 255
207 228 255
208 228 255
208 228 255
208 228 255
208 228 255
208 228 255
208 228 255
208 228 255
208 228 255
208 228 255
208 228 255
208 228 255
208 228 255
208 228 255
208 228 255
208 228 255
208 228 255
208 228 255
208 228 255
208 228 255
209 228 255
209 228 255
209 229 255
209 229 255
209 229 255
209 229 255
209 229 255
209 229 255
209 229 255
209 229 255
209 229 255
209 229 255
209 229 255
209 229 255
209 229 255
209 229 255
209 229 255
209 229 255
209 229 255
209 229 255
209 229 255
209 229 255
210 229 255
210 229 255
210 229 255
210 229 255
210 229 255
210 229 255
210 229 255
210 229 255
210 229 255
210 229 255
210 229 255
210 229 255
210 229 255
210 229 255
210 229 255
210 229 255
210 229 255
210 229 255
210 229 255
210 229 255
210 229 255
210 229 255
210 230 255
211 230 255
211 230 255
211 230 255
210 230 255
210 230 255
210 229 255
210 229 255
210 229 255
210 229 255
210 229 255
210 229 255
210 229 255
210 229 255
210 229 255
210 229 255
210 229 255
210 229 255
210 229 255
210 229 255
210 229 255
210 229 255
210 229 255
210 229 255
210 229 255
210 229 255
210 229 255
210 229 255
209 229 255
209 229 255
209 229 255
209 229 255
209 229 255
209 229 255
209 229 255
209 229 255
209 229 255
209 229 255
209 229 255
209 229 255
209 229 255
209 229 255
209 229 255
209 229 255
209 229 255
209 229 255
209 229 255
209 229 255
209 228 255
208 228 255
208 228 255
208 228 255
208 228 255
208 228 255
208 228 255
208 228 255
208 228 255
208 228 255
208 228 255
208 228 255
208 228 255
208 228 255
208 228 255
208 228 255
208 228 255
208 228 255
208 228 255
208 228 255
207 228 255
207 228 255
207 228 255
207 228 255
207 228 255
207 228 255
207 228 255
207 228 255
207 228 255
207 228 255
207 228 255
207 228 255
207 228 255
207 228 255
207 227 255
207 227 255
207 227 255
207 227 255
206 227 255
206 227 255
206 227 255
206 227 255
206 227 255
206 227 255
206 227 255
206 227 255
206 227 255
206 227 255
206 227 255
206 227 255
206 227 255
206 227 255
206 227 255
206 227 255
206 227 255
205 227 255
205 227 255
205 227 255
205 227 255
205 227 255
205 227 255
205 227 255
205 227 255
205 227 255
205 227 255
205 226 255
205 226 255
205 226 255
205 226 255
205 226 255
205 226 255
205 226 255
204 226 255
204 226 255
204 226 255
204 226 255
204 226 255
204 226 255
204 226 255
204 226 255
204 226 255
204 226 255
204 226 255
204 226 255
204 226 255
204 226 255
204 226 255
204 226 255
204 226 255
203 226 255
203 226 255
203 226 255
203 226 255
203 226 255
203 226 255
203 226 255
203 226 255
203 226 255
203 225 255
203 225 255
203 225 255
203 225 255
203 225 255
203 225 255
203 225 255
203 225 255
203 225 255
203 225 255
203 225 255
202 225 255
202 225 255
202 225 255
202 225 255
202 225 255
202 225 255
202 225 255
202 225 255
202 225 255
202 225 255
202 225 255
202 225 255
202 225 255
202 225 255
202 225 255
202 225 255
202 225 255
202 225 255
202 225 255
202 225 255
202 225 255
202 225 255
202 225 255
202 225 255
202 225 255
202 225 255
202 225 255
202 225 255
202 225 255
202 225 255
202 225 255
202 225 255
201 225 255
201 225 255
201 225 255
201 225 255
201 225 255
201 225 255
201 225 255
201 225 255
201 225 255
201 225 255
201 225 255
201 225 255
201 225 255
201 225 255
201 225 255
201 225 255
201 225 255
201 225 255
201 225 255
201 225 255
201 225 255
201 225 255
201 225 255
201 225 255
202 225 255
202 225 255
202 225 255
202 225 255
202 225 255
202 225 255
202 225 255
202 225 255
202 225 255
202 225 255
202 225 255
202 225 255
202 225 255
202 225 255
202 225 255
202 225 255
202 225 255
202 225 255
202 225 255
202 225 255
202 225 255
202 225 255
202 225 255
202 225 255
202 225 255
202 225 255
202 225 255
202 225 255
202 225 255
202 225 255
202 225 255
202 225 255
203 225 255
203 225 255
203 225 255
203 225 255
203 225 255
203 225 255
203 225 255
203 225 255
203 225 255
203 225 255
203 225 255
203 225 255
203 226 255
203 226 255
203 226 255
203 226 255
203 226 255
203 226 255
203 226 255
203 226 255
204 226 255
204 226 255
204 226 255
204 226 255
204 226 255
204 226 255
204 226 255
204 226 255
204 226 255
204 226 255
204 226 255
204 226 255
204 226 255
204 226 255
204 226 255
204 226 255
204 226 255
205 226 255
205 226 255
205 226 255
205 226 255
205 226 255
205 226 255
205 226 255
205 227 255
205 227 255
205 227 255
205 227 255
205 227 255
205 227 255
205 227 255
205 227 255
205 227 255
205 227 255
206 227 255
206 227 255
206 227 255
206 227 255
206 227 255
206 227 255
206 227 255
206 227 255
206 227 255
206 227 255
206 227 255
206 227 255
206 227 255
206 227 255
206 227 255
206 227 255
206 227 255
207 227 255
207 227 255
207 227 255
207 227 255
207 228 255
207 228 255
207 228 255
207 228 255
207 228 255
207 228 255
207 228 255
207 228 255
207 228 255
207 228 255
207 228 255
207 228 255
207 228 255
207 228 255
208 228 255
208 228 255
208 228 255
208 228 255
208 228 255
208 228 255
208 228 255
208 228 255
208 228 255
208 228 255
208 228 255
208 228 255
208 228 255
208 228 255
208 228 255
208 228 255
208 228 255
208 228 255
208 228 255
209 228 255
209 229 255
209 229 255
209 229 255
209 229 255
209 229 255
209 229 255
209 229 255
209 229 255
209 229 255
209 229 255
209 229 255
209 229 255
209 229 255
209 229 255
209 229 255
209 229 255
209 229 255
209 229 255
209 229 255
209 229 255
210 229 255
210 229 255
210 229 255
210 229 255
210 229 255
210 229 255
210 229 255
210 229 255
210 229 255
210 229 255
210 229 255
210 229 255
210 229 255
210 229 255
210 229 255
210 229 255
210 229 255
210 229 255
210 229 255
210 229 255
210 229 255
210 229 255
210 230 255
210 230 255
210 230 255
211 230 255
211 230 255
211 230 255
211 230 255
211 230 255
211 230 255
211 230 255
211 230 255
210 230 255
210 230 255
210 230 255
210 229 255
210 229 255
210 229 255
210 229 255
210 229 255
210 229 255
210 229 255
210 229 255
210 229 255
210 229 255
210 229 255
210 229 255
210 229 255
210 229 255
210 229 255
210 229 255
210 229 255
210 229 255
210 229 255
210 229 255
210 229 255
209 229 255
209 229 255
209 229 255
209 229 255
209 229 255
209 229 255
209 229 255
209 229 255
209 229 255
209 229 255
209 229 255
209 229 255
209 229 255
209 229 255
209 229 255
209 229 255
209 229 255
209 229 255
209 229 255
209 229 255
209 228 255
208 228 255
208 228 255
208 228 255
208 228 255
208 228 255
208 228 255
208 228 255
208 228 255
208 228 255
208 228 255
208 228 255
208 228 255
208 228 255
208 228 255
208 228 255
208 228 255
208 228 255
208 228 255
208 228 255
208 228 255
207 228 255
207 228 255
207 228 255
207 228 255
207 228 255
207 228 255
207 228 255
207 228 255
207 228 255
207 228 255
207 228 255
207 228 255
207 228 255
207 227 255
207 227 255
207 227 255
207 227 255
206 227 255
206 227 255
206 227 255
206 227 255
206 227 255
206 227 255
206 227 255
206 227 255
206 227 255
206 227 255
206 227 255
206 227 255
206 227 255
206 227 255
206 227 255
206 227 255
206 227 255
205 227 255
205 227 255
205 227 255
205 227 255
205 227 255
205 227 255
205 227 255
205 227 255
205 227 255
205 227 255
205 227 255
205 226 255
205 226 255
205 226 255
205 226 255
205 226 255
205 226 255
204 226 255
204 226 255
204 226 255
204 226 255
204 226 255
204 226 255
204 226 255
204 226 255
204 226 255
204 226 255
204 226 255
204 226 255
204 226 255
204 226 255
204 226 255
204 226 255
204 226 255
204 226 255
203 226 255
203 226 255
203 226 255
203 226 255
203 226 255
203 226 255
203 226 255
203 226 255
203 226 255
203 225 255
203 225 255
203 225 255
203 225 255
203 225 255
203 225 255
203 225 255
203 225 255
203 225 255
203 225 255
203 225 255
203 225 255
202 225 255
202 225 255
202 225 255
202 225 255
202 225 255
202 225 255
202 225 255
202 225 255
202 225 255
202 225 255
202 225 255
202 225 255
202 225 255
202 225 255
202 225 255
202 225 255
202 225 255
202 225 255
202 225 255
202 225 255
202 225 255
202 225 255
202 225 255
202 225 255
202 225 255
202 225 255
202 225 255
202 225 255
202 225 255
202 225 255
202 225 255
202 225 255
202 225 255
202 225 255
202 225 255
202 225 255
202 225 255
202 225 255
202 225 255
202 225 255
202 225 255
202 225 255
202 225 255
202 225 255
202 225 255
202 225 255
202 225 255
202 225 255
202 225 255
202 225 255
202 225 255
202 225 255
202 225 255
202 225 255
202 225 255
202 225 255
202 225 255
202 225 255
202 225 255
202 225 255
202 225 255
202 225 255
202 225 255
202 225 255
202 225 255
202 225 255
202 225 255
202 225 255
202 225 255
202 225 255
202 225 255
202 225 255
202 225 255
202 225 255
202 225 255
202 225 255
202 225 255
202 225 255
203 225 255
203 225 255
203 225 255
203 225 255
203 225 255
203 225 255
203 225 255
203 225 255
203 225 255
203 225 255
203 225 255
203 225 255
203 226 255
203 226 255
203 226 255
203 226 255
203 226 255
203 226 255
203 226 255
203 226 255
203 226 255
204 226 255
204 226 255
204 226 255
204 226 255
204 226 255
204 226 255
204 226 255
204 226 255
204 226 255
204 226 255
204 226 255
204 226 255
204 226 255
204 226 255
204 226 255
204 226 255
204 226 255
204 226 255
205 226 255
205 226 255
205 226 255
205 226 255
205 226 255
205 226 255
205 227 255
205 227 255
205 227 255
205 227 255
205 227 255
205 227 255
205 227 255
205 227 255
205 227 255
205 227 255
206 227 255
206 227 255
206 227 255
206 227 255
206 227 255
206 227 255
206 227 255
206 227 255
206 227 255
206 227 255
206 227 255
206 227 255
206 227 255
206 227 255
206 227 255
206 227 255
206 227 255
207 227 255
207 227 255
207 227 255
207 227 255
207 227 255
207 228 255
207 228 255
207 228 255
207 228 255
207 228 255
207 228 255
207 228 255
207 228 255
207 228 255
207 228 255
207 228 255
207 228 255
207 228 255
208 228 255
208 228 255
208 228 255
208 228 255
208 228 255
208 228 255
208 228 255
208 228 255
208 228 255
208 228 255
208 228 255
208 228 255
208 228 255
208 228 255
208 228 255
208 228 255
208 228 255
208 228 255
208 228 255
208 228 255
209 228 255
209 229 255
209 229 255
209 229 255
209 229 255
209 229 255
209 229 255
209 229 255
209 229 255
209 229 255
209 229 255
209 229 255
209 229 255
209 229 255
209 229 255
209 229 255
209 229 255
209 229 255
209 229 255
209 229 255
209 229 255
210 229 255
210 229 255
210 229 255
210 229 255
210 229 255
210 229 255
210 229 255
210 229 255
210 229 255
210 229 255
210 229 255
210 229 255
210 229 255
210 229 255
210 229 255
210 229 255
210 229 255
210 229 255
210 229 255
210 229 255
210 229 255
210 230 255
210 230 255
210 230 255
211 230 255
211 230 255
211 230 255
211 230 255
211 230 255
211 230 255
211 230 255
211 230 255
211 230 255
211 230 255
211 230 255
211 230 255
211 230 255
211 230 255
211 230 255
211 230 255
210 230 255
210 230 255
210 230 255
210 229 255
210 229 255
210 229 255
210 229 255
210 229 255
210 229 255
210 229 255
210 229 255
210 229 255
210 229 255
210 229 255
210 229 255
210 229 255
210 229 255
210 229 255
210 229 255
210 229 255
210 229 255
210 229 255
210 229 255
210 229 255
209 229 255
209 229 255
209 229 255
209 229 255
209 228 253
207 227 245
202 223 230
202 222 226
199 220 214
198 219 209
197 217 204
198 219 211
196 216 196
194 215 189
192 214 181
192 214 186
194 216 194
193 214 182
194 215 193
196 216 198
196 217 199
200 221 217
197 218 204
198 218 211
202 222 226
202 223 233
205 225 242
207 228 253
208 228 255
208 228 255
208 228 255
208 228 255
208 228 255
208 228 255
208 228 255
208 228 255
208 228 255
208 228 255
208 228 255
208 228 255
207 228 255
207 228 255
207 228 255
207 228 255
207 228 255
207 228 255
207 228 255
207 228 255
207 228 255
207 228 255
207 228 255
207 228 255
207 228 255
207 228 255
207 227 255
207 227 255
207 227 255
207 227 255
206 227 255
206 227 255
206 227 255
206 227 255
206 227 255
206 227 255
206 227 255
206 227 255
206 227 255
206 227 255
206 227 255
206 227 255
206 227 255
206 227 255
206 227 255
206 227 255
206 227 255
205 227 255
205 227 255
205 227 255
205 227 255
205 227 255
205 227 255
205 227 255
205 227 255
205 227 255
205 227 255
205 226 255
205 226 255
205 226 255
205 226 255
205 226 255
205 226 255
205 226 255
204 226 255
204 226 255
204 226 255
204 226 255
204 226 255
204 226 255
204 226 255
204 226 255
204 226 255
204 226 255
204 226 255
204 226 255
204 226 255
204 226 255
204 226 255
204 226 255
204 226 255
204 226 255
203 226 255
203 226 255
203 226 255
203 226 255
203 226 255
203 226 255
203 226 255
203 226 255
203 226 255
203 225 255
203 225 255
203 225 255
203 225 255
203 225 255
203 225 255
203 225 255
203 225 255
203 225 255
203 225 255
203 225 255
203 225 255
203 225 255
203 225 255
202 225 255
202 225 255
202 225 255
202 225 255
202 225 255
202 225 255
202 225 255
202 225 255
202 225 255
202 225 255
202 225 255
202 225 255
202 225 255
202 225 255
202 225 255
202 225 255
202 225 255
202 225 255
202 225 255
202 225 255
202 225 255
202 225 255
202 225 255
202 225 255
202 225 255
202 225 255
202 225 255
202 225 255
202 225 255
202 225 255
202 225 255
202 225 255
202 225 255
202 225 255
202 225 255
202 225 255
202 225 255
202 225 255
202 225 255
202 225 255
202 225 255
202 225 255
202 225 255
202 225 255
202 225 255
202 225 255
202 225 255
202 225 255
202 225 255
202 225 255
202 225 255
202 225 255
202 225 255
202 225 255
202 225 255
202 225 255
202 225 255
202 225 255
202 225 255
202 225 255
202 225 255
202 225 255
202 225 255
202 225 255
202 225 255
202 225 255
203 225 255
203 225 255
203 225 255
203 225 255
203 225 255
203 225 255
203 225 255
203 225 255
203 225 255
203 225 255
203 225 255
203 225 255
203 225 255
203 225 255
203 226 255
203 226 255
203 226 255
203 226 255
203 226 255
203 226 255
203 226 255
203 226 255
203 226 255
204 226 255
204 226 255
204 226 255
204 226 255
204 226 255
204 226 255
204 226 255
204 226 255
204 226 255
204 226 255
204 226 255
204 226 255
204 226 255
204 226 255
204 226 255
204 226 255
204 226 255
204 226 255
205 226 255
205 226 255
205 226 255
205 226 255
205 226 255
205 226 255
205 226 255
205 227 255
205 227 255
205 227 255
205 227 255
205 227 255
205 227 255
205 227 255
205 227 255
205 227 255
205 227 255
206 227 255
206 227 255
206 227 255
206 227 255
206 227 255
206 227 255
206 227 255
206 227 255
206 227 255
206 227 255
206 227 255
206 227 255
206 227 255
206 227 255
206 227 255
206 227 255
206 227 255
207 227 255
207 227 255
207 227 255
207 227 255
207 228 255
207 228 255
207 228 255
207 228 255
207 228 255
207 228 255
207 228 255
207 228 255
207 228 255
207 228 255
207 228 255
207 228 255
207 228 255
207 228 255
208 228 255
208 228 255
208 228 255
208 228 255
208 228 255
208 228 255
208 228 255
208 228 255
208 228 255
208 228 255
208 228 255
208 228 255
206 226 252
201 220 243
197 214 233
188 204 221
187 204 225
193 208 224
181 195 208
185 199 212
177 190 202
174 186 196
173 183 183
172 183 188
182 195 207
182 194 200
180 193 202
185 198 209
183 195 203
185 198 209
190 206 224
193 208 224
196 212 232
196 213 234
202 219 240
209 228 254
209 229 255
209 229 255
209 229 255
209 229 255
210 229 255
210 229 255
210 229 255
210 229 255
210 229 255
210 229 255
210 229 255
210 229 255
210 229 255
210 229 255
210 229 255
210 229 255
210 229 255
210 229 255
210 229 255
210 229 255
210 229 255
210 229 255
210 229 255
210 229 255
210 229 255
210 230 255
210 230 255
210 230 255
211 230 255
211 230 255
211 230 255
211 230 255
211 230 255
211 230 255
211 230 255
211 230 255
211 230 255
211 230 255
211 230 255
211 230 255
211 230 255
211 230 255
211 230 255
211 230 255
211 230 255
211 230 255
211 230 255
211 230 255
211 230 255
211 230 255
211 230 255
211 230 255
210 230 255
210 230 255
210 230 255
210 229 255
210 229 255
210 229 255
210 229 255
210 229 255
210 229 255
210 229 255
210 229 255
210 229 255
210 229 255
210 229 255
210 229 255
209 228 252
205 225 234
201 221 224
192 213 186
190 211 177
188 210 157
185 207 140
177 200 80
176 198 67
173 196 0
173 196 0
172 195 0
174 196 0
171 194 0
174 197 0
175 198 0
174 198 0
177 199 0
173 196 0
171 195 0
172 195 0
172 196 0
173 197 0
175 197 0
175 198 0
173 196 0
173 196 0
175 198 0
174 197 0
170 192 0
176 199 0
174 196 0
171 195 0
175 197 57
176 200 84
182 205 130
183 205 130
189 211 167
191 213 182
198 219 207
205 225 242
207 227 250
208 228 255
208 228 255
208 228 255
208 228 255
208 228 255
208 228 255
208 228 255
207 228 255
207 228 255
207 228 255
207 228 255
207 228 255
207 228 255
207 228 255
207 228 255
207 228 255
207 228 255
207 228 255
207 228 255
207 228 255
207 227 255
207 227 255
207 227 255
207 227 255
206 227 255
206 227 255
206 227 255
206 227 255
206 227 255
206 227 255
206 227 255
206 227 255
206 227 255
206 227 255
206 227 255
206 227 255
206 227 255
206 227 255
206 227 255
206 227 255
206 227 255
206 227 255
205 227 255
205 227 255
205 227 255
205 227 255
205 227 255
205 227 255
205 227 255
205 227 255
205 227 255
205 227 255
205 226 255
205 226 255
205 226 255
205 226 255
205 226 255
205 226 255
205 226 255
204 226 255
204 226 255
204 226 255
204 226 255
204 226 255
204 226 255
204 226 255
204 226 255
204 226 255
204 226 255
204 226 255
204 226 255
204 226 255
204 226 255
204 226 255
204 226 255
204 226 255
204 226 255
204 226 255
203 226 255
203 226 255
203 226 255
203 226 255
203 226 255
203 226 255
203 226 255
203 226 255
203 226 255
203 225 255
203 225 255
203 225 255
203 225 255
203 225 255
203 225 255
203 225 255
203 225 255
203 225 255
203 225 255
203 225 255
203 225 255
203 225 255
203 225 255
203 225 255
203 225 255
202 225 255
202 225 255
202 225 255
202 225 255
202 225 255
202 225 255
202 225 255
202 225 255
202 225 255
202 225 255
202 225 255
202 225 255
202 225 255
202 225 255
202 225 255
202 225 255
202 225 255
202 225 255
202 225 255
202 225 255
202 225 255
202 225 255
202 225 255
202 225 255
202 225 255
202 225 255
202 225 255
202 225 255
202 225 255
202 225 255
202 225 255
202 225 255
202 225 255
202 225 255
202 225 255
202 225 255
202 225 255
202 225 255
202 225 255
202 225 255
202 225 255
202 225 255
202 225 255
202 225 255
202 225 255
202 225 255
202 225 255
202 225 255
202 225 255
202 225 255
202 225 255
202 225 255
203 225 255
203 225 255
203 225 255
203 225 255
203 225 255
203 225 255
203 225 255
203 225 255
203 225 255
203 225 255
203 225 255
203 225 255
203 225 255
203 225 255
203 225 255
203 225 255
203 226 255
203 226 255
203 226 255
203 226 255
203 226 255
203 226 255
203 226 255
203 226 255
203 226 255
204 226 255
204 226 255
204 226 255
204 226 255
204 226 255
204 226 255
204 226 255
204 226 255
204 226 255
204 226 255
204 226 255
204 226 255
204 226 255
204 226 255
204 226 255
204 226 255
204 226 255
204 226 255
204 226 255
205 226 255
205 226 255
205 226 255
205 226 255
205 226 255
205 226 255
205 226 255
205 227 255
205 227 255
205 227 255
205 227 255
205 227 255
205 227 255
205 227 255
205 227 255
205 227 255
205 227 255
206 227 255
206 227 255
206 227 255
206 227 255
206 227 255
206 227 255
206 227 255
206 227 255
206 227 255
206 227 255
206 227 255
206 227 255
206 227 255
206 227 255
206 227 255
206 227 255
206 227 255
207 227 255
207 227 255
207 227 255
207 227 255
207 227 255
207 228 255
207 228 255
207 228 255
207 228 255
207 228 255
207 228 255
207 228 255
207 228 255
207 228 255
207 228 255
207 228 255
207 228 255
207 228 255
208 228 255
208 228 255
208 228 255
208 228 255
208 228 255
208 228 255
208 228 255
205 224 249
195 211 230
192 208 223
172 183 190
165 176 182
164 171 165
155 162 154
140 144 131
137 139 115
125 123 84
123 120 80
128 127 85
125 122 81
135 132 87
134 131 87
129 126 83
133 131 87
132 130 87
129 126 84
136 134 89
130 127 84
130 127 84
132 129 84
140 137 91
133 131 87
133 130 86
136 133 88
131 128 84
136 133 87
132 129 86
122 119 78
123 120 80
133 131 89
138 137 104
139 142 121
146 150 136
166 172 165
174 185 190
182 194 204
191 206 222
199 217 239
206 225 250
210 229 255
210 229 255
210 229 255
210 229 255
210 229 255
210 229 255
210 229 255
210 229 255
210 229 255
210 229 255
210 229 255
210 229 255
210 230 255
210 230 255
210 230 255
211 230 255
211 230 255
211 230 255
211 230 255
211 230 255
211 230 255
211 230 255
211 230 255
211 230 255
211 230 255
211 230 255
211 230 255
211 230 255
211 230 255
211 230 255
211 230 255
211 230 255
211 230 255
211 230 255
211 230 255
211 230 255
211 230 255
211 230 255
211 230 255
211 230 255
211 230 255
211 230 255
211 230 255
211 230 255
211 230 255
211 230 255
211 230 255
210 230 255
210 230 255
210 230 255
210 229 255
210 229 255
206 226 241
201 221 221
195 216 191
190 211 177
182 204 120
174 196 67
173 197 0
175 198 0
174 196 0
174 197 0
172 195 0
173 197 0
173 196 0
172 195 0
173 197 0
173 196 0
173 196 0
175 198 0
174 197 0
173 196 0
176 198 0
173 197 0
176 199 0
172 196 0
172 195 0
173 196 0
173 196 0
174 197 0
174 197 0
175 198 0
173 196 0
174 197 0
173 196 0
173 196 0
173 197 0
175 198 0
174 197 0
171 194 0
171 195 0
175 198 0
175 198 0
174 197 0
174 197 0
171 195 0
174 197 0
173 196 0
173 196 0
173 196 0
175 198 67
183 205 135
188 210 165
193 214 189
200 221 223
205 225 242
208 228 255
208 228 255
208 228 255
208 228 255
207 228 255
207 228 255
207 228 255
207 228 255
207 228 255
207 228 255
207 228 255
207 228 255
207 228 255
207 228 255
207 228 255
207 228 255
207 228 255
207 228 255
207 227 255
207 227 255
207 227 255
207 227 255
206 227 255
206 227 255
206 227 255
206 227 255
206 227 255
206 227 255
206 227 255
206 227 255
206 227 255
206 227 255
206 227 255
206 227 255
206 227 255
206 227 255
206 227 255
206 227 255
206 227 255
205 227 255
205 227 255
205 227 255
205 227 255
205 227 255
205 227 255
205 227 255
205 227 255
205 227 255
205 227 255
205 227 255
205 226 255
205 226 255
205 226 255
205 226 255
205 226 255
205 226 255
205 226 255
204 226 255
204 226 255
204 226 255
204 226 255
204 226 255
204 226 255
204 226 255
204 226 255
204 226 255
204 226 255
204 226 255
204 226 255
204 226 255
204 226 255
204 226 255
204 226 255
204 226 255
204 226 255
204 226 255
204 226 255
203 226 255
203 226 255
203 226 255
203 226 255
203 226 255
203 226 255
203 226 255
203 226 255
203 226 255
203 226 255
203 225 255
203 225 255
203 225 255
203 225 255
203 225 255
203 225 255
203 225 255
203 225 255
203 225 255
203 225 255
203 225 255
203 225 255
203 225 255
203 225 255
203 225 255
203 225 255
203 225 255
203 225 255
203 225 255
203 225 255
202 225 255
202 225 255
202 225 255
202 225 255
202 225 255
202 225 255
202 225 255
202 225 255
202 225 255
202 225 255
202 225 255
202 225 255
202 225 255
202 225 255
202 225 255
202 225 255
202 225 255
202 225 255
202 225 255
202 225 255
202 225 255
202 225 255
202 225 255
202 225 255
202 225 255
202 225 255
202 225 255
202 225 255
202 225 255
202 225 255
202 225 255
202 225 255
203 225 255
203 225 255
203 225 255
203 225 255
203 225 255
203 225 255
203 225 255
203 225 255
203 225 255
203 225 255
203 225 255
203 225 255
203 225 255
203 225 255
203 225 255
203 225 255
203 225 255
203 225 255
203 225 255
203 225 255
203 226 255
203 226 255
203 226 255
203 226 255
203 226 255
203 226 255
203 226 255
203 226 255
203 226 255
203 226 255
204 226 255
204 226 255
204 226 255
204 226 255
204 226 255
204 226 255
204 226 255
204 226 255
204 226 255
204 226 255
204 226 255
204 226 255
204 226 255
204 226 255
204 226 255
204 226 255
204 226 255
204 226 255
204 226 255
204 226 255
205 226 255
205 226 255
205 226 255
205 226 255
205 226 255
205 226 255
205 226 255
205 227 255
205 227 255
205 227 255
205 227 255
205 227 255
205 227 255
205 227 255
205 227 255
205 227 255
205 227 255
205 227 255
206 227 255
206 227 255
206 227 255
206 227 255
206 227 255
206 227 255
206 227 255
206 227 255
206 227 255
206 227 255
206 227 255
206 227 255
206 227 255
206 227 255
206 227 255
206 227 255
206 227 255
207 227 255
207 227 255
207 227 255
207 227 255
207 228 255
207 228 255
207 228 255
207 228 255
207 228 255
207 228 255
207 228 255
207 228 255
207 228 255
207 228 255
207 228 255
207 228 255
207 228 255
207 228 255
208 228 255
208 228 255
208 228 255
208 228 255
205 224 250
195 211 228
176 187 190
174 186 191
148 154 142
138 138 103
128 126 84
124 123 82
126 124 83
129 127 84
138 136 90
134 132 88
136 135 90
130 128 85
131 129 86
132 130 87
126 125 84
144 142 95
133 131 87
147 144 95
141 139 93
138 135 90
133 130 87
128 125 83
140 137 91
147 145 97
142 139 93
128 126 84
132 130 87
126 125 84
140 138 91
137 136 90
131 128 84
129 127 83
138 135 89
130 128 84
130 128 85
124 122 81
140 137 90
132 129 84
139 135 87
138 134 85
133 130 87
133 130 86
127 124 81
134 130 85
118 115 75
134 130 85
148 150 124
152 158 147
167 176 177
175 186 193
189 203 218
208 226 250
210 229 255
210 229 255
210 230 255
210 230 255
210 230 255
211 230 255
211 230 255
211 230 255
211 230 255
211 230 255
211 230 255
211 230 255
211 230 255
211 230 255
211 230 255
211 230 255
211 230 255
211 230 255
211 230 255
211 230 255
211 230 255
211 230 255
211 230 255
211 230 255
211 230 255
211 230 255
211 230 255
211 230 255
211 230 255
211 230 255
211 230 255
211 230 255
211 230 255
211 230 255
211 230 255
211 230 255
211 230 255
211 230 255
211 230 255
211 230 255
211 230 255
206 225 241
200 220 212
191 212 175
180 203 122
176 199 72
174 197 0
173 196 0
173 196 0
171 194 0
172 196 0
171 195 0
171 194 0
173 197 0
172 195 0
172 196 0
173 196 0
173 196 0
172 196 0
173 196 0
175 197 0
174 197 0
172 196 0
174 197 0
172 196 0
175 198 0
173 196 0
173 197 0
173 196 0
172 196 0
174 197 0
176 198 0
175 198 0
174 197 0
175 198 0
173 196 0
172 195 0
173 196 0
174 197 0
173 196 0
174 197 0
174 197 0
169 193 0
172 196 0
174 197 0
174 197 0
176 198 0
172 196 0
174 197 0
175 197 0
174 197 0
174 196 0
172 196 0
174 197 0
172 195 0
171 194 0
174 197 0
172 196 0
175 197 0
174 197 0
179 202 76
185 207 149
192 214 186
195 216 199
203 224 238
208 228 255
208 228 255
208 228 255
207 228 255
207 228 255
207 228 255
207 228 255
207 228 255
207 228 255
207 228 255
207 228 255
207 228 255
207 228 255
207 228 255
207 228 255
207 228 255
207 227 255
207 227 255
207 227 255
207 227 255
207 227 255
206 227 255
206 227 255
206 227 255
206 227 255
206 227 255
206 227 255
206 227 255
206 227 255
206 227 255
206 227 255
206 227 255
206 227 255
206 227 255
206 227 255
206 227 255
206 227 255
206 227 255
205 227 255
205 227 255
205 227 255
205 227 255
205 227 255
205 227 255
205 227 255
205 227 255
205 227 255
205 227 255
205 227 255
205 226 255
205 226 255
205 226 255
205 226 255
205 226 255
205 226 255
205 226 255
204 226 255
204 226 255
204 226 255
204 226 255
204 226 255
204 226 255
204 226 255
204 226 255
204 226 255
204 226 255
204 226 255
204 226 255
204 226 255
204 226 255
204 226 255
204 226 255
204 226 255
204 226 255
204 226 255
204 226 255
204 226 255
203 226 255
203 226 255
203 226 255
203 226 255
203 226 255
203 226 255
203 226 255
203 226 255
203 226 255
203 226 255
203 226 255
203 226 255
203 225 255
203 225 255
203 225 255
203 225 255
203 225 255
203 225 255
203 225 255
203 225 255
203 225 255
203 225 255
203 225 255
203 225 255
203 225 255
203 225 255
203 225 255
203 225 255
203 225 255
203 225 255
203 225 255
203 225 255
203 225 255
203 225 255
203 225 255
203 225 255
203 225 255
203 225 255
203 225 255
203 225 255
203 225 255
203 225 255
203 225 255
203 225 255
203 225 255
203 225 255
203 225 255
203 225 255
203 225 255
203 225 255
203 225 255
203 225 255
203 225 255
203 225 255
203 225 255
203 225 255
203 225 255
203 225 255
203 225 255
203 225 255
203 225 255
203 225 255
203 225 255
203 225 255
203 225 255
203 225 255
203 225 255
203 225 255
203 225 255
203 225 255
203 226 255
203 226 255
203 226 255
203 226 255
203 226 255
203 226 255
203 226 255
203 226 255
203 226 255
203 226 255
203 226 255
203 226 255
204 226 255
204 226 255
204 226 255
204 226 255
204 226 255
204 226 255
204 226 255
204 226 255
204 226 255
204 226 255
204 226 255
204 226 255
204 226 255
204 226 255
204 226 255
204 226 255
204 226 255
204 226 255
204 226 255
204 226 255
204 226 255
205 226 255
205 226 255
205 226 255
205 226 255
205 226 255
205 226 255
205 226 255
205 227 255
205 227 255
205 227 255
205 227 255
205 227 255
205 227 255
205 227 255
205 227 255
205 227 255
205 227 255
205 227 255
206 227 255
206 227 255
206 227 255
206 227 255
206 227 255
206 227 255
206 227 255
206 227 255
206 227 255
206 227 255
206 227 255
206 227 255
206 227 255
206 227 255
206 227 255
206 227 255
206 227 255
207 227 255
207 227 255
207 227 255
207 227 255
207 228 255
207 228 255
207 228 255
207 228 255
207 228 255
207 228 255
207 228 255
207 228 255
207 228 255
207 228 255
207 228 255
207 228 255
207 228 255
207 228 255
208 228 255
208 228 255
208 228 255
198 217 240
191 206 221
169 179 182
158 164 151
136 140 119
132 129 86
140 138 92
123 121 81
129 127 85
123 122 82
139 138 93
125 123 82
134 132 88
137 136 91
129 127 84
139 137 91
144 142 95
126 125 84
139 137 91
139 137 91
140 138 92
140 139 93
130 129 87
135 134 90
137 135 90
133 132 88
134 132 88
137 136 91
143 142 95
133 131 87
137 133 88
128 126 84
132 129 86
130 128 84
126 124 82
143 141 94
128 126 84
138 135 90
131 129 86
132 130 86
135 133 88
137 135 90
125 123 81
132 130 87
139 137 91
139 136 87
139 136 90
133 131 85
130 127 83
130 128 83
131 129 85
135 132 86
127 123 80
128 125 82
131 129 85
133 130 84
132 130 83
136 133 87
129 125 82
141 139 104
160 164 151
175 186 193
194 210 228
203 220 241
211 230 255
211 230 255
211 230 255
211 230 255
211 230 255
211 230 255
211 230 255
211 230 255
211 230 255
211 230 255
211 230 255
211 230 255
211 230 255
211 230 255
211 230 255
211 230 255
211 230 255
211 230 255
211 230 255
211 230 255
211 230 255
211 230 255
211 230 255
211 230 255
211 230 255
211 230 255
211 230 255
211 230 255
211 230 255
211 230 255
211 230 255
211 230 255
208 227 241
198 218 201
186 208 147
175 199 72
174 198 36
175 198 0
173 197 0
173 196 0
174 196 0
175 198 0
172 196 0
173 196 0
172 195 0
172 196 0
174 197 0
173 196 0
174 197 0
175 198 0
173 196 0
174 197 0
172 195 0
175 198 0
172 196 0
170 194 0
174 197 0
172 196 0
173 196 0
172 196 0
173 197 0
174 197 0
173 197 0
175 198 0
172 196 0
171 195 0
172 196 0
173 196 0
171 195 0
176 199 0
174 197 0
173 195 0
172 196 0
175 198 0
174 197 0
172 195 0
172 195 0
173 197 0
170 195 0
173 196 0
173 197 0
175 198 0
174 197 0
175 198 0
175 198 0
173 197 0
172 196 0
172 196 0
175 198 0
175 198 0
174 197 0
172 196 0
171 195 0
175 198 0
173 196 0
175 198 0
172 195 0
172 195 0
173 197 0
174 197 0
179 201 92
188 210 153
194 216 196
204 224 237
207 228 254
208 228 255
208 228 255
207 228 255
207 228 255
207 228 255
207 228 255
207 228 255
207 228 255
207 228 255
207 228 255
207 228 255
207 228 255
207 228 255
207 228 255
207 228 255
207 227 255
207 227 255
207 227 255
207 227 255
207 227 255
206 227 255
206 227 255
206 227 255
206 227 255
206 227 255
206 227 255
206 227 255
206 227 255
206 227 255
206 227 255
206 227 255
206 227 255
206 227 255
206 227 255
206 227 255
206 227 255
206 227 255
205 227 255
205 227 255
205 227 255
205 227 255
205 227 255
205 227 255
205 227 255
205 227 255
205 227 255
205 227 255
205 227 255
205 226 255
205 226 255
205 226 255
205 226 255
205 226 255
205 226 255
205 226 255
205 226 255
204 226 255
204 226 255
204 226 255
204 226 255
204 226 255
204 226 255
204 226 255
204 226 255
204 226 255
204 226 255
204 226 255
204 226 255
204 226 255
204 226 255
204 226 255
204 226 255
204 226 255
204 226 255
204 226 255
204 226 255
204 226 255
204 226 255
203 226 255
203 226 255
203 226 255
203 226 255
203 226 255
203 226 255
203 226 255
203 226 255
203 226 255
203 226 255
203 226 255
203 226 255
203 226 255
203 226 255
203 226 255
203 225 255
203 225 255
203 225 255
203 225 255
203 225 255
203 225 255
203 225 255
203 225 255
203 225 255
203 225 255
203 225 255
203 225 255
203 225 255
203 225 255
203 225 255
203 225 255
203 225 255
203 225 255
203 225 255
203 225 255
203 225 255
203 225 255
203 225 255
203 225 255
203 225 255
203 225 255
203 225 255
203 225 255
203 225 255
203 225 255
203 225 255
203 225 255
203 225 255
203 225 255
203 225 255
203 225 255
203 225 255
203 225 255
203 225 255
203 225 255
203 226 255
203 226 255
203 226 255
203 226 255
203 226 255
203 226 255
203 226 255
203 226 255
203 226 255
203 226 255
203 226 255
203 226 255
203 226 255
203 226 255
203 226 255
204 226 255
204 226 255
204 226 255
204 226 255
204 226 255
204 226 255
204 226 255
204 226 255
204 226 255
204 226 255
204 226 255
204 226 255
204 226 255
204 226 255
204 226 255
204 226 255
204 226 255
204 226 255
204 226 255
204 226 255
204 226 255
204 226 255
205 226 255
205 226 255
205 226 255
205 226 255
205 226 255
205 226 255
205 226 255
205 226 255
205 227 255
205 227 255
205 227 255
205 227 255
205 227 255
205 227 255
205 227 255
205 227 255
205 227 255
205 227 255
205 227 255
206 227 255
206 227 255
206 227 255
206 227 255
206 227 255
206 227 255
206 227 255
206 227 255
206 227 255
206 227 255
206 227 255
206 227 255
206 227 255
206 227 255
206 227 255
206 227 255
206 227 255
206 227 255
207 227 255
207 227 255
207 227 255
207 227 255
207 228 255
207 228 255
207 228 255
207 228 255
207 228 255
207 228 255
207 228 255
207 228 255
207 228 255
207 228 255
207 228 255
207 228 255
207 228 255
208 228 255
208 228 255
208 228 255
193 210 230
177 192 206
174 185 187
140 143 121
125 123 82
135 133 89
123 121 81
125 122 81
135 132 88
139 136 91
140 138 93
128 127 85
138 137 92
131 130 87
142 141 95
139 138 93
134 133 89
142 140 93
139 138 93
133 131 87
131 129 87
135 133 89
144 142 95
151 149 99
140 138 93
148 145 97
135 133 89
135 134 90
133 131 87
136 134 89
138 137 92
139 136 90
131 130 87
140 138 92
136 134 90
147 144 95
144 142 95
130 128 85
141 139 93
140 139 93
134 132 88
146 143 95
137 135 89
134 132 87
135 133 89
145 143 95
137 133 87
136 133 88
134 132 88
137 134 89
137 134 87
138 135 88
139 136 88
121 118 77
129 127 84
142 139 89
134 132 87
141 138 90
139 136 89
136 133 87
132 128 83
134 131 87
136 132 85
134 129 83
127 124 81
123 120 77
134 131 84
125 122 80
147 147 123
161 170 172
194 207 219
201 218 239
211 230 255
211 230 255
211 230 255
211 230 255
211 230 255
211 230 255
211 230 255
211 230 255
211 230 255
211 230 255
211 230 255
211 230 255
211 230 255
211 230 255
212 230 255
212 230 255
212 230 255
212 230 255
211 230 255
211 230 255
211 230 255
211 230 255
211 230 255
211 230 255
209 228 245
194 215 189
187 208 151
179 201 99
173 196 0
173 196 0
174 197 0
174 197 0
175 198 0
173 197 0
172 195 0
173 196 0
173 196 0
173 197 0
172 196 0
171 195 0
173 195 0
172 196 0
175 198 0
173 196 0
173 196 0
171 194 0
174 197 0
174 197 0
172 196 0
175 198 0
173 196 0
173 197 0
174 197 0
173 197 0
173 197 0
174 197 0
170 195 0
171 195 0
171 195 0
174 197 0
173 197 0
175 197 0
172 196 0
173 197 0
176 199 0
176 198 0
174 197 0
174 197 0
174 197 0
177 199 0
171 195 0
172 196 0
173 196 0
173 196 0
173 197 0
173 196 0
172 196 0
175 197 0
171 195 0
171 194 0
173 197 0
172 196 0
170 194 0
173 197 0
176 198 0
175 198 0
174 197 0
175 198 0
174 197 0
175 198 0
175 198 0
168 192 0
173 196 0
174 197 0
174 197 0
173 197 0
172 195 0
174 197 0
175 197 0
172 196 0
176 199 72
186 209 151
196 217 201
206 227 250
208 228 255
208 228 255
207 228 255
207 228 255
207 228 255
207 228 255
207 228 255
207 228 255
207 228 255
207 228 255
207 228 255
207 228 255
207 228 255
207 228 255
207 228 255
207 228 255
207 227 255
207 227 255
207 227 255
207 227 255
206 227 255
206 227 255
206 227 255
206 227 255
206 227 255
206 227 255
206 227 255
206 227 255
206 227 255
206 227 255
206 227 255
206 227 255
206 227 255
206 227 255
206 227 255
206 227 255
206 227 255
206 227 255
205 227 255
205 227 255
205 227 255
205 227 255
205 227 255
205 227 255
205 227 255
205 227 255
205 227 255
205 227 255
205 227 255
205 226 255
205 226 255
205 226 255
205 226 255
205 226 255
205 226 255
205 226 255
205 226 255
205 226 255
204 226 255
204 226 255
204 226 255
204 226 255
204 226 255
204 226 255
204 226 255
204 226 255
204 226 255
204 226 255
204 226 255
204 226 255
204 226 255
204 226 255
204 226 255
204 226 255
204 226 255
204 226 255
204 226 255
204 226 255
204 226 255
204 226 255
204 226 255
204 226 255
203 226 255
203 226 255
203 226 255
203 226 255
203 226 255
203 226 255
203 226 255
203 226 255
203 226 255
203 226 255
203 226 255
203 226 255
203 226 255
203 226 255
203 226 255
203 226 255
203 226 255
203 226 255
203 226 255
203 226 255
203 226 255
203 226 255
203 226 255
203 226 255
203 226 255
203 226 255
203 226 255
203 226 255
203 226 255
203 226 255
203 226 255
203 226 255
203 226 255
203 226 255
203 226 255
203 226 255
203 226 255
203 226 255
203 226 255
203 226 255
203 226 255
203 226 255
203 226 255
203 226 255
203 226 255
203 226 255
203 226 255
203 226 255
203 226 255
203 226 255
203 226 255
203 226 255
203 226 255
203 226 255
203 226 255
203 226 255
204 226 255
204 226 255
204 226 255
204 226 255
204 226 255
204 226 255
204 226 255
204 226 255
204 226 255
204 226 255
204 226 255
204 226 255
204 226 255
204 226 255
204 226 255
204 226 255
204 226 255
204 226 255
204 226 255
204 226 255
204 226 255
204 226 255
204 226 255
204 226 255
204 226 255
205 226 255
205 226 255
205 226 255
205 226 255
205 226 255
205 226 255
205 226 255
205 226 255
205 227 255
205 227 255
205 227 255
205 227 255
205 227 255
205 227 255
205 227 255
205 227 255
205 227 255
205 227 255
205 227 255
206 227 255
206 227 255
206 227 255
206 227 255
206 227 255
206 227 255
206 227 255
206 227 255
206 227 255
206 227 255
206 227 255
206 227 255
206 227 255
206 227 255
206 227 255
206 227 255
206 227 255
206 227 255
207 227 255
207 227 255
207 227 255
207 227 255
207 228 255
207 228 255
207 228 255
207 228 255
207 228 255
207 228 255
207 228 255
207 228 255
207 228 255
207 228 255
207 228 255
207 228 255
207 228 255
207 228 255
208 228 255
208 228 255
199 216 238
180 194 206
158 167 167
141 144 121
134 133 90
139 137 92
137 135 90
134 133 89
131 129 86
136 134 90
135 134 90
130 129 87
140 138 93
139 138 93
142 141 95
141 139 93
147 145 97
137 136 91
134 132 88
136 135 90
135 133 89
142 140 94
134 132 88
136 134 90
145 143 96
140 138 93
138 136 91
138 137 93
137 136 91
141 139 93
138 136 91
141 139 93
148 146 97
147 144 96
149 148 99
138 136 91
145 142 95
143 140 93
138 136 90
142 140 93
140 138 93
145 143 96
141 138 91
144 142 95
139 136 90
141 139 93
138 136 90
135 132 88
141 138 90
132 129 84
145 143 95
141 139 91
134 132 87
136 133 87
139 135 88
145 141 93
140 137 90
142 140 93
132 129 85
138 135 89
142 139 91
140 137 88
143 140 90
130 126 82
133 130 86
139 134 87
149 145 95
141 138 90
151 146 95
136 133 87
139 135 84
129 127 82
139 134 87
134 131 85
127 124 81
130 127 83
141 141 107
166 175 176
190 203 215
206 224 248
211 230 255
211 230 255
211 230 255
211 230 255
211 230 255
211 230 255
212 230 255
212 230 255
212 230 255
212 230 255
212 230 255
212 230 255
212 230 255
212 230 255
212 230 255
212 230 255
212 230 255
205 224 233
197 217 198
183 206 133
172 195 25
172 196 0
173 196 0
172 195 0
175 198 0
171 195 0
174 197 0
172 196 0
171 195 0
174 198 0
173 196 0
174 197 0
174 197 0
174 196 0
174 197 0
175 198 0
175 197 0
172 195 0
173 196 0
172 195 0
172 196 0
173 196 0
173 197 0
174 197 0
174 198 0
172 196 0
174 197 0
174 197 0
172 196 0
175 198 0
171 195 0
173 196 0
171 195 0
171 195 0
172 196 0
174 197 0
172 196 0
174 198 0
174 197 0
174 197 0
174 197 0
173 196 0
174 197 0
171 195 0
175 198 0
173 196 0
176 198 0
175 198 0
174 197 0
173 196 0
172 196 0
173 197 0
175 198 0
173 196 0
172 196 0
173 197 0
173 197 0
172 195 0
172 196 0
174 197 0
174 197 0
172 195 0
174 197 0
173 196 0
173 197 0
174 197 0
173 197 0
172 195 0
172 196 0
173 197 0
171 195 0
175 198 0
174 197 0
173 196 0
174 198 0
173 197 0
174 198 0
174 197 0
175 198 0
175 197 0
180 203 105
191 213 177
201 222 226
207 228 254
208 228 255
208 228 255
207 228 255
207 228 255
207 228 255
207 228 255
207 228 255
207 228 255
207 228 255
207 228 255
207 228 255
207 228 255
207 228 255
207 228 255
207 228 255
207 228 255
207 227 255
207 227 255
207 227 255
207 227 255
206 227 255
206 227 255
206 227 255
206 227 255
206 227 255
206 227 255
206 227 255
206 227 255
206 227 255
206 227 255
206 227 255
206 227 255
206 227 255
206 227 255
206 227 255
206 227 255
206 227 255
206 227 255
205 227 255
205 227 255
205 227 255
205 227 255
205 227 255
205 227 255
205 227 255
205 227 255
205 227 255
205 227 255
205 227 255
205 227 255
205 226 255
205 226 255
205 226 255
205 226 255
205 226 255
205 226 255
205 226 255
205 226 255
205 226 255
204 226 255
204 226 255
204 226 255
204 226 255
204 226 255
204 226 255
204 226 255
204 226 255
204 226 255
204 226 255
204 226 255
204 226 255
204 226 255
204 226 255
204 226 255
204 226 255
204 226 255
204 226 255
204 226 255
204 226 255
204 226 255
204 226 255
204 226 255
204 226 255
204 226 255
204 226 255
204 226 255
204 226 255
204 226 255
204 226 255
203 226 255
203 226 255
203 226 255
203 226 255
203 226 255
203 226 255
203 226 255
203 226 255
203 226 255
203 226 255
203 226 255
203 226 255
203 226 255
203 226 255
203 226 255
203 226 255
203 226 255
203 226 255
203 226 255
203 226 255
203 226 255
203 226 255
203 226 255
203 226 255
203 226 255
203 226 255
203 226 255
203 226 255
203 226 255
203 226 255
203 226 255
203 226 255
203 226 255
203 226 255
203 226 255
204 226 255
204 226 255
204 226 255
204 226 255
204 226 255
204 226 255
204 226 255
204 226 255
204 226 255
204 226 255
204 226 255
204 226 255
204 226 255
204 226 255
204 226 255
204 226 255
204 226 255
204 226 255
204 226 255
204 226 255
204 226 255
204 226 255
204 226 255
204 226 255
204 226 255
204 226 255
204 226 255
204 226 255
204 226 255
205 226 255
205 226 255
205 226 255
205 226 255
205 226 255
205 226 255
205 226 255
205 226 255
205 226 255
205 227 255
205 227 255
205 227 255
205 227 255
205 227 255
205 227 255
205 227 255
205 227 255
205 227 255
205 227 255
205 227 255
205 227 255
206 227 255
206 227 255
206 227 255
206 227 255
206 227 255
206 227 255
206 227 255
206 227 255
206 227 255
206 227 255
206 227 255
206 227 255
206 227 255
206 227 255
206 227 255
206 227 255
206 227 255
206 227 255
207 227 255
207 227 255
207 227 255
207 227 255
207 228 255
207 228 255
207 228 255
207 228 255
207 228 255
207 228 255
207 228 255
207 228 255
207 228 255
207 228 255
207 228 255
207 228 255
207 228 255
207 228 255
208 228 255
208 228 255
208 228 255
190 208 229
171 183 189
153 159 146
119 117 78
135 133 89
128 127 85
127 126 84
126 125 84
133 131 88
133 132 88
142 140 94
137 136 91
142 141 95
142 140 94
141 139 93
142 141 95
129 127 85
141 141 95
139 138 93
148 147 99
137 136 91
141 140 94
129 127 85
155 153 102
142 140 94
142 140 93
141 139 93
146 144 97
140 138 93
141 140 94
151 149 100
147 144 96
138 137 91
129 127 84
141 139 93
135 133 89
143 141 94
146 144 96
148 146 98
145 143 95
141 138 92
138 136 91
141 139 93
152 148 99
138 136 91
145 142 95
150 148 98
137 135 90
142 140 92
140 138 92
141 139 93
152 150 99
147 145 95
142 139 93
145 142 94
134 131 86
132 129 85
144 141 93
144 141 93
137 134 87
142 140 91
143 140 93
141 138 91
147 143 95
139 136 90
140 138 90
139 136 88
133 129 84
142 138 88
137 135 89
140 138 92
143 140 92
143 141 93
144 140 92
148 144 95
132 128 82
137 133 87
127 124 80
127 125 80
136 133 84
132 128 82
133 130 85
122 119 75
150 153 132
175 186 193
198 212 228
211 230 254
212 230 255
212 230 255
212 230 255
212 230 255
212 230 255
212 230 255
212 230 255
212 230 255
212 230 255
212 230 254
203 223 224
191 211 167
178 200 95
171 194 0
173 196 0
173 196 0
174 197 0
173 197 0
171 195 0
173 196 0
174 197 0
172 196 0
174 198 0
174 197 0
171 195 0
173 197 0
173 196 0
174 197 0
175 198 0
176 199 0
175 198 0
174 198 0
174 197 0
174 197 0
173 197 0
174 197 0
171 195 0
173 197 0
174 197 0
174 197 0
176 199 0
173 196 0
171 195 0
175 198 0
174 197 0
173 196 0
176 199 0
172 197 0
174 197 0
173 197 0
170 195 0
174 197 0
174 198 0
174 198 0
173 197 0
174 197 0
173 197 0
174 197 0
174 197 0
172 196 0
175 197 0
174 197 0
174 196 0
173 197 0
175 198 0
173 196 0
176 198 0
174 196 0
172 196 0
172 196 0
172 195 0
173 196 0
173 196 0
175 198 0
174 197 0
174 197 0
172 197 0
173 197 0
175 198 0
174 197 0
174 197 0
170 194 0
174 197 0
170 195 0
173 196 0
174 197 0
173 196 0
171 195 0
175 198 0
175 198 0
173 197 0
172 195 0
175 197 0
174 198 0
174 197 0
175 198 0
173 196 0
174 197 0
171 194 0
180 203 111
189 211 165
204 224 237
208 228 255
208 228 255
208 228 255
208 228 255
207 228 255
207 228 255
207 228 255
207 228 255
207 228 255
207 228 255
207 228 255
207 228 255
207 228 255
207 228 255
207 228 255
207 228 255
207 228 255
207 228 255
207 227 255
207 227 255
207 227 255
207 227 255
206 227 255
206 227 255
206 227 255
206 227 255
206 227 255
206 227 255
206 227 255
206 227 255
206 227 255
206 227 255
206 227 255
206 227 255
206 227 255
206 227 255
206 227 255
206 227 255
206 227 255
206 227 255
206 227 255
205 227 255
205 227 255
205 227 255
205 227 255
205 227 255
205 227 255
205 227 255
205 227 255
205 227 255
205 227 255
205 227 255
205 227 255
205 226 255
205 226 255
205 226 255
205 226 255
205 226 255
205 226 255
205 226 255
205 226 255
205 226 255
204 226 255
204 226 255
204 226 255
204 226 255
204 226 255
204 226 255
204 226 255
204 226 255
204 226 255
204 226 255
204 226 255
204 226 255
204 226 255
204 226 255
204 226 255
204 226 255
204 226 255
204 226 255
204 226 255
204 226 255
204 226 255
204 226 255
204 226 255
204 226 255
204 226 255
204 226 255
204 226 255
204 226 255
204 226 255
204 226 255
204 226 255
204 226 255
204 226 255
204 226 255
204 226 255
204 226 255
204 226 255
204 226 255
204 226 255
204 226 255
204 226 255
204 226 255
204 226 255
204 226 255
204 226 255
204 226 255
204 226 255
204 226 255
204 226 255
204 226 255
204 226 255
204 226 255
204 226 255
204 226 255
204 226 255
204 226 255
204 226 255
204 226 255
204 226 255
204 226 255
204 226 255
204 226 255
204 226 255
204 226 255
204 226 255
204 226 255
204 226 255
204 226 255
204 226 255
204 226 255
204 226 255
204 226 255
204 226 255
204 226 255
204 226 255
204 226 255
204 226 255
204 226 255
204 226 255
204 226 255
204 226 255
204 226 255
204 226 255
204 226 255
205 226 255
205 226 255
205 226 255
205 226 255
205 226 255
205 226 255
205 226 255
205 226 255
205 226 255
205 227 255
205 227 255
205 227 255
205 227 255
205 227 255
205 227 255
205 227 255
205 227 255
205 227 255
205 227 255
205 227 255
205 227 255
205 227 255
206 227 255
206 227 255
206 227 255
206 227 255
206 227 255
206 227 255
206 227 255
206 227 255
206 227 255
206 227 255
206 227 255
206 227 255
206 227 255
206 227 255
206 227 255
206 227 255
206 227 255
206 227 255
207 227 255
207 227 255
207 227 255
207 227 255
207 228 255
207 228 255
207 228 255
207 228 255
207 228 255
207 228 255
207 228 255
207 228 255
207 228 255
207 228 255
207 228 255
207 228 255
207 228 255
207 228 255
208 228 255
208 228 255
208 228 255
207 228 254
195 213 235
150 158 158
144 147 123
122 121 80
129 127 85
126 124 83
120 118 79
140 139 93
127 126 84
137 137 92
142 141 95
141 139 93
141 139 93
142 141 95
135 134 90
136 135 91
138 137 92
142 141 95
135 134 90
145 144 97
140 138 93
147 145 97
142 141 94
134 133 89
146 144 96
146 145 97
146 144 97
146 145 97
136 133 89
144 142 95
139 138 93
144 143 96
145 144 97
144 142 95
144 142 95
146 143 95
138 136 91
151 149 99
150 148 98
143 141 94
145 143 96
141 139 93
142 139 93
151 148 98
146 145 97
150 147 98
150 148 98
144 141 94
147 145 96
140 138 92
142 140 93
132 131 87
136 134 90
155 153 103
140 138 92
152 149 99
147 144 96
149 146 97
147 146 97
137 135 89
138 135 90
146 144 95
150 146 95
143 140 91
138 136 89
143 140 91
140 136 89
139 137 90
133 129 83
146 142 93
142 140 91
140 136 87
136 133 87
147 144 94
142 139 92
134 132 84
140 136 88
143 140 91
135 133 87
135 133 87
137 134 86
139 135 87
131 128 83
129 125 80
141 137 87
142 137 87
139 134 87
143 138 87
138 133 83
141 142 121
163 171 173
194 209 225
212 230 255
212 230 255
212 230 255
212 230 255
212 230 255
206 225 233
192 213 188
177 199 102
174 198 0
167 191 0
173 196 0
173 197 0
172 196 0
176 199 0
174 197 0
173 196 0
173 196 0
174 197 0
172 196 0
173 196 0
176 198 0
174 197 0
173 197 0
174 198 0
173 196 0
174 197 0
174 198 0
173 196 0
175 198 0
174 197 0
175 198 0
171 194 0
175 198 0
174 198 0
173 196 0
174 197 0
173 197 0
174 197 0
172 196 0
174 197 0
172 197 0
174 198 0
173 197 0
173 196 0
174 197 0
172 196 0
175 198 0
174 197 0
173 197 0
174 198 0
174 198 0
173 197 0
174 197 0
175 198 0
173 196 0
173 197 0
173 197 0
174 197 0
171 195 0
174 198 0
175 198 0
173 197 0
173 196 0
172 196 0
173 197 0
174 198 0
172 195 0
175 198 0
173 196 0
173 196 0
174 197 0
174 198 0
174 198 0
172 195 0
174 197 0
172 196 0
174 197 0
173 196 0
173 197 0
174 198 0
173 197 0
174 197 0
171 195 0
168 191 0
174 197 0
174 197 0
175 198 0
175 198 0
175 198 0
173 196 0
174 198 0
174 198 0
173 196 0
175 198 0
176 198 0
173 196 0
174 198 0
173 197 0
173 196 0
174 197 0
176 199 76
188 210 163
204 224 238
208 228 255
208 228 255
208 228 255
208 228 255
208 228 255
207 228 255
207 228 255
207 228 255
207 228 255
207 228 255
207 228 255
207 228 255
207 228 255
207 228 255
207 228 255
207 228 255
207 228 255
207 228 255
207 228 255
207 227 255
207 227 255
207 227 255
207 227 255
206 227 255
206 227 255
206 227 255
206 227 255
206 227 255
206 227 255
206 227 255
206 227 255
206 227 255
206 227 255
206 227 255
206 227 255
206 227 255
206 227 255
206 227 255
206 227 255
206 227 255
206 227 255
206 227 255
206 227 255
205 227 255
205 227 255
205 227 255
205 227 255
205 227 255
205 227 255
205 227 255
205 227 255
205 227 255
205 227 255
205 227 255
205 227 255
205 226 255
205 226 255
205 226 255
205 226 255
205 226 255
205 226 255
205 226 255
205 226 255
205 226 255
205 226 255
204 226 255
204 226 255
204 226 255
204 226 255
204 226 255
204 226 255
204 226 255
204 226 255
204 226 255
204 226 255
204 226 255
204 226 255
204 226 255
204 226 255
204 226 255
204 226 255
204 226 255
204 226 255
204 226 255
204 226 255
204 226 255
204 226 255
204 226 255
204 226 255
204 226 255
204 226 255
204 226 255
204 226 255
204 226 255
204 226 255
204 226 255
204 226 255
204 226 255
204 226 255
204 226 255
204 226 255
204 226 255
204 226 255
204 226 255
204 226 255
204 226 255
204 226 255
204 226 255
204 226 255
204 226 255
204 226 255
204 226 255
204 226 255
204 226 255
204 226 255
204 226 255
204 226 255
204 226 255
204 226 255
204 226 255
204 226 255
204 226 255
204 226 255
204 226 255
204 226 255
204 226 255
204 226 255
204 226 255
204 226 255
204 226 255
204 226 255
204 226 255
204 226 255
204 226 255
204 226 255
204 226 255
204 226 255
205 226 255
205 226 255
205 226 255
205 226 255
205 226 255
205 226 255
205 226 255
205 226 255
205 226 255
205 226 255
205 227 255
205 227 255
205 227 255
205 227 255
205 227 255
205 227 255
205 227 255
205 227 255
205 227 255
205 227 255
205 227 255
205 227 255
206 227 255
206 227 255
206 227 255
206 227 255
206 227 255
206 227 255
206 227 255
206 227 255
206 227 255
206 227 255
206 227 255
206 227 255
206 227 255
206 227 255
206 227 255
206 227 255
206 227 255
206 227 255
206 227 255
206 227 255
207 227 255
207 227 255
207 227 255
207 227 255
207 228 255
207 228 255
207 228 255
207 228 255
207 228 255
207 228 255
207 228 255
207 228 255
207 228 255
207 228 255
207 228 255
207 228 255
207 228 255
207 228 255
208 228 255
208 228 255
208 228 255
208 228 255
208 228 255
194 212 232
164 176 186
136 139 118
128 125 84
125 124 83
131 129 86
143 141 95
140 138 93
140 138 93
130 129 87
140 139 93
131 130 87
134 133 90
137 136 92
138 137 92
142 140 94
145 144 97
142 141 95
139 138 93
144 143 96
138 136 91
137 136 91
135 134 90
148 146 98
138 136 90
148 146 97
139 138 93
148 146 98
143 142 95
146 145 97
144 143 96
144 143 96
142 141 95
150 148 99
140 138 92
148 146 98
150 147 98
143 142 95
140 138 93
143 142 95
151 149 100
144 142 95
147 146 98
138 136 91
142 140 93
148 145 96
145 143 95
144 142 95
139 137 91
152 149 99
140 137 91
150 147 97
150 148 99
150 147 98
151 149 99
154 152 101
143 139 91
150 147 97
145 143 95
148 145 95
152 149 99
145 143 96
143 140 93
143 139 90
155 152 100
157 154 102
146 143 93
134 131 87
148 145 94
146 143 93
149 145 95
128 126 83
145 142 93
145 142 93
142 139 90
129 126 82
143 140 90
147 143 93
146 142 94
134 132 87
144 141 90
138 134 86
138 135 89
144 140 92
149 145 94
142 138 87
134 130 83
139 136 88
137 133 86
131 128 83
134 132 85
143 139 89
135 132 86
126 123 79
134 130 82
133 135 116
172 180 182
200 216 235
212 230 255
184 206 128
166 190 0
173 196 0
173 196 0
172 195 0
171 194 0
170 194 0
170 192 0
173 196 0
173 196 0
173 197 0
172 195 0
174 197 0
172 195 0
171 195 0
173 196 0
174 198 0
174 197 0
173 196 0
174 197 0
174 197 0
173 196 0
173 196 0
174 198 0
173 197 0
172 196 0
175 198 0
172 196 0
173 197 0
172 195 0
170 194 0
173 197 0
174 198 0
173 197 0
174 197 0
172 196 0
175 198 0
172 196 0
174 197 0
172 195 0
173 197 0
173 197 0
173 197 0
172 196 0
175 198 0
174 197 0
174 197 0
174 198 0
174 198 0
176 199 0
174 197 0
175 198 0
173 196 0
172 196 0
173 197 0
175 198 0
174 197 0
172 196 0
175 198 0
175 198 0
175 198 0
175 198 0
174 197 0
173 196 0
175 198 0
174 198 0
173 197 0
176 199 0
175 198 0
173 197 0
173 197 0
173 196 0
175 198 0
173 196 0
173 197 0
174 198 0
173 196 0
173 197 0
176 198 0
177 199 0
174 197 0
174 197 0
174 198 0
173 196 0
172 195 0
174 197 0
173 197 0
174 197 0
172 196 0
174 197 0
174 197 0
175 198 0
175 198 0
172 195 0
174 197 0
174 198 0
177 199 0
172 195 0
176 198 0
180 202 108
197 218 206
207 228 253
208 228 255
208 228 255
208 228 255
208 228 255
208 228 255
208 228 255
207 228 255
207 228 255
207 228 255
207 228 255
207 228 255
207 228 255
207 228 255
207 228 255
207 228 255
207 228 255
207 228 255
207 228 255
207 228 255
207 228 255
207 227 255
207 227 255
207 227 255
207 227 255
206 227 255
206 227 255
206 227 255
206 227 255
206 227 255
206 227 255
206 227 255
206 227 255
206 227 255
206 227 255
206 227 255
206 227 255
206 227 255
206 227 255
206 227 255
206 227 255
206 227 255
206 227 255
206 227 255
206 227 255
206 227 255
205 227 255
205 227 255
205 227 255
205 227 255
205 227 255
205 227 255
205 227 255
205 227 255
205 227 255
205 227 255
205 227 255
205 227 255
205 227 255
205 226 255
205 226 255
205 226 255
205 226 255
205 226 255
205 226 255
205 226 255
205 226 255
205 226 255
205 226 255
205 226 255
205 226 255
204 226 255
204 226 255
204 226 255
204 226 255
204 226 255
204 226 255
204 226 255
204 226 255
204 226 255
204 226 255
204 226 255
204 226 255
204 226 255
204 226 255
204 226 255
204 226 255
204 226 255
204 226 255
204 226 255
204 226 255
204 226 255
204 226 255
204 226 255
204 226 255
204 226 255
204 226 255
204 226 255
204 226 255
204 226 255
204 226 255
204 226 255
204 226 255
204 226 255
204 226 255
204 226 255
204 226 255
204 226 255
204 226 255
204 226 255
204 226 255
204 226 255
204 226 255
204 226 255
204 226 255
204 226 255
204 226 255
204 226 255
204 226 255
204 226 255
204 226 255
204 226 255
204 226 255
204 226 255
204 226 255
204 226 255
204 226 255
205 226 255
205 226 255
205 226 255
205 226 255
205 226 255
205 226 255
205 226 255
205 226 255
205 226 255
205 226 255
205 226 255
205 227 255
205 227 255
205 227 255
205 227 255
205 227 255
205 227 255
205 227 255
205 227 255
205 227 255
205 227 255
205 227 255
205 227 255
205 227 255
205 227 255
205 227 255
206 227 255
206 227 255
206 227 255
206 227 255
206 227 255
206 227 255
206 227 255
206 227 255
206 227 255
206 227 255
206 227 255
206 227 255
206 227 255
206 227 255
206 227 255
206 227 255
206 227 255
206 227 255
206 227 255
207 227 255
207 227 255
207 227 255
207 227 255
207 227 255
207 228 255
207 228 255
207 228 255
207 228 255
207 228 255
207 228 255
207 228 255
207 228 255
207 228 255
207 228 255
207 228 255
207 228 255
207 228 255
207 228 255
208 228 255
208 228 255
208 228 255
208 228 255
208 228 255
208 228 255
206 225 251
181 193 201
138 141 121
141 139 93
139 138 93
137 135 90
136 135 90
132 130 87
136 134 90
133 132 88
136 134 90
135 134 90
134 133 89
133 131 87
136 135 90
143 142 95
140 140 94
141 140 94
141 140 94
141 140 94
141 140 94
145 145 98
141 140 94
147 147 99
143 142 95
137 135 90
156 154 103
146 144 96
140 139 93
147 146 98
139 137 92
147 145 97
149 147 98
144 143 96
151 148 99
145 144 97
146 145 97
146 145 97
144 142 95
143 142 95
146 144 95
140 138 93
139 137 92
153 152 101
149 147 99
145 143 96
148 147 99
150 148 98
152 150 101
144 142 95
143 141 94
147 145 97
145 143 93
147 144 96
152 150 99
144 142 94
139 136 91
152 149 99
156 154 103
151 148 98
150 148 98
147 144 95
142 139 92
148 147 98
147 145 96
148 145 95
150 146 96
139 137 90
151 148 97
143 139 92
146 143 94
147 145 95
140 138 91
142 138 90
154 151 97
146 143 95
149 145 95
142 140 91
146 142 93
142 139 90
143 139 91
142 138 90
142 139 90
146 142 90
143 140 89
138 135 87
152 149 98
147 142 93
143 138 90
143 139 89
151 147 95
138 134 84
144 139 89
146 141 92
138 134 87
142 137 87
124 121 75
132 128 83
127 123 79
122 119 75
132 128 80
150 154 140
174 197 0
173 196 0
173 197 0
171 195 0
171 195 0
173 196 0
172 196 0
173 197 0
174 197 0
173 196 0
173 197 0
173 197 0
174 197 0
172 195 0
170 194 0
174 197 0
176 199 0
173 196 0
172 196 0
175 198 0
174 197 0
173 196 0
172 195 0
174 198 0
176 198 0
174 197 0
174 198 0
174 197 0
174 197 0
174 197 0
176 199 0
175 198 0
174 198 0
173 197 0
172 196 0
175 198 0
174 197 0
170 194 0
176 198 0
173 197 0
174 197 0
173 196 0
175 198 0
172 196 0
173 197 0
173 196 0
173 196 0
172 196 0
173 196 0
174 197 0
174 198 0
173 197 0
174 197 0
174 198 0
175 198 0
175 198 0
174 197 0
173 197 0
173 197 0
175 198 0
175 198 0
174 197 0
173 196 0
174 197 0
173 197 0
175 198 0
173 197 0
175 198 0
173 197 0
173 197 0
175 198 0
174 197 0
174 197 0
173 196 0
174 197 0
174 198 0
173 197 0
175 198 0
174 197 0
174 197 0
174 197 0
171 195 0
173 197 0
173 197 0
174 197 0
174 197 0
171 195 0
172 195 0
174 197 0
174 197 0
173 196 0
174 197 0
174 197 0
174 197 0
174 198 0
173 197 0
176 198 0
174 197 0
175 198 0
174 197 0
172 195 0
177 200 72
185 207 149
201 222 226
208 228 255
208 228 255
208 228 255
208 228 255
208 228 255
208 228 255
208 228 255
208 228 255
207 228 255
207 228 255
207 228 255
207 228 255
207 228 255
207 228 255
207 228 255
207 228 255
207 228 255
207 228 255
207 228 255
207 228 255
207 228 255
207 228 255
207 227 255
207 227 255
207 227 255
207 227 255
207 227 255
206 227 255
206 227 255
206 227 255
206 227 255
206 227 255
206 227 255
206 227 255
206 227 255
206 227 255
206 227 255
206 227 255
206 227 255
206 227 255
206 227 255
206 227 255
206 227 255
206 227 255
206 227 255
206 227 255
206 227 255
206 227 255
205 227 255
205 227 255
205 227 255
205 227 255
205 227 255
205 227 255
205 227 255
205 227 255
205 227 255
205 227 255
205 227 255
205 227 255
205 227 255
205 227 255
205 227 255
205 226 255
205 226 255
205 226 255
205 226 255
205 226 255
205 226 255
205 226 255
205 226 255
205 226 255
205 226 255
205 226 255
205 226 255
205 226 255
205 226 255
205 226 255
205 226 255
204 226 255
204 226 255
204 226 255
204 226 255
204 226 255
204 226 255
204 226 255
204 226 255
204 226 255
204 226 255
204 226 255
204 226 255
204 226 255
204 226 255
204 226 255
204 226 255
204 226 255
204 226 255
204 226 255
204 226 255
204 226 255
204 226 255
204 226 255
204 226 255
204 226 255
204 226 255
204 226 255
204 226 255
204 226 255
204 226 255
204 226 255
204 226 255
204 226 255
204 226 255
204 226 255
205 226 255
205 226 255
205 226 255
205 226 255
205 226 255
205 226 255
205 226 255
205 226 255
205 226 255
205 226 255
205 226 255
205 226 255
205 226 255
205 226 255
205 226 255
205 227 255
205 227 255
205 227 255
205 227 255
205 227 255
205 227 255
205 227 255
205 227 255
205 227 255
205 227 255
205 227 255
205 227 255
205 227 255
205 227 255
205 227 255
206 227 255
206 227 255
206 227 255
206 227 255
206 227 255
206 227 255
206 227 255
206 227 255
206 227 255
206 227 255
206 227 255
206 227 255
206 227 255
206 227 255
206 227 255
206 227 255
206 227 255
206 227 255
206 227 255
206 227 255
206 227 255
207 227 255
207 227 255
207 227 255
207 227 255
207 227 255
207 228 255
207 228 255
207 228 255
207 228 255
207 228 255
207 228 255
207 228 255
207 228 255
207 228 255
207 228 255
207 228 255
207 228 255
207 228 255
207 228 255
208 228 255
208 228 255
208 228 255
208 228 255
208 228 255
208 228 255
208 228 255
208 228 255
198 215 234
166 176 178
134 133 91
136 134 90
129 127 85
133 131 87
127 125 84
140 139 93
140 138 93
138 136 91
141 140 94
134 133 90
144 144 97
151 149 100
140 140 94
133 132 88
142 142 95
144 143 96
143 142 95
147 146 98
145 143 96
144 143 96
142 141 95
138 137 93
134 134 90
138 137 92
146 145 97
148 146 98
144 142 95
142 141 95
144 142 95
147 146 98
145 144 97
151 149 100
143 142 95
139 138 93
148 148 99
154 152 102
148 146 97
150 148 99
155 152 101
151 149 100
147 145 97
149 147 99
147 144 96
144 142 94
142 140 92
151 148 99
144 141 94
154 151 99
149 147 97
146 144 96
157 153 101
145 144 95
154 152 101
147 144 96
141 139 93
155 152 101
151 149 99
150 147 97
142 139 92
139 136 90
154 151 100
142 140 93
148 145 95
150 147 97
144 141 93
148 144 95
156 154 101
157 153 101
150 147 98
147 144 95
154 150 97
138 135 88
148 145 95
146 142 93
146 143 95
147 143 91
143 140 91
138 135 88
136 133 86
154 150 97
146 142 93
136 133 87
143 138 89
144 141 91
149 144 91
152 148 95
137 134 84
145 141 91
134 131 84
145 141 92
149 145 94
133 130 85
137 133 87
145 140 89
131 128 84
146 142 90
138 134 84
138 134 84
142 138 89
134 130 84
125 121 75
127 124 80
172 195 0
173 196 0
174 197 0
175 198 0
171 195 0
171 195 0
172 196 0
174 197 0
172 196 0
173 196 0
172 196 0
172 196 0
175 198 0
174 197 0
173 196 0
175 198 0
174 197 0
176 198 0
171 195 0
173 196 0
175 198 0
174 198 0
172 196 0
174 197 0
172 196 0
173 197 0
174 197 0
175 198 0
173 195 0
174 196 0
175 198 0
173 196 0
173 197 0
173 197 0
175 198 0
175 198 0
174 198 0
175 198 0
173 197 0
175 198 0
171 195 0
175 198 0
174 198 0
174 197 0
172 196 0
173 196 0
174 198 0
173 197 0
174 197 0
175 198 0
175 198 0
173 196 0
174 198 0
174 197 0
174 197 0
176 198 0
173 197 0
173 197 0
174 198 0
175 198 0
175 198 0
173 197 0
174 198 0
173 197 0
172 196 0
175 198 0
172 196 0
175 198 0
175 198 0
172 196 0
173 196 0
174 197 0
176 199 0
172 197 0
173 197 0
173 197 0
174 198 0
174 198 0
174 198 0
172 196 0
172 196 0
174 198 0
174 197 0
176 199 0
172 195 0
174 198 0
171 195 0
174 197 0
175 198 0
174 197 0
173 197 0
175 198 0
174 198 0
174 197 0
174 197 0
173 196 0
174 198 0
173 196 0
174 198 0
174 196 0
175 197 0
174 197 0
174 197 0
173 197 0
184 206 122
199 220 214
208 228 255
208 228 255
208 228 255
208 228 255
208 228 255
208 228 255
208 228 255
208 228 255
208 228 255
208 228 255
207 228 255
207 228 255
207 228 255
207 228 255
207 228 255
207 228 255
207 228 255
207 228 255
207 228 255
207 228 255
207 228 255
207 228 255
207 228 255
207 228 255
207 228 255
207 227 255
207 227 255
207 227 255
207 227 255
207 227 255
206 227 255
206 227 255
206 227 255
206 227 255
206 227 255
206 227 255
206 227 255
206 227 255
206 227 255
206 227 255
206 227 255
206 227 255
206 227 255
206 227 255
206 227 255
206 227 255
206 227 255
206 227 255
206 227 255
206 227 255
206 227 255
206 227 255
205 227 255
205 227 255
205 227 255
205 227 255
205 227 255
205 227 255
205 227 255
205 227 255
205 227 255
205 227 255
205 227 255
205 227 255
205 227 255
205 227 255
205 227 255
205 227 255
205 227 255
205 227 255
205 226 255
205 226 255
205 226 255
205 226 255
205 226 255
205 226 255
205 226 255
205 226 255
205 226 255
205 226 255
205 226 255
205 226 255
205 226 255
205 226 255
205 226 255
205 226 255
205 226 255
205 226 255
205 226 255
205 226 255
205 226 255
205 226 255
205 226 255
205 226 255
205 226 255
205 226 255
205 226 255
205 226 255
205 226 255
205 226 255
205 226 255
205 226 255
205 226 255
205 226 255
205 226 255
205 226 255
205 226 255
205 226 255
205 226 255
205 226 255
205 226 255
205 226 255
205 226 255
205 226 255
205 226 255
205 226 255
205 226 255
205 227 255
205 226 255
205 227 255
205 227 255
205 227 255
205 227 255
205 227 255
205 227 255
205 227 255
205 227 255
205 227 255
205 227 255
205 227 255
205 227 255
205 227 255
205 227 255
205 227 255
205 227 255
205 227 255
206 227 255
206 227 255
206 227 255
206 227 255
206 227 255
206 227 255
206 227 255
206 227 255
206 227 255
206 227 255
206 227 255
206 227 255
206 227 255
206 227 255
206 227 255
206 227 255
206 227 255
206 227 255
206 227 255
206 227 255
206 227 255
206 227 255
207 227 255
207 227 255
207 227 255
207 227 255
207 227 255
207 228 255
207 228 255
207 228 255
207 228 255
207 228 255
207 228 255
207 228 255
207 228 255
207 228 255
207 228 255
207 228 255
207 228 255
207 228 255
207 228 255
207 228 255
208 228 255
208 228 255
208 228 255
208 228 255
208 228 255
208 228 255
208 228 255
208 228 255
208 228 255
207 227 253
197 213 230
153 158 140
133 132 88
133 132 88
132 131 87
129 129 87
132 131 88
133 131 88
146 144 97
145 144 97
142 141 95
139 138 93
139 139 93
149 148 99
145 144 97
140 139 93
142 141 95
148 147 98
144 143 96
146 144 97
144 143 96
137 136 91
141 140 94
149 148 99
142 141 95
139 138 93
154 153 103
139 138 93
142 140 93
144 143 96
147 145 97
151 150 101
147 145 97
143 142 95
150 149 99
142 141 95
141 139 93
141 139 93
155 153 103
145 143 96
142 141 95
145 143 96
153 151 101
152 150 100
144 143 96
148 146 97
146 144 96
149 147 97
151 148 99
146 144 96
146 145 97
152 150 99
150 147 97
150 148 99
144 140 93
144 142 95
151 148 98
154 151 101
156 154 101
149 146 97
149 146 96
150 147 97
149 147 97
157 153 100
136 134 86
144 142 95
155 153 101
143 141 94
147 144 95
147 145 94
144 142 94
142 140 93
139 136 90
153 150 98
146 143 95
151 148 96
153 149 97
153 149 95
148 144 95
140 138 90
136 133 87
155 151 97
146 142 93
128 125 80
145 143 93
145 141 93
156 153 101
145 141 91
135 131 82
139 136 87
146 142 91
139 134 87
147 143 90
144 140 89
148 144 93
143 139 90
141 137 90
128 125 80
138 134 87
147 143 89
150 146 91
142 139 87
136 133 84
130 126 78
145 140 90
122 120 75
173 196 0
173 196 0
171 195 0
173 196 0
172 195 0
174 197 0
175 198 0
172 195 0
171 195 0
172 196 0
172 196 0
173 197 0
174 198 0
172 196 0
174 197 0
173 196 0
172 196 0
172 196 0
173 196 0
174 197 0
172 195 0
174 197 0
172 196 0
175 197 0
174 197 0
174 197 0
172 196 0
174 197 0
174 197 0
175 198 0
174 197 0
173 196 0
174 198 0
175 198 0
175 198 0
172 195 0
174 198 0
175 198 0
174 198 0
175 197 0
175 198 0
173 197 0
174 197 0
174 197 0
174 197 0
175 198 0
175 198 0
174 197 0
175 198 0
171 195 0
175 198 0
173 197 0
174 198 0
174 197 0
174 197 0
172 197 0
174 197 0
172 196 0
173 197 0
174 198 0
173 197 0
174 197 0
173 197 0
174 197 0
174 197 0
174 198 0
172 195 0
174 197 0
172 197 0
174 197 0
173 196 0
174 198 0
175 198 0
174 197 0
172 196 0
174 197 0
174 197 0
175 198 0
172 195 0
175 198 0
174 197 0
176 199 0
173 197 0
174 198 0
174 197 0
175 198 0
173 196 0
174 198 0
174 197 0
172 195 0
172 195 0
175 198 0
176 199 0
175 198 0
172 196 0
173 197 0
173 197 0
173 196 0
173 197 0
175 197 0
172 196 0
175 198 0
174 198 0
174 197 0
176 198 0
174 197 0
178 200 80
192 213 186
206 226 248
208 228 255
208 228 255
208 228 255
208 228 255
208 228 255
208 228 255
208 228 255
208 228 255
208 228 255
208 228 255
208 228 255
207 228 255
207 228 255
207 228 255
207 228 255
207 228 255
207 228 255
207 228 255
207 228 255
207 228 255
207 228 255
207 228 255
207 228 255
207 228 255
207 228 255
207 228 255
207 228 255
207 227 255
207 227 255
207 227 255
207 227 255
206 227 255
206 227 255
206 227 255
206 227 255
206 227 255
206 227 255
206 227 255
206 227 255
206 227 255
206 227 255
206 227 255
206 227 255
206 227 255
206 227 255
206 227 255
206 227 255
206 227 255
206 227 255
206 227 255
206 227 255
206 227 255
206 227 255
206 227 255
206 227 255
205 227 255
205 227 255
205 227 255
205 227 255
205 227 255
205 227 255
205 227 255
205 227 255
205 227 255
205 227 255
205 227 255
205 227 255
205 227 255
205 227 255
205 227 255
205 227 255
205 227 255
205 227 255
205 227 255
205 227 255
205 227 255
205 227 255
205 227 255
205 227 255
205 227 255
205 227 255
205 226 255
205 226 255
205 226 255
205 226 255
205 226 255
205 226 255
205 226 255
205 226 255
205 226 255
205 226 255
205 226 255
205 226 255
205 226 255
205 226 255
205 226 255
205 226 255
205 226 255
205 226 255
205 226 255
205 227 255
205 227 255
205 227 255
205 227 255
205 227 255
205 227 255
205 227 255
205 227 255
205 227 255
205 227 255
205 227 255
205 227 255
205 227 255
205 227 255
205 227 255
205 227 255
205 227 255
205 227 255
205 227 255
205 227 255
205 227 255
205 227 255
205 227 255
205 227 255
205 227 255
205 227 255
205 227 255
206 227 255
206 227 255
206 227 255
206 227 255
206 227 255
206 227 255
206 227 255
206 227 255
206 227 255
206 227 255
206 227 255
206 227 255
206 227 255
206 227 255
206 227 255
206 227 255
206 227 255
206 227 255
206 227 255
206 227 255
206 227 255
206 227 255
206 227 255
207 227 255
207 227 255
207 227 255
207 227 255
207 227 255
207 228 255
207 228 255
207 228 255
207 228 255
207 228 255
207 228 255
207 228 255
207 228 255
207 228 255
207 228 255
207 228 255
207 228 255
207 228 255
207 228 255
207 228 255
208 228 255
208 228 255
208 228 255
208 228 255
208 228 255
208 228 255
208 228 255
208 228 255
208 228 255
208 228 255
208 228 255
208 228 255
205 224 251
176 189 198
150 154 136
126 124 83
133 131 87
144 142 95
135 134 90
145 143 96
142 140 94
148 147 99
143 142 95
141 139 94
144 144 97
138 137 92
141 140 94
141 140 94
142 141 95
149 148 99
149 148 99
147 146 98
144 143 96
148 147 99
137 135 90
143 142 95
136 135 91
146 144 97
149 148 99
155 154 103
146 145 97
148 147 99
150 149 100
143 142 95
151 149 100
152 151 101
149 147 99
153 151 101
153 151 101
152 150 100
148 146 98
151 148 99
150 148 99
154 152 101
156 154 103
156 153 102
146 144 97
145 142 95
159 156 104
152 150 100
154 152 101
152 150 99
141 138 91
148 146 97
147 144 96
155 153 101
147 144 96
148 146 97
152 149 99
150 147 97
151 149 99
160 157 103
153 151 100
151 149 99
153 152 102
150 147 97
140 138 90
154 151 99
150 147 97
147 144 95
147 144 94
153 149 98
150 147 98
150 148 98
143 141 91
152 149 97
141 139 93
143 141 93
153 149 98
150 147 96
150 147 94
149 146 95
153 150 99
148 145 96
156 152 99
150 147 95
154 150 97
143 140 91
144 141 90
135 131 84
144 141 91
146 143 93
137 133 85
147 143 93
148 145 93
139 135 88
151 147 95
149 146 94
143 139 88
136 133 86
150 145 93
133 129 82
132 128 83
141 138 89
136 132 85
142 138 88
142 138 87
145 141 92
136 131 83
145 141 90
145 141 90
173 197 0
175 198 0
174 197 0
173 196 0
174 197 0
173 196 0
174 197 0
174 197 0
170 194 0
173 197 0
172 196 0
174 197 0
172 195 0
174 198 0
174 197 0
175 198 0
172 195 0
172 196 0
173 196 0
175 198 0
174 198 0
175 198 0
174 197 0
172 196 0
171 195 0
170 194 0
174 198 0
175 198 0
175 198 0
174 197 0
173 197 0
174 197 0
175 198 0
175 198 0
174 197 0
173 197 0
174 197 0
172 195 0
172 196 0
174 197 0
174 197 0
174 197 0
176 199 0
175 198 0
175 198 0
174 197 0
175 198 0
174 198 0
175 198 0
174 197 0
175 198 0
176 199 0
175 198 0
175 198 0
175 198 0
173 197 0
174 198 0
172 197 0
173 197 0
175 198 0
173 197 0
173 197 0
174 197 0
174 198 0
175 197 0
174 198 0
174 197 0
173 197 0
174 198 0
175 198 0
175 197 0
173 197 0
174 198 0
172 196 0
174 197 0
173 197 0
173 196 0
175 198 0
176 199 0
174 197 0
174 197 0
174 197 0
173 197 0
176 198 0
172 196 0
176 199 0
174 197 0
175 198 0
173 197 0
174 198 0
172 196 0
171 195 0
174 198 0
175 198 0
174 196 0
176 199 0
175 198 0
175 197 0
173 197 0
173 197 0
174 198 0
175 198 0
174 198 0
174 197 0
175 198 0
175 198 0
173 196 0
175 198 0
178 201 67
191 213 177
207 227 246
208 228 255
208 228 255
208 228 255
208 228 255
208 228 255
208 228 255
208 228 255
208 228 255
208 228 255
208 228 255
208 228 255
208 228 255
208 228 255
208 228 255
207 228 255
207 228 255
207 228 255
207 228 255
207 228 255
207 228 255
207 228 255
207 228 255
207 228 255
207 228 255
207 228 255
207 228 255
207 228 255
207 228 255
207 228 255
207 228 255
207 227 255
207 227 255
207 227 255
207 227 255
207 227 255
206 227 255
206 227 255
206 227 255
206 227 255
206 227 255
206 227 255
206 227 255
206 227 255
206 227 255
206 227 255
206 227 255
206 227 255
206 227 255
206 227 255
206 227 255
206 227 255
206 227 255
206 227 255
206 227 255
206 227 255
206 227 255
206 227 255
206 227 255
206 227 255
206 227 255
206 227 255
206 227 255
205 227 255
205 227 255
205 227 255
205 227 255
205 227 255
205 227 255
205 227 255
205 227 255
205 227 255
205 227 255
205 227 255
205 227 255
205 227 255
205 227 255
205 227 255
205 227 255
205 227 255
205 227 255
205 227 255
205 227 255
205 227 255
205 227 255
205 227 255
205 227 255
205 227 255
202 224 254
200 222 252
198 220 251
200 222 252
205 227 255
205 227 255
205 227 255
205 227 255
205 227 255
205 227 255
205 227 255
205 227 255
205 227 255
205 227 255
205 227 255
205 227 255
205 227 255
205 227 255
205 227 255
205 227 255
205 227 255
205 227 255
205 227 255
205 227 255
205 227 255
205 227 255
205 227 255
205 227 255
205 227 255
206 227 255
206 227 255
206 227 255
206 227 255
206 227 255
206 227 255
206 227 255
206 227 255
206 227 255
206 227 255
206 227 255
206 227 255
206 227 255
206 227 255
206 227 255
206 227 255
206 227 255
206 227 255
206 227 255
206 227 255
206 227 255
206 227 255
206 227 255
206 227 255
206 227 255
206 227 255
206 227 255
207 227 255
207 227 255
207 227 255
207 227 255
207 227 255
207 227 255
207 228 255
207 228 255
207 228 255
207 228 255
207 228 255
207 228 255
207 228 255
207 228 255
207 228 255
207 228 255
207 228 255
207 228 255
207 228 255
207 228 255
207 228 255
208 228 255
208 228 255
208 228 255
208 228 255
208 228 255
208 228 255
208 228 255
208 228 255
208 228 255
208 228 255
208 228 255
208 228 255
208 228 255
208 228 255
206 225 249
179 192 203
148 148 116
138 136 90
134 133 88
135 132 88
140 139 93
136 135 90
145 144 96
134 133 90
144 143 96
134 133 89
142 142 96
140 139 93
140 139 93
140 139 94
146 144 97
136 135 90
150 148 99
146 145 98
151 149 100
146 145 98
142 142 95
144 144 97
148 146 98
148 146 98
150 149 100
155 154 103
145 143 96
153 151 101
151 150 101
150 148 99
154 152 102
152 150 101
150 148 99
150 148 99
157 154 103
151 149 99
149 148 99
155 153 103
149 148 99
163 160 107
159 157 104
148 146 97
158 156 103
156 155 103
151 149 100
160 158 106
149 147 99
159 155 103
149 147 97
151 149 99
149 147 97
159 156 103
145 143 95
157 154 102
152 149 99
151 148 98
152 149 99
155 152 101
150 148 98
149 147 97
150 147 98
151 148 98
145 142 95
151 148 98
156 152 99
151 148 98
156 153 101
140 138 91
151 148 99
154 152 99
152 150 100
147 145 96
148 145 93
153 149 97
155 152 99
146 144 95
149 146 97
147 145 93
145 141 91
149 146 93
154 150 97
155 151 100
149 144 95
154 150 97
145 141 93
147 144 95
158 154 99
149 146 94
145 141 91
149 146 93
148 144 93
150 147 97
144 140 90
151 147 96
140 137 88
147 143 90
145 141 93
147 142 90
140 136 87
136 133 85
155 151 97
133 130 83
143 139 88
138 135 87
143 139 89
145 141 88
144 141 89
146 141 90
132 128 81
173 196 0
174 196 0
175 197 0
174 197 0
174 197 0
171 195 0
174 198 0
172 196 0
171 195 0
176 198 0
174 198 0
172 196 0
173 196 0
174 198 0
171 196 0
173 196 0
173 196 0
172 196 0
172 196 0
175 198 0
175 198 0
174 197 0
174 197 0
175 198 0
174 198 0
173 197 0
171 195 0
172 196 0
174 198 0
174 197 0
174 198 0
175 198 0
172 196 0
175 198 0
175 198 0
175 198 0
173 196 0
172 196 0
174 197 0
174 197 0
175 198 0
174 197 0
174 198 0
173 197 0
174 198 0
175 198 0
174 197 0
173 196 0
173 197 0
173 197 0
174 198 0
175 198 0
173 196 0
172 196 0
174 197 0
175 198 0
174 197 0
173 197 0
174 197 0
174 198 0
172 196 0
171 194 0
175 198 0
172 196 0
174 197 0
176 199 0
173 197 0
173 197 0
175 198 0
173 196 0
174 198 0
174 197 0
176 199 0
172 196 0
175 198 0
176 198 0
176 198 0
176 198 0
173 196 0
173 197 0
173 197 0
173 197 0
175 198 0
175 198 0
174 197 0
175 198 0
173 196 0
174 197 0
175 198 0
174 197 0
173 197 0
174 198 0
173 196 0
172 195 0
174 196 0
173 196 0
176 198 0
174 197 0
176 199 0
172 196 0
172 196 0
173 196 0
173 197 0
173 196 0
175 197 0
174 197 0
175 198 0
175 198 0
175 197 0
176 199 0
177 199 76
192 213 175
208 228 252
208 228 255
208 228 255
208 228 255
208 228 255
208 228 255
208 228 255
208 228 255
208 228 255
208 228 255
208 228 255
208 228 255
208 228 255
208 228 255
208 228 255
208 228 255
208 228 255
208 228 255
207 228 255
207 228 255
207 228 255
207 228 255
207 228 255
207 228 255
207 228 255
207 228 255
207 228 255
207 228 255
207 228 255
207 228 255
207 228 255
207 228 255
207 228 255
207 228 255
207 227 255
207 227 255
207 227 255
207 227 255
207 227 255
207 227 255
206 227 255
206 227 255
206 227 255
206 227 255
206 227 255
206 227 255
206 227 255
206 227 255
206 227 255
206 227 255
206 227 255
206 227 255
206 227 255
206 227 255
206 227 255
206 227 255
206 227 255
206 227 255
206 227 255
206 227 255
206 227 255
206 227 255
206 227 255
206 227 255
206 227 255
206 227 255
206 227 255
206 227 255
206 227 255
206 227 255
206 227 255
206 227 255
206 227 255
205 227 255
205 227 255
205 227 255
205 227 255
204 226 255
186 208 241
166 189 230
146 170 218
134 159 208
115 142 199
94 123 189
71 105 180
63 99 180
62 99 178
63 100 179
62 99 176
62 99 177
62 99 178
87 118 186
92 122 189
105 133 194
127 152 207
154 177 220
172 194 233
186 208 242
204 225 254
205 227 255
205 227 255
205 227 255
205 227 255
206 227 255
206 227 255
206 227 255
206 227 255
206 227 255
206 227 255
206 227 255
206 227 255
206 227 255
206 227 255
206 227 255
206 227 255
206 227 255
206 227 255
206 227 255
206 227 255
206 227 255
206 227 255
206 227 255
206 227 255
206 227 255
206 227 255
206 227 255
206 227 255
206 227 255
206 227 255
206 227 255
206 227 255
206 227 255
206 227 255
206 227 255
206 227 255
206 227 255
207 227 255
207 227 255
207 227 255
207 227 255
207 227 255
207 227 255
207 228 255
207 228 255
207 228 255
207 228 255
207 228 255
207 228 255
207 228 255
207 228 255
207 228 255
207 228 255
207 228 255
207 228 255
207 228 255
207 228 255
207 228 255
207 228 255
208 228 255
208 228 255
208 228 255
208 228 255
208 228 255
208 228 255
208 228 255
208 228 255
208 228 255
208 228 255
208 228 255
208 228 255
208 228 255
208 228 255
208 228 255
208 228 255
208 228 255
207 226 252
168 179 184
139 140 112
137 135 90
142 140 94
141 139 93
136 134 90
143 142 95
149 147 99
138 137 92
139 137 92
147 145 98
148 148 100
153 152 102
141 141 95
141 140 94
142 141 95
149 147 99
143 142 95
143 143 96
139 138 93
142 141 95
146 144 97
151 149 100
151 149 100
155 153 103
154 153 103
148 147 99
151 150 101
154 152 102
154 152 102
155 153 103
145 144 97
151 150 101
150 149 100
147 145 97
153 151 101
150 148 99
151 149 99
150 148 99
156 153 103
151 150 101
155 153 102
154 152 102
150 148 99
150 148 99
156 153 101
159 156 104
144 142 94
159 158 106
148 145 95
152 150 100
150 147 97
152 151 101
152 150 101
150 149 100
156 153 101
149 147 98
155 153 103
151 150 100
151 148 98
146 144 95
153 150 99
149 147 99
154 152 101
156 153 101
153 150 99
150 147 97
143 139 91
151 149 98
154 149 97
155 152 101
145 141 93
154 151 99
147 144 95
149 146 96
146 143 94
143 140 92
149 146 94
145 143 93
157 152 97
150 147 95
152 148 97
149 146 95
154 149 97
161 157 102
151 147 96
154 151 98
145 141 91
156 152 99
151 148 95
145 142 90
154 150 97
149 145 94
147 143 93
142 139 90
156 152 97
146 143 93
151 147 96
150 147 96
139 137 86
146 143 91
142 137 86
141 137 86
149 144 93
140 136 88
142 138 87
138 135 86
132 128 83
137 134 86
137 132 83
143 139 88
145 141 86
174 197 0
172 196 0
174 197 0
174 197 0
173 197 0
174 197 0
172 195 0
174 197 0
176 198 0
173 197 0
173 197 0
174 197 0
175 198 0
173 196 0
173 197 0
174 198 0
172 196 0
174 197 0
173 197 0
173 196 0
175 198 0
174 198 0
174 197 0
173 197 0
174 197 0
175 198 0
174 197 0
173 197 0
173 197 0
174 197 0
172 196 0
174 198 0
174 198 0
174 197 0
173 197 0
173 197 0
174 198 0
175 198 0
174 198 0
172 195 0
173 197 0
173 197 0
175 198 0
175 198 0
174 197 0
174 197 0
175 198 0
173 196 0
173 197 0
172 196 0
172 196 0
174 197 0
172 197 0
171 195 0
172 196 0
173 197 0
173 197 0
172 196 0
173 197 0
172 197 0
174 197 0
174 197 0
172 196 0
173 197 0
174 198 0
174 198 0
174 197 0
175 198 0
174 197 0
176 198 0
175 198 0
173 197 0
171 196 0
172 196 0
174 197 0
174 198 0
175 198 0
175 198 0
175 198 0
175 198 0
172 196 0
174 197 0
175 198 0
172 196 0
173 197 0
174 197 0
174 197 0
172 196 0
173 196 0
175 198 0
174 198 0
172 196 0
174 198 0
174 198 0
175 198 0
175 198 0
173 196 0
173 197 0
175 198 0
175 198 0
173 197 0
174 198 0
174 197 0
174 198 0
175 198 0
175 198 0
175 198 0
174 198 0
170 195 0
175 198 0
173 196 0
175 198 0
179 201 76
195 216 194
209 228 255
208 228 255
208 228 255
208 228 255
208 228 255
208 228 255
208 228 255
208 228 255
208 228 255
208 228 255
208 228 255
208 228 255
208 228 255
208 228 255
208 228 255
208 228 255
208 228 255
208 228 255
208 228 255
208 228 255
208 228 255
207 228 255
207 228 255
207 228 255
207 228 255
207 228 255
207 228 255
207 228 255
207 228 255
207 228 255
207 228 255
207 228 255
207 228 255
207 228 255
207 228 255
207 228 255
207 228 255
207 228 255
207 227 255
207 227 255
207 227 255
207 227 255
207 227 255
207 227 255
206 227 255
206 227 255
206 227 255
206 227 255
206 227 255
206 227 255
206 227 255
206 227 255
206 227 255
206 227 255
206 227 255
206 227 255
206 227 255
206 227 255
206 227 255
206 227 255
206 227 255
206 227 255
206 227 255
206 227 255
206 227 255
206 227 255
206 227 255
206 227 255
206 227 255
206 227 255
206 227 255
205 226 255
178 200 236
159 182 226
116 142 199
65 101 179
61 98 172
62 99 175
62 99 178
61 98 177
62 99 177
61 98 175
63 100 176
62 99 178
62 99 178
62 99 179
62 98 172
63 100 178
62 99 176
62 99 180
62 99 175
61 98 173
61 98 171
62 99 174
63 100 178
64 100 181
65 101 176
116 142 200
151 174 220
189 211 243
202 223 253
206 227 255
206 227 255
206 227 255
206 227 255
206 227 255
206 227 255
206 227 255
206 227 255
206 227 255
206 227 255
206 227 255
206 227 255
206 227 255
206 227 255
206 227 255
206 227 255
206 227 255
206 227 255
206 227 255
206 227 255
206 227 255
206 227 255
206 227 255
206 227 255
206 227 255
206 227 255
206 227 255
207 227 255
207 227 255
207 227 255
207 227 255
207 227 255
207 227 255
207 228 255
207 228 255
207 228 255
207 228 255
207 228 255
207 228 255
207 228 255
207 228 255
207 228 255
207 228 255
207 228 255
207 228 255
207 228 255
207 228 255
207 228 255
207 228 255
207 228 255
208 228 255
208 228 255
208 228 255
208 228 255
208 228 255
208 228 255
208 228 255
208 228 255
208 228 255
208 228 255
208 228 255
208 228 255
208 228 255
208 228 255
208 228 255
208 228 255
208 228 255
208 228 255
208 228 255
208 228 255
208 227 252
180 193 200
130 130 98
140 138 92
148 146 97
141 140 94
140 138 92
144 143 96
136 135 91
139 138 93
132 131 89
141 139 94
145 144 97
135 134 90
144 142 95
145 144 97
144 143 96
149 147 99
149 148 99
144 143 96
144 143 96
142 140 94
143 141 95
147 146 98
150 149 100
141 139 93
155 153 103
147 145 97
151 149 99
148 146 98
144 142 95
149 149 100
154 152 101
151 149 99
158 156 104
152 150 101
149 148 99
147 145 97
147 145 97
151 150 101
158 156 104
147 144 96
151 150 101
144 143 96
149 146 97
159 157 104
151 150 100
151 149 99
153 151 101
155 153 102
152 149 99
154 151 101
158 156 104
153 151 100
154 152 101
152 149 99
155 152 100
151 148 99
146 144 96
161 158 105
156 153 101
156 153 102
148 146 97
152 149 99
152 149 99
153 149 97
159 155 102
150 148 98
157 152 100
150 147 95
159 156 103
157 154 103
158 155 100
153 149 99
150 146 96
155 152 100
147 145 95
155 152 100
154 151 99
154 151 100
149 146 95
149 146 96
157 153 99
153 149 97
149 145 93
147 144 94
161 157 103
160 156 101
149 145 93
149 145 92
157 153 99
143 141 92
149 145 91
155 152 99
153 149 96
154 151 97
147 143 92
142 139 90
142 138 87
148 144 93
145 142 90
142 138 90
150 146 94
154 149 95
145 140 88
139 136 87
143 141 90
148 143 88
143 138 89
146 142 90
145 141 88
142 138 86
152 147 94
147 143 92
147 143 90
175 198 0
174 197 0
172 195 0
173 196 0
175 198 0
176 198 0
173 197 0
173 196 0
171 195 0
173 196 0
175 198 0
176 199 0
173 197 0
174 197 0
172 196 0
173 196 0
172 196 0
175 197 0
172 196 0
174 198 0
173 197 0
172 196 0
174 198 0
173 196 0
171 196 0
173 197 0
174 198 0
175 198 0
173 197 0
174 197 0
175 198 0
175 198 0
173 197 0
174 197 0
173 197 0
173 197 0
174 198 0
174 197 0
174 198 0
173 197 0
175 198 0
175 198 0
173 197 0
174 198 0
172 196 0
175 198 0
172 197 0
174 198 0
174 197 0
174 197 0
172 196 0
174 197 0
173 197 0
175 198 0
172 196 0
176 198 0
175 198 0
174 197 0
173 196 0
171 195 0
173 197 0
173 197 0
172 196 0
173 197 0
173 197 0
173 197 0
173 197 0
174 198 0
174 198 0
175 198 0
173 196 0
173 196 0
174 197 0
175 198 0
175 198 0
174 197 0
174 198 0
176 199 0
173 196 0
173 197 0
173 197 0
173 197 0
174 197 0
175 198 0
174 197 0
175 198 0
173 197 0
173 197 0
174 197 0
173 197 0
174 197 0
171 195 0
173 197 0
174 198 0
174 197 0
175 198 0
173 197 0
173 197 0
174 197 0
175 198 0
175 198 0
173 197 0
174 197 0
175 198 0
174 197 0
175 198 0
173 196 0
175 198 0
175 198 0
177 199 0
174 196 0
174 197 0
175 198 0
174 197 0
181 203 105
202 223 230
209 229 255
209 229 255
209 228 255
209 228 255
208 228 255
208 228 255
208 228 255
208 228 255
208 228 255
208 228 255
208 228 255
208 228 255
208 228 255
208 228 255
208 228 255
208 228 255
208 228 255
208 228 255
208 228 255
208 228 255
208 228 255
208 228 255
208 228 255
208 228 255
207 228 255
207 228 255
207 228 255
207 228 255
207 228 255
207 228 255
207 228 255
207 228 255
207 228 255
207 228 255
207 228 255
207 228 255
207 228 255
207 228 255
207 228 255
207 228 255
207 228 255
207 228 255
207 228 255
207 227 255
207 227 255
207 227 255
207 227 255
207 227 255
207 227 255
207 227 255
206 227 255
206 227 255
206 227 255
206 227 255
206 227 255
206 227 255
206 227 255
206 227 255
206 227 255
206 227 255
206 227 255
206 227 255
206 227 255
206 227 255
206 227 255
206 227 255
199 221 251
164 187 226
116 142 199
76 109 180
62 99 177
62 99 177
62 99 176
62 99 173
62 99 176
61 98 174
61 98 174
62 99 178
63 100 177
63 99 174
62 99 173
62 99 178
61 98 176
63 99 175
62 99 177
63 99 175
62 99 178
62 99 172
61 98 174
62 99 172
62 99 173
62 99 173
63 99 176
62 99 175
62 98 174
63 99 172
62 99 178
62 98 179
86 117 187
133 157 207
169 191 231
196 218 248
206 227 255
206 227 255
206 227 255
206 227 255
206 227 255
206 227 255
206 227 255
206 227 255
206 227 255
206 227 255
206 227 255
206 227 255
206 227 255
206 227 255
206 227 255
206 227 255
207 227 255
207 227 255
207 227 255
207 227 255
207 227 255
207 227 255
207 227 255
207 228 255
207 228 255
207 228 255
207 228 255
207 228 255
207 228 255
207 228 255
207 228 255
207 228 255
207 228 255
207 228 255
207 228 255
207 228 255
207 228 255
207 228 255
207 228 255
207 228 255
207 228 255
208 228 255
208 228 255
208 228 255
208 228 255
208 228 255
208 228 255
208 228 255
208 228 255
208 228 255
208 228 255
208 228 255
208 228 255
208 228 255
208 228 255
208 228 255
208 228 255
208 228 255
208 228 255
208 228 255
208 228 255
208 228 255
208 228 255
209 228 255
209 229 255
209 229 255
198 214 233
146 149 129
138 136 90
125 124 83
128 126 84
141 139 93
140 138 93
128 126 84
144 142 95
134 133 90
146 145 98
143 142 96
143 142 95
143 142 96
153 151 101
148 147 99
146 146 98
151 150 101
139 139 93
146 146 98
143 142 95
149 148 99
149 147 99
147 146 98
149 147 99
151 149 100
153 152 102
148 146 97
153 151 101
151 149 100
142 141 95
153 152 102
151 150 101
156 154 103
154 152 102
154 152 102
146 144 96
156 155 104
150 148 99
153 151 101
159 156 104
156 154 103
157 155 103
160 158 106
148 147 98
156 155 104
158 157 105
150 148 99
155 153 103
157 155 103
159 156 104
158 156 104
149 147 97
156 152 101
155 152 101
158 155 103
150 147 98
150 148 98
152 149 99
154 152 101
157 154 101
162 159 105
153 150 99
157 154 102
161 157 103
155 152 101
159 155 102
159 156 103
154 151 100
156 153 99
165 161 105
154 151 100
162 158 103
158 153 99
155 150 98
153 150 97
155 152 100
149 146 94
158 155 101
159 155 101
150 147 94
158 155 101
158 153 99
149 146 95
150 147 95
148 143 93
153 150 98
155 151 98
150 147 95
153 150 98
149 146 95
153 149 96
147 143 94
146 142 92
150 147 96
147 143 92
139 136 87
151 146 95
145 141 92
141 137 87
147 143 92
153 147 95
145 140 89
152 149 97
146 142 89
154 149 97
153 149 95
140 136 87
141 137 86
137 135 86
143 138 87
146 142 92
137 132 84
153 148 95
133 130 82
141 137 87
172 196 0
173 196 0
175 198 0
173 196 0
175 198 0
172 196 0
173 197 0
173 196 0
172 196 0
174 197 0
173 196 0
171 194 0
174 197 0
174 197 0
174 198 0
174 198 0
174 197 0
175 198 0
173 196 0
174 198 0
174 198 0
176 199 0
175 198 0
173 197 0
174 197 0
174 197 0
173 196 0
174 198 0
173 197 0
173 197 0
175 198 0
174 197 0
175 198 0
173 197 0
173 196 0
173 197 0
175 198 0
173 197 0
174 197 0
173 197 0
175 198 0
174 198 0
171 195 0
175 198 0
174 197 0
175 198 0
175 198 0
176 199 0
173 196 0
174 198 0
173 197 0
172 196 0
175 198 0
174 197 0
173 196 0
175 198 0
174 197 0
174 197 0
174 197 0
173 197 0
174 197 0
173 197 0
174 198 0
172 196 0
173 197 0
173 197 0
177 199 0
173 197 0
174 197 0
174 198 0
173 197 0
173 197 0
175 198 0
175 198 0
174 197 0
175 198 0
174 198 0
173 196 0
175 198 0
173 197 0
174 198 0
176 198 0
175 198 0
175 198 0
174 198 0
174 197 0
174 197 0
175 198 0
172 196 0
173 197 0
173 197 0
176 199 0
174 198 0
172 196 0
173 197 0
174 197 0
172 196 0
174 197 0
173 197 0
173 197 0
174 197 0
175 198 0
174 198 0
175 198 0
174 197 0
174 197 0
173 197 0
175 197 0
174 197 0
176 198 0
170 194 0
175 198 0
174 197 0
175 198 0
175 198 0
172 196 0
186 208 144
205 225 241
209 229 255
209 229 255
209 229 255
209 229 255
209 229 255
209 228 255
209 228 255
208 228 255
208 228 255
208 228 255
208 228 255
208 228 255
208 228 255
208 228 255
208 228 255
208 228 255
208 228 255
208 228 255
208 228 255
208 228 255
208 228 255
208 228 255
208 228 255
208 228 255
208 228 255
208 228 255
208 228 255
208 228 255
207 228 255
207 228 255
207 228 255
207 228 255
207 228 255
207 228 255
207 228 255
207 228 255
207 228 255
207 228 255
207 228 255
207 228 255
207 228 255
207 228 255
207 228 255
207 228 255
207 228 255
207 228 255
207 228 255
207 228 255
207 228 255
207 227 255
207 227 255
207 227 255
207 227 255
207 227 255
207 227 255
207 227 255
207 227 255
207 227 255
206 227 255
206 227 255
206 227 255
206 227 255
181 203 238
144 168 216
73 107 182
62 99 174
62 98 172
62 99 176
62 98 169
62 99 174
62 99 173
62 98 173
62 99 176
61 98 170
61 98 175
62 99 173
62 99 172
62 99 170
62 98 164
62 99 172
62 98 167
61 98 172
62 99 175
62 98 172
62 99 175
62 99 172
62 99 172
62 99 174
62 99 173
62 99 170
62 99 174
63 99 178
62 99 173
62 99 175
62 98 172
62 99 177
62 99 176
61 98 173
62 99 173
85 116 179
143 167 216
188 209 242
206 227 255
206 227 255
206 227 255
206 227 255
207 227 255
207 227 255
207 227 255
207 227 255
207 227 255
207 227 255
207 227 255
207 227 255
207 227 255
207 227 255
207 228 255
207 228 255
207 228 255
207 228 255
207 228 255
207 228 255
207 228 255
207 228 255
207 228 255
207 228 255
207 228 255
207 228 255
207 228 255
207 228 255
207 228 255
207 228 255
207 228 255
207 228 255
207 228 255
207 228 255
208 228 255
208 228 255
208 228 255
208 228 255
208 228 255
208 228 255
208 228 255
208 228 255
208 228 255
208 228 255
208 228 255
208 228 255
208 228 255
208 228 255
208 228 255
208 228 255
208 228 255
208 228 255
208 228 255
208 228 255
208 228 255
208 228 255
209 228 255
209 229 255
209 229 255
209 229 255
209 229 255
209 229 255
201 219 240
164 170 161
134 131 87
135 133 89
140 138 92
141 139 93
137 136 92
141 140 94
146 144 96
151 150 100
145 143 96
146 145 97
141 139 93
141 139 94
147 145 98
147 146 98
149 148 99
143 142 95
139 139 94
142 141 95
148 146 97
147 146 98
153 152 102
149 148 100
151 150 101
154 152 102
148 147 99
153 151 101
149 147 99
156 153 103
145 144 97
157 156 104
153 151 101
151 149 100
164 161 108
156 154 103
156 154 103
154 152 102
158 155 104
153 151 101
157 155 104
154 152 102
153 151 101
152 150 100
148 146 97
154 151 101
149 147 98
153 152 101
160 157 105
155 154 103
157 154 103
154 153 103
154 151 100
159 157 104
154 152 101
157 154 101
161 158 105
155 152 101
162 159 106
150 147 97
156 154 103
157 154 101
150 148 99
163 160 106
156 153 101
154 151 97
157 154 102
159 157 104
157 153 100
157 154 102
154 150 99
157 154 101
157 153 99
155 151 99
158 155 102
155 151 99
155 150 97
152 149 97
157 154 100
154 151 99
157 153 101
154 152 100
151 148 97
158 153 98
152 149 97
160 156 102
143 140 89
143 140 93
156 152 99
146 142 90
158 153 97
150 147 95
157 153 97
154 150 97
151 147 95
151 147 95
145 141 89
143 141 92
152 148 97
146 143 90
148 145 93
155 152 97
153 148 97
145 140 90
160 155 100
151 148 95
144 140 89
158 152 97
140 137 87
139 135 87
148 144 92
142 139 87
141 138 87
144 139 88
146 142 90
150 145 93
135 131 83
147 142 88
176 198 0
173 197 0
174 197 0
174 197 0
173 197 0
175 198 0
173 196 0
173 196 0
175 198 0
173 197 0
174 198 0
176 199 0
174 197 0
174 197 0
176 198 0
173 197 0
174 197 0
174 197 0
174 198 0
173 196 0
175 198 0
175 198 0
173 197 0
173 197 0
174 198 0
172 196 0
175 198 0
176 199 0
172 196 0
173 196 0
173 196 0
175 198 0
175 198 0
173 196 0
173 197 0
174 198 0
173 196 0
173 197 0
172 196 0
174 197 0
174 197 0
174 197 0
174 197 0
174 197 0
174 197 0
175 198 0
175 198 0
173 196 0
173 197 0
174 197 0
175 198 0
175 198 0
174 197 0
174 197 0
173 197 0
174 197 0
174 197 0
175 198 0
174 198 0
175 198 0
174 198 0
175 198 0
175 198 0
173 197 0
174 197 0
172 196 0
175 198 0
173 197 0
173 197 0
173 197 0
173 197 0
174 197 0
174 198 0
174 198 0
175 198 0
175 198 0
174 197 0
173 197 0
175 198 0
175 198 0
172 196 0
175 198 0
174 197 0
173 197 0
174 197 0
175 198 0
172 196 0
174 197 0
175 198 0
174 198 0
174 197 0
173 197 0
174 198 0
174 198 0
173 196 0
174 197 0
174 197 0
173 197 0
175 198 0
173 196 0
173 197 0
175 198 0
173 197 0
173 197 0
174 197 0
172 196 0
174 197 0
174 197 0
173 197 0
174 197 0
177 199 0
173 196 0
173 197 0
174 198 0
174 197 0
172 196 0
175 198 0
175 198 44
191 212 173
207 227 248
209 229 255
209 229 255
209 229 255
209 229 255
209 229 255
209 229 255
209 229 255
209 229 255
209 228 255
209 228 255
208 228 255
208 228 255
208 228 255
208 228 255
208 228 255
208 228 255
208 228 255
208 228 255
208 228 255
208 228 255
208 228 255
208 228 255
208 228 255
208 228 255
208 228 255
208 228 255
208 228 255
208 228 255
208 228 255
208 228 255
208 228 255
208 228 255
208 228 255
207 228 255
207 228 255
207 228 255
207 228 255
207 228 255
207 228 255
207 228 255
207 228 255
207 228 255
207 228 255
207 228 255
207 228 255
207 228 255
207 228 255
207 228 255
207 228 255
207 228 255
207 228 255
207 228 255
207 228 255
207 228 255
207 228 255
207 228 255
207 228 255
204 225 254
167 189 228
111 137 193
63 100 181
62 98 176
62 99 171
62 98 174
62 99 175
62 99 175
62 99 170
62 99 172
61 98 165
62 99 173
62 99 174
63 99 173
62 98 167
63 99 173
63 99 173
62 99 169
62 99 174
62 99 170
63 99 174
63 99 172
62 98 169
62 98 173
62 98 171
61 98 166
62 98 169
62 98 171
62 99 174
61 98 167
61 98 172
61 97 167
62 98 168
62 99 173
62 98 169
62 99 175
60 97 169
61 98 170
62 98 169
61 96 169
62 98 174
62 97 171
106 133 194
172 193 231
206 227 255
207 228 255
207 228 255
207 228 255
207 228 255
207 228 255
207 228 255
207 228 255
207 228 255
207 228 255
207 228 255
207 228 255
207 228 255
207 228 255
207 228 255
207 228 255
207 228 255
207 228 255
207 228 255
207 228 255
207 228 255
207 228 255
207 228 255
207 228 255
207 228 255
208 228 255
208 228 255
208 228 255
208 228 255
208 228 255
208 228 255
208 228 255
208 228 255
208 228 255
208 228 255
208 228 255
208 228 255
208 228 255
208 228 255
208 228 255
208 228 255
208 228 255
208 228 255
208 228 255
208 228 255
208 228 255
208 228 255
208 228 255
208 228 255
209 228 255
209 229 255
209 229 255
209 229 255
209 229 255
209 229 255
209 229 255
209 229 255
209 229 255
208 228 254
173 182 181
124 124 90
139 137 91
147 145 97
140 138 93
143 141 94
142 140 94
130 129 87
142 140 94
142 141 94
140 139 94
147 145 97
144 143 96
145 145 98
145 144 96
146 145 97
146 145 97
138 138 93
153 151 102
150 148 100
154 152 101
146 145 98
143 141 95
148 146 98
150 148 99
149 148 98
154 152 102
160 158 105
145 142 95
149 147 99
149 147 98
160 159 106
143 141 95
154 152 102
147 145 97
153 151 101
155 153 103
163 160 106
156 153 102
160 157 105
161 159 106
150 149 100
161 158 105
156 153 102
158 156 105
156 153 102
148 145 97
161 158 106
165 162 108
157 155 104
158 156 104
157 154 103
163 160 107
159 156 104
159 156 104
161 157 104
155 152 100
153 150 99
160 156 103
163 160 105
152 149 98
158 155 103
158 155 102
163 160 106
153 149 99
161 157 103
151 147 97
161 158 105
159 156 102
164 160 104
154 151 97
156 153 101
156 152 99
157 154 102
154 151 97
154 150 97
157 153 101
144 142 92
155 152 98
147 144 94
157 151 97
157 154 101
156 152 99
153 148 95
150 147 95
150 147 97
149 146 95
159 155 101
159 154 101
161 157 101
155 151 98
155 152 98
159 155 101
155 152 99
149 146 93
151 147 95
147 144 91
157 153 98
157 153 97
152 148 92
145 141 90
149 145 93
154 151 98
155 151 96
158 154 99
148 143 87
156 152 96
152 148 95
152 148 94
147 142 88
148 145 89
153 148 91
152 147 93
141 137 86
144 140 87
153 149 94
149 146 93
139 135 84
140 137 86
173 196 0
174 197 0
173 197 0
174 197 0
175 198 0
172 196 0
173 197 0
176 198 0
174 198 0
174 197 0
173 197 0
173 196 0
173 196 0
173 197 0
173 197 0
174 198 0
176 199 0
177 199 0
176 198 0
173 197 0
175 198 0
174 197 0
174 197 0
176 198 0
174 197 0
172 196 0
174 198 0
176 198 0
174 198 0
174 198 0
174 198 0
173 197 0
175 198 0
175 198 0
173 197 0
175 198 0
173 197 0
175 198 0
174 197 0
175 198 0
173 197 0
173 197 0
176 199 0
175 198 0
174 197 0
174 197 0
175 198 0
174 198 0
172 196 0
173 197 0
172 196 0
174 197 0
173 197 0
175 198 0
175 198 0
175 198 0
175 198 0
173 196 0
173 196 0
174 197 0
174 197 0
173 197 0
173 197 0
174 198 0
174 197 0
172 196 0
175 198 0
174 198 0
174 198 0
174 198 0
174 197 0
172 196 0
175 198 0
172 196 0
173 197 0
174 197 0
175 198 0
176 199 0
173 197 0
177 199 0
173 197 0
173 197 0
175 198 0
173 196 0
173 197 0
174 198 0
174 198 0
173 197 0
174 197 0
175 198 0
174 198 0
174 198 0
173 197 0
173 196 0
175 198 0
175 198 0
175 198 0
173 197 0
173 197 0
175 198 0
175 198 0
175 198 0
174 197 0
175 198 0
176 198 0
176 198 0
171 195 0
173 197 0
173 197 0
174 198 0
175 198 0
174 198 0
173 197 0
174 198 0
172 196 0
172 195 0
175 198 0
174 198 0
177 199 0
183 204 108
203 223 230
209 229 255
209 229 255
209 229 255
209 229 255
209 229 255
209 229 255
209 229 255
209 229 255
209 229 255
209 229 255
209 229 255
209 229 255
209 229 255
209 228 255
208 228 255
208 228 255
208 228 255
208 228 255
208 228 255
208 228 255
208 228 255
208 228 255
208 228 255
208 228 255
208 228 255
208 228 255
208 228 255
208 228 255
208 228 255
208 228 255
208 228 255
208 228 255
208 228 255
208 228 255
208 228 255
208 228 255
208 228 255
208 228 255
208 228 255
207 228 255
207 228 255
207 228 255
207 228 255
207 228 255
207 228 255
207 228 255
207 228 255
207 228 255
207 228 255
207 228 255
207 228 255
207 228 255
207 228 255
207 228 255
203 224 253
173 195 231
89 119 182
62 98 171
61 98 170
62 99 173
61 97 163
62 98 172
62 99 174
63 100 177
61 98 170
62 98 172
62 98 171
62 99 170
62 99 178
63 99 173
62 99 170
62 98 170
63 99 173
62 99 171
62 99 171
62 99 174
62 99 174
62 99 175
62 98 167
62 98 169
62 99 174
61 97 165
62 98 171
63 99 172
63 99 171
62 98 168
61 98 172
62 99 176
62 98 168
63 99 175
62 98 175
62 99 170
62 99 174
62 99 172
61 97 171
62 98 174
63 99 174
62 98 171
62 98 175
62 98 172
62 98 171
100 129 191
159 182 225
204 225 254
207 228 255
207 228 255
207 228 255
207 228 255
207 228 255
207 228 255
207 228 255
207 228 255
207 228 255
207 228 255
207 228 255
207 228 255
207 228 255
207 228 255
207 228 255
208 228 255
208 228 255
208 228 255
208 228 255
208 228 255
208 228 255
208 228 255
208 228 255
208 228 255
208 228 255
208 228 255
208 228 255
208 228 255
208 228 255
208 228 255
208 228 255
208 228 255
208 228 255
208 228 255
208 228 255
208 228 255
208 228 255
208 228 255
208 228 255
208 228 255
209 228 255
209 229 255
209 229 255
209 229 255
209 229 255
209 229 255
209 229 255
209 229 255
209 229 255
209 229 255
209 229 255
209 229 255
209 229 255
209 229 255
194 211 230
150 155 143
126 124 81
131 129 86
141 138 92
143 141 94
143 142 95
139 137 91
142 141 94
143 141 95
143 142 96
146 145 97
141 140 94
142 141 95
147 146 98
146 145 97
144 143 97
155 153 103
149 148 100
143 141 94
152 151 102
150 149 100
152 150 101
152 150 101
152 151 101
151 149 100
155 153 103
156 154 104
157 155 104
156 154 103
155 153 102
155 153 103
159 156 104
153 152 102
148 146 97
155 153 103
148 146 98
150 148 99
159 157 105
148 146 97
153 150 100
155 152 101
158 155 104
157 155 103
154 152 101
160 159 106
162 159 105
163 161 108
156 155 104
158 155 103
156 153 101
158 155 101
157 153 101
155 153 103
151 148 98
157 154 103
158 155 103
157 154 102
162 159 106
157 154 101
154 152 101
164 162 108
152 149 99
161 158 104
156 153 101
161 158 103
150 146 96
156 154 102
156 152 99
153 150 96
156 153 98
165 162 107
162 159 104
151 147 95
163 159 104
162 158 104
160 156 103
159 155 99
157 154 101
151 148 95
153 149 96
149 146 95
163 159 103
154 149 95
158 154 101
150 147 96
157 153 97
155 151 95
154 151 97
153 149 95
162 157 100
153 150 95
155 152 99
153 150 96
153 148 95
148 146 94
154 150 97
157 152 98
152 149 95
147 143 92
148 144 92
156 152 97
161 156 99
140 137 87
163 158 101
149 145 91
149 145 93
148 144 93
153 149 94
154 151 99
151 147 93
147 142 91
149 146 93
144 141 92
153 148 90
144 140 86
150 145 91
143 139 88
145 140 87
147 143 92
144 139 87
173 196 0
175 198 0
173 196 0
175 198 0
174 198 0
172 196 0
173 197 0
174 197 0
173 197 0
174 198 0
174 197 0
175 198 0
175 198 0
173 197 0
175 197 0
174 197 0
175 198 0
172 196 0
173 197 0
174 197 0
174 197 0
173 197 0
173 196 0
174 197 0
173 197 0
175 198 0
176 199 0
172 196 0
174 198 0
174 197 0
175 198 0
173 196 0
172 197 0
174 197 0
174 197 0
175 198 0
173 197 0
174 197 0
173 197 0
171 195 0
175 198 0
176 198 0
175 198 0
174 197 0
174 198 0
172 196 0
172 197 0
175 198 0
174 198 0
173 197 0
173 196 0
174 198 0
174 197 0
174 197 0
174 198 0
174 198 0
175 198 0
174 198 0
174 198 0
174 197 0
173 197 0
174 198 0
173 196 0
173 197 0
174 198 0
174 197 0
173 197 0
174 198 0
175 198 0
174 198 0
175 198 0
175 198 0
175 198 0
175 198 0
174 197 0
174 197 0
174 198 0
175 198 0
174 198 0
174 197 0
173 196 0
175 198 0
174 198 0
172 196 0
174 197 0
175 198 0
174 197 0
173 197 0
175 198 0
173 197 0
173 197 0
174 197 0
173 197 0
174 197 0
173 196 0
173 197 0
175 198 0
174 197 0
175 198 0
172 197 0
174 198 0
173 197 0
172 196 0
172 197 0
174 197 0
173 197 0
174 197 0
174 198 0
172 196 0
175 198 0
174 197 0
173 197 0
174 197 0
172 196 0
174 197 0
174 198 0
175 198 0
176 199 0
173 197 0
173 197 0
172 195 25
192 213 179
209 228 253
209 229 255
209 229 255
209 229 255
209 229 255
209 229 255
209 229 255
209 229 255
209 229 255
209 229 255
209 229 255
209 229 255
209 229 255
209 229 255
209 229 255
209 229 255
209 229 255
209 228 255
209 228 255
208 228 255
208 228 255
208 228 255
208 228 255
208 228 255
208 228 255
208 228 255
208 228 255
208 228 255
208 228 255
208 228 255
208 228 255
208 228 255
208 228 255
208 228 255
208 228 255
208 228 255
208 228 255
208 228 255
208 228 255
208 228 255
208 228 255
208 228 255
208 228 255
208 228 255
208 228 255
208 228 255
207 228 255
207 228 255
207 228 255
207 228 255
207 228 255
207 228 255
177 198 234
112 138 195
60 97 170
61 98 166
62 99 170
62 98 167
62 99 172
62 98 171
63 99 173
61 97 168
62 99 171
61 98 168
62 99 170
62 99 166
63 100 176
62 99 169
61 97 163
62 98 167
62 99 169
62 98 167
62 98 167
62 98 169
62 98 169
62 99 170
62 98 168
62 99 169
62 98 169
62 98 168
62 99 170
62 99 173
61 98 166
62 98 169
61 98 171
61 98 164
61 98 167
60 96 165
63 99 172
62 99 172
62 99 176
61 98 170
62 99 174
62 98 173
61 98 165
61 97 170
61 97 165
62 98 173
62 98 174
62 99 178
62 98 168
61 98 171
98 126 186
170 192 230
207 228 255
207 228 255
207 228 255
207 228 255
207 228 255
208 228 255
208 228 255
208 228 255
208 228 255
208 228 255
208 228 255
208 228 255
208 228 255
208 228 255
208 228 255
208 228 255
208 228 255
208 228 255
208 228 255
208 228 255
208 228 255
208 228 255
208 228 255
208 228 255
208 228 255
208 228 255
208 228 255
208 228 255
208 228 255
208 228 255
208 228 255
208 228 255
208 228 255
209 228 255
209 228 255
209 229 255
209 229 255
209 229 255
209 229 255
209 229 255
209 229 255
209 229 255
209 229 255
209 229 255
209 229 255
209 229 255
209 229 255
209 229 255
209 229 255
209 229 255
209 229 255
207 226 252
166 176 177
130 128 87
133 130 86
141 138 92
139 135 90
146 144 96
137 135 90
137 136 91
140 138 93
138 137 93
147 146 98
139 137 92
146 145 98
147 146 99
143 141 95
153 151 102
147 146 98
150 149 100
144 142 96
148 147 99
145 144 97
143 142 96
152 150 101
150 149 100
150 149 100
151 150 101
157 154 103
151 149 100
156 155 103
152 151 102
155 154 103
157 155 104
157 154 102
160 156 104
155 153 103
158 156 104
159 156 104
161 159 106
152 150 100
155 153 102
159 156 104
158 154 103
157 155 103
164 160 106
156 154 103
163 160 107
160 158 105
160 158 105
158 155 103
154 152 102
158 155 103
160 158 104
160 157 105
156 154 103
161 157 103
158 155 102
156 153 101
156 152 101
160 155 103
164 160 105
156 152 101
160 157 103
154 152 101
161 158 105
162 159 105
161 159 104
170 166 108
160 157 103
160 156 101
154 151 99
153 150 97
158 154 99
157 153 101
151 147 95
153 150 97
161 157 103
166 162 106
168 164 108
160 156 104
163 158 103
158 154 99
161 156 102
159 156 102
154 150 99
158 154 97
155 151 97
163 159 103
152 148 95
155 152 101
158 154 100
160 155 101
144 140 90
157 153 98
152 148 95
160 155 101
155 150 97
156 153 99
152 149 96
151 146 94
162 157 99
149 145 95
153 149 95
154 149 94
148 143 90
153 149 95
153 148 96
152 149 93
155 150 97
156 152 97
150 146 92
157 152 97
153 148 93
150 145 93
149 146 93
149 145 90
146 142 89
151 147 93
154 148 95
137 134 84
147 143 89
152 148 95
156 151 95
174 198 0
174 197 0
173 197 0
175 198 0
174 197 0
173 197 0
172 196 0
174 197 0
174 198 0
175 198 0
174 197 0
174 197 0
175 198 0
173 196 0
174 198 0
174 198 0
174 197 0
174 198 0
174 197 0
175 198 0
172 197 0
173 197 0
175 198 0
174 198 0
174 197 0
173 197 0
174 198 0
174 197 0
175 198 0
175 198 0
175 198 0
174 197 0
174 197 0
173 197 0
172 197 0
173 197 0
176 199 0
174 197 0
174 197 0
173 197 0
174 198 0
175 198 0
174 198 0
173 197 0
174 198 0
174 197 0
174 198 0
174 198 0
173 197 0
176 198 0
174 198 0
174 197 0
175 198 0
173 197 0
174 197 0
174 198 0
176 199 0
174 197 0
171 196 0
176 198 0
174 198 0
174 197 0
173 197 0
175 198 0
174 197 0
175 198 0
175 198 0
174 198 0
173 197 0
173 196 0
174 197 0
174 198 0
174 197 0
176 198 0
174 197 0
176 198 0
177 199 0
174 197 0
175 198 0
175 198 0
175 198 0
173 196 0
175 198 0
174 197 0
174 197 0
174 197 0
174 198 0
174 198 0
174 198 0
174 198 0
173 197 0
173 197 0
174 197 0
176 199 0
175 198 0
172 196 0
176 198 0
174 198 0
172 196 0
173 196 0
173 197 0
174 197 0
174 198 0
171 196 0
174 198 0
174 197 0
173 196 0
174 197 0
175 198 0
176 199 0
176 199 0
175 198 0
173 197 0
176 199 0
175 198 0
175 198 0
175 198 0
174 197 0
173 197 0
175 198 0
173 197 0
174 198 0
178 201 95
205 225 238
209 229 255
209 229 255
209 229 255
209 229 255
209 229 255
209 229 255
209 229 255
209 229 255
209 229 255
209 229 255
209 229 255
209 229 255
209 229 255
209 229 255
209 229 255
209 229 255
209 229 255
209 229 255
209 229 255
209 229 255
209 229 255
209 229 255
209 228 255
208 228 255
208 228 255
208 228 255
208 228 255
208 228 255
208 228 255
208 228 255
208 228 255
208 228 255
208 228 255
208 228 255
208 228 255
208 228 255
208 228 255
208 228 255
208 228 255
208 228 255
208 228 255
208 228 255
208 228 255
208 228 255
208 228 255
208 228 255
208 228 255
208 228 255
189 210 242
126 150 196
61 98 168
62 98 167
62 99 174
62 99 167
62 99 172
62 99 174
62 99 171
62 99 170
62 99 171
63 99 175
62 99 172
62 99 171
62 99 171
62 98 169
64 100 172
61 98 166
63 99 175
62 98 166
61 98 169
63 100 173
62 98 165
62 98 166
62 99 170
63 99 170
62 99 170
63 99 171
63 100 171
62 99 169
62 98 163
63 99 170
62 98 165
62 98 167
61 98 170
62 98 171
63 99 171
61 98 170
62 99 170
61 97 167
61 98 163
62 98 168
62 98 171
61 98 168
62 98 169
60 96 165
63 99 166
61 98 166
62 99 173
62 97 168
61 97 166
62 98 171
62 98 173
62 98 171
123 147 198
194 214 245
208 228 255
208 228 255
208 228 255
208 228 255
208 228 255
208 228 255
208 228 255
208 228 255
208 228 255
208 228 255
208 228 255
208 228 255
208 228 255
208 228 255
208 228 255
208 228 255
208 228 255
208 228 255
208 228 255
208 228 255
208 228 255
208 228 255
208 228 255
208 228 255
209 228 255
209 228 255
209 228 255
209 229 255
209 229 255
209 229 255
209 229 255
209 229 255
209 229 255
209 229 255
209 229 255
209 229 255
209 229 255
209 229 255
209 229 255
209 229 255
209 229 255
209 229 255
209 229 255
209 229 255
209 229 255
209 229 255
209 229 255
209 229 255
201 219 241
144 147 131
133 130 85
129 128 86
137 136 91
138 137 91
141 139 93
144 143 95
149 147 99
152 151 102
142 140 95
142 141 95
146 145 98
151 150 101
143 142 96
138 137 93
149 148 99
154 153 103
141 140 94
149 148 99
153 152 102
156 154 104
151 149 100
158 156 104
152 150 101
153 151 101
153 151 102
150 149 100
152 150 101
157 154 103
156 154 103
155 153 102
156 155 104
155 153 103
158 156 105
162 159 106
154 151 101
158 156 104
154 152 101
159 156 104
159 157 104
161 158 106
154 152 101
163 160 106
162 158 105
158 155 103
164 161 107
159 156 103
160 156 104
160 157 105
157 154 103
161 157 104
157 154 102
160 157 104
154 152 101
164 161 108
158 154 101
162 159 105
159 157 104
161 158 104
155 152 101
160 158 104
160 157 103
161 158 104
158 155 103
166 161 105
161 157 103
163 159 104
162 158 105
161 158 103
157 154 102
164 159 103
160 155 101
161 157 103
162 158 103
157 152 100
166 162 105
155 152 98
162 158 103
146 142 91
153 150 97
153 149 97
152 149 97
158 153 99
163 160 103
167 163 107
154 151 98
154 150 97
162 159 103
166 161 105
161 156 100
151 148 96
155 152 100
153 150 96
162 157 101
147 142 90
151 147 94
154 150 96
153 149 95
149 145 90
160 156 100
155 150 97
156 151 95
158 153 97
153 149 95
157 152 97
150 145 93
146 143 90
159 154 97
147 143 92
151 146 92
156 152 96
153 148 91
146 141 86
151 147 93
141 137 85
153 149 93
140 136 84
150 145 89
143 139 86
149 145 93
146 142 91
144 139 87
147 143 90
176 199 0
172 196 0
175 198 0
173 197 0
174 197 0
173 197 0
173 196 0
173 197 0
173 197 0
175 198 0
172 196 0
174 197 0
172 196 0
173 196 0
174 197 0
173 197 0
174 197 0
175 198 0
171 195 0
174 198 0
173 197 0
174 198 0
173 197 0
173 197 0
173 196 0
175 198 0
174 198 0
175 198 0
176 199 0
173 197 0
173 197 0
175 198 0
173 197 0
174 197 0
173 197 0
173 197 0
174 197 0
174 198 0
173 197 0
175 198 0
172 196 0
173 197 0
174 198 0
174 198 0
174 198 0
175 198 0
174 198 0
173 197 0
175 198 0
175 198 0
172 197 0
175 198 0
173 196 0
175 198 0
174 198 0
175 198 0
175 198 0
173 197 0
174 198 0
174 197 0
175 198 0
174 198 0
174 197 0
174 197 0
174 197 0
174 198 0
174 198 0
174 198 0
174 198 0
173 197 0
176 199 0
174 197 0
174 197 0
174 197 0
176 199 0
174 198 0
174 198 0
175 198 0
175 198 0
175 198 0
173 197 0
175 198 0
173 197 0
174 197 0
176 199 0
173 197 0
174 198 0
171 195 0
174 198 0
175 198 0
174 198 0
174 197 0
175 198 0
174 197 0
174 198 0
174 198 0
172 196 0
174 197 0
175 198 0
173 197 0
172 196 0
173 197 0
175 198 0
172 196 0
173 197 0
172 196 0
175 198 0
173 197 0
175 198 0
173 197 0
171 195 0
174 198 0
174 197 0
174 197 0
174 198 0
174 198 0
174 197 0
172 196 0
174 197 0
173 197 0
174 197 0
175 198 0
175 197 0
176 198 25
199 219 212
210 229 255
210 229 255
210 229 255
210 229 255
210 229 255
209 229 255
209 229 255
209 229 255
209 229 255
209 229 255
209 229 255
209 229 255
209 229 255
209 229 255
209 229 255
209 229 255
209 229 255
209 229 255
209 229 255
209 229 255
209 229 255
209 229 255
209 229 255
209 229 255
209 229 255
209 229 255
209 229 255
209 228 255
209 228 255
209 228 255
208 228 255
208 228 255
208 228 255
208 228 255
208 228 255
208 228 255
208 228 255
208 228 255
208 228 255
208 228 255
208 228 255
208 228 255
208 228 255
208 228 255
208 228 255
205 225 252
154 177 217
68 103 175
62 99 174
61 98 165
62 99 169
61 98 165
62 99 169
62 99 170
62 98 163
62 98 165
62 98 168
63 99 173
61 98 162
62 99 174
62 98 165
63 99 169
62 98 163
62 99 169
62 98 168
62 99 169
62 99 171
62 98 161
61 98 164
61 98 167
62 98 167
62 98 167
62 99 174
62 99 166
62 99 171
63 99 169
62 99 172
63 99 171
62 98 167
63 99 169
62 98 165
63 99 173
61 97 164
62 98 168
63 99 172
63 99 175
61 98 169
62 98 167
62 98 170
62 98 164
62 98 169
62 98 171
61 97 165
63 99 174
62 98 169
61 97 166
62 98 172
62 98 171
60 96 164
61 97 165
61 97 166
61 97 172
75 106 170
161 182 223
208 228 255
208 228 255
208 228 255
208 228 255
208 228 255
208 228 255
208 228 255
208 228 255
208 228 255
208 228 255
208 228 255
208 228 255
208 228 255
208 228 255
208 228 255
208 228 255
208 228 255
209 228 255
209 228 255
209 229 255
209 229 255
209 229 255
209 229 255
209 229 255
209 229 255
209 229 255
209 229 255
209 229 255
209 229 255
209 229 255
209 229 255
209 229 255
209 229 255
209 229 255
209 229 255
209 229 255
209 229 255
209 229 255
209 229 255
209 229 255
209 229 255
210 229 255
210 229 255
210 229 255
210 229 255
210 229 255
174 186 193
130 129 97
140 138 92
126 124 83
147 144 96
138 137 92
137 136 92
138 137 92
146 145 98
148 146 98
142 142 96
139 138 93
147 146 99
146 145 98
146 145 98
145 144 97
148 147 100
150 149 101
146 145 98
147 145 97
149 148 100
154 153 103
151 150 100
150 147 99
155 153 103
155 153 103
153 151 102
155 153 103
147 146 98
150 148 98
160 157 105
155 153 102
158 156 104
166 163 109
150 148 99
161 159 105
156 153 102
160 158 106
162 160 107
161 158 106
157 155 103
162 159 106
157 155 104
161 157 105
162 159 106
150 147 98
161 159 106
154 151 99
161 158 105
155 152 101
165 162 107
163 159 105
164 160 105
158 154 101
158 154 102
167 164 109
158 155 103
162 158 103
161 158 105
168 164 108
163 160 106
163 159 105
157 154 102
163 159 103
165 162 107
158 155 101
162 158 103
162 159 105
157 153 99
162 159 105
164 160 105
163 158 102
160 156 102
164 159 104
157 154 101
158 154 100
164 161 105
168 164 105
160 156 102
163 158 103
164 160 103
160 157 101
161 157 101
163 159 103
164 160 104
152 149 97
152 147 95
164 159 103
163 159 104
157 153 99
148 144 92
158 153 98
163 160 101
156 151 96
149 146 95
159 156 101
154 150 95
154 151 97
149 146 94
156 151 95
141 137 88
155 151 98
152 148 91
156 151 97
154 149 93
150 146 91
156 153 98
157 153 95
149 145 89
153 149 93
147 144 90
155 151 95
150 146 95
145 142 87
146 142 88
150 145 93
142 138 86
150 145 89
148 144 88
149 145 91
153 149 93
147 143 89
155 151 97
153 149 93
147 142 90
175 198 0
173 197 0
176 198 0
174 197 0
175 198 0
175 198 0
174 197 0
172 196 0
174 197 0
174 198 0
174 198 0
172 195 0
175 198 0
175 198 0
174 198 0
174 197 0
174 197 0
175 198 0
174 198 0
174 197 0
172 196 0
175 198 0
175 198 0
173 197 0
175 198 0
174 198 0
174 198 0
173 197 0
173 197 0
175 198 0
174 198 0
175 198 0
174 197 0
175 197 0
175 198 0
174 198 0
173 197 0
177 199 0
173 197 0
173 197 0
175 198 0
174 197 0
173 197 0
173 197 0
174 197 0
174 198 0
175 198 0
174 197 0
175 198 0
174 198 0
175 198 0
175 198 0
172 196 0
175 198 0
174 198 0
174 198 0
174 197 0
174 197 0
175 198 0
173 197 0
173 197 0
175 198 0
175 198 0
173 197 0
174 197 0
173 197 0
172 196 0
174 197 0
174 198 0
175 198 0
176 199 0
174 198 0
174 197 0
174 198 0
174 197 0
174 197 0
175 198 0
175 198 0
175 198 0
173 197 0
172 197 0
173 196 0
173 197 0
174 197 0
173 197 0
174 197 0
174 198 0
173 197 0
175 198 0
172 196 0
175 198 0
173 197 0
176 199 0
173 197 0
175 198 0
174 197 0
174 197 0
176 198 0
173 197 0
174 197 0
174 197 0
174 197 0
173 197 0
175 198 0
173 197 0
174 197 0
173 197 0
172 195 0
174 198 0
174 198 0
174 197 0
173 197 0
173 197 0
174 197 0
174 197 0
173 197 0
175 198 0
175 198 0
174 197 0
173 197 0
171 196 0
173 197 0
176 199 0
175 198 0
174 198 0
188 210 155
208 227 246
210 229 255
210 229 255
210 229 255
210 229 255
210 229 255
210 229 255
210 229 255
210 229 255
210 229 255
209 229 255
209 229 255
209 229 255
209 229 255
209 229 255
209 229 255
209 229 255
209 229 255
209 229 255
209 229 255
209 229 255
209 229 255
209 229 255
209 229 255
209 229 255
209 229 255
209 229 255
209 229 255
209 229 255
209 229 255
209 229 255
209 229 255
209 229 255
209 229 255
209 229 255
209 228 255
208 228 255
208 228 255
208 228 255
208 228 255
208 228 255
208 228 255
208 228 255
190 211 242
114 140 194
62 99 175
61 98 162
61 98 168
62 99 170
62 98 166
62 98 168
61 97 162
62 98 161
63 99 169
63 99 172
61 98 167
62 99 167
61 97 160
62 99 172
61 98 168
63 99 172
62 99 166
63 99 164
61 98 163
61 97 162
62 98 167
63 99 170
63 99 166
61 97 162
62 98 168
61 98 165
62 98 163
62 98 163
62 98 164
62 98 173
62 99 168
62 98 166
62 99 173
63 99 172
62 98 164
62 98 164
62 98 164
62 98 162
61 96 164
62 99 170
63 99 169
62 99 167
61 96 166
62 98 168
61 98 166
62 98 164
63 99 170
62 97 168
62 98 168
62 98 169
62 99 169
62 99 172
62 98 171
61 97 166
61 97 168
61 96 171
60 95 164
62 98 175
123 147 197
191 212 242
208 228 255
208 228 255
208 228 255
208 228 255
208 228 255
208 228 255
209 228 255
209 228 255
209 229 255
209 229 255
209 229 255
209 229 255
209 229 255
209 229 255
209 229 255
209 229 255
209 229 255
209 229 255
209 229 255
209 229 255
209 229 255
209 229 255
209 229 255
209 229 255
209 229 255
209 229 255
209 229 255
209 229 255
209 229 255
209 229 255
209 229 255
209 229 255
209 229 255
210 229 255
210 229 255
210 229 255
210 229 255
210 229 255
210 229 255
210 229 255
210 229 255
210 229 255
204 223 248
166 173 168
124 121 79
135 133 89
147 144 96
129 128 86
141 139 94
145 143 96
141 140 94
141 139 93
142 141 96
135 134 91
143 142 95
148 147 100
146 146 98
150 148 100
143 142 97
142 141 95
154 152 103
150 149 101
139 138 94
155 154 104
143 142 95
158 155 104
153 151 102
151 150 101
152 150 101
152 149 100
152 151 102
160 158 104
155 153 103
150 149 100
155 152 102
157 155 103
148 146 98
155 153 102
157 156 104
159 157 105
162 159 106
161 158 105
156 154 103
154 152 101
160 158 106
155 152 102
155 153 102
159 156 104
162 159 106
157 154 103
162 159 106
163 160 105
162 159 106
165 161 106
161 158 105
165 161 106
164 160 106
168 163 108
157 155 102
157 154 102
162 158 105
166 162 105
163 159 104
169 165 109
162 158 105
157 153 98
159 155 101
162 158 104
162 158 103
160 157 102
155 152 100
159 155 101
166 162 105
157 154 100
160 156 101
163 159 106
163 158 101
161 156 102
163 160 104
165 160 102
153 150 98
160 157 102
161 158 101
154 150 98
162 158 103
166 161 106
163 159 102
163 159 101
157 153 99
165 160 101
166 161 103
163 158 103
160 155 100
163 160 104
155 151 96
157 152 97
159 154 100
155 150 97
161 156 100
163 158 101
159 155 100
156 152 97
159 156 102
156 152 96
155 151 93
165 160 100
156 152 98
158 154 99
154 149 90
161 157 102
152 148 91
154 150 96
158 154 96
160 154 99
143 140 88
154 150 94
148 142 87
150 145 93
154 149 94
155 151 93
155 150 95
155 150 95
144 140 89
148 144 89
154 150 95
149 144 87
150 146 92
159 154 97
154 150 94
174 198 0
176 198 0
173 197 0
176 199 0
173 197 0
172 197 0
173 197 0
174 197 0
173 197 0
175 198 0
174 197 0
174 197 0
173 197 0
173 197 0
173 197 0
176 199 0
174 197 0
175 198 0
175 198 0
175 198 0
173 196 0
176 198 0
173 197 0
176 198 0
175 198 0
175 198 0
173 197 0
174 197 0
176 198 0
174 197 0
174 197 0
175 198 0
173 197 0
174 198 0
175 198 0
174 198 0
176 198 0
174 198 0
176 198 0
174 197 0
175 198 0
174 197 0
173 197 0
176 199 0
174 198 0
174 197 0
174 197 0
175 198 0
175 197 0
176 199 0
175 198 0
174 198 0
175 198 0
174 197 0
175 198 0
175 198 0
171 195 0
174 197 0
176 198 0
174 197 0
175 198 0
175 198 0
173 197 0
174 197 0
175 198 0
175 198 0
175 198 0
173 197 0
175 198 0
174 198 0
174 198 0
174 197 0
176 199 0
175 198 0
175 198 0
174 198 0
173 197 0
175 198 0
175 198 0
177 199 0
173 197 0
175 198 0
174 198 0
175 198 0
174 198 0
174 197 0
175 198 0
173 197 0
174 197 0
174 197 0
173 196 0
175 198 0
174 198 0
175 198 0
172 196 0
172 195 0
176 198 0
175 198 0
173 197 0
174 198 0
176 199 0
174 198 0
173 197 0
174 198 0
175 198 0
175 198 0
174 197 0
173 197 0
174 197 0
175 198 0
174 197 0
175 198 0
174 197 0
173 197 0
174 197 0
175 198 0
175 198 0
175 198 0
175 198 0
175 198 0
175 198 0
172 196 0
176 199 0
175 198 0
174 198 0
174 198 0
184 206 125
205 225 234
210 229 255
210 229 255
210 229 255
210 229 255
210 229 255
210 229 255
210 229 255
210 229 255
210 229 255
210 229 255
210 229 255
210 229 255
210 229 255
210 229 255
209 229 255
209 229 255
209 229 255
209 229 255
209 229 255
209 229 255
209 229 255
209 229 255
209 229 255
209 229 255
209 229 255
209 229 255
209 229 255
209 229 255
209 229 255
209 229 255
209 229 255
209 229 255
209 229 255
209 229 255
209 229 255
209 229 255
209 229 255
209 229 255
209 229 255
209 229 255
180 201 234
81 113 177
61 97 168
61 98 169
62 98 166
61 97 160
61 98 166
61 97 161
61 97 158
62 98 167
63 99 168
61 98 161
62 99 165
63 99 169
62 98 165
62 99 169
62 98 162
62 98 164
62 98 161
62 98 163
62 99 168
62 98 166
62 99 167
62 98 161
62 98 165
62 98 167
62 98 166
62 98 166
62 98 168
62 99 166
61 97 162
63 99 170
62 98 167
62 98 164
61 97 162
61 97 164
62 98 160
63 99 170
61 97 165
63 99 172
62 98 162
62 99 168
62 98 164
63 99 168
62 98 163
62 98 165
62 98 173
61 97 160
62 98 170
61 97 163
62 98 166
61 97 168
61 97 161
62 98 166
62 98 165
60 96 161
62 99 171
61 96 163
61 96 162
61 97 170
61 96 166
62 98 173
78 109 174
162 184 223
209 229 255
209 229 255
209 229 255
209 229 255
209 229 255
209 229 255
209 229 255
209 229 255
209 229 255
209 229 255
209 229 255
209 229 255
209 229 255
209 229 255
209 229 255
209 229 255
209 229 255
209 229 255
209 229 255
209 229 255
209 229 255
209 229 255
209 229 255
209 229 255
209 229 255
209 229 255
210 229 255
210 229 255
210 229 255
210 229 255
210 229 255
210 229 255
210 229 255
210 229 255
210 229 255
210 229 255
210 229 255
210 229 255
210 229 255
210 229 255
202 220 243
148 149 121
124 121 79
135 133 88
132 131 88
131 130 89
136 134 90
143 142 95
143 141 95
135 134 91
139 137 92
144 144 98
154 152 102
149 147 99
150 148 99
150 148 100
136 135 91
144 143 97
145 144 96
155 153 103
147 147 99
151 150 102
161 158 105
152 150 101
153 151 102
155 153 102
157 155 104
155 152 101
158 155 103
155 154 104
159 157 105
156 154 103
161 158 106
158 155 103
150 148 99
158 156 104
161 158 104
155 154 103
163 160 107
165 162 109
157 153 101
153 151 101
166 162 108
165 163 108
160 156 103
167 165 110
163 160 106
160 157 104
164 160 106
167 164 108
160 158 105
163 159 104
164 161 106
164 160 106
164 160 103
161 158 104
163 160 106
163 159 106
155 152 100
160 156 103
161 158 105
156 153 100
160 156 102
163 159 104
165 162 106
162 158 103
167 162 106
164 160 104
163 159 103
166 162 105
163 160 106
164 159 104
164 160 105
160 156 101
167 164 108
168 163 106
162 159 103
164 161 105
167 164 108
164 160 104
153 150 97
159 155 101
160 156 101
158 154 99
161 157 99
162 158 101
158 154 99
160 157 103
160 155 99
164 160 103
165 161 104
165 161 102
157 154 99
158 154 100
161 156 99
159 154 98
158 154 97
158 154 97
154 150 95
154 150 97
158 154 99
151 147 93
159 155 100
157 152 98
159 154 95
152 148 95
162 156 102
157 153 95
154 150 95
154 150 94
152 148 95
152 148 95
162 156 99
150 146 90
148 144 90
157 153 95
157 153 95
153 149 96
147 144 91
158 153 97
153 149 93
154 148 91
147 142 89
157 153 96
152 147 91
142 138 85
154 149 91
138 134 81
174 198 0
174 197 0
174 197 0
173 197 0
175 198 0
174 197 0
173 196 0
174 198 0
173 197 0
173 197 0
174 198 0
174 197 0
174 197 0
174 198 0
176 198 0
175 198 0
175 198 0
174 197 0
174 197 0
172 196 0
175 198 0
172 196 0
175 198 0
175 198 0
173 196 0
175 198 0
174 198 0
173 197 0
176 198 0
174 198 0
174 197 0
176 199 0
173 197 0
173 196 0
172 196 0
174 198 0
173 197 0
173 197 0
173 197 0
174 197 0
174 198 0
174 197 0
175 198 0
174 197 0
175 198 0
174 198 0
175 198 0
174 197 0
173 197 0
174 197 0
176 199 0
174 197 0
175 198 0
173 197 0
173 197 0
173 197 0
174 197 0
173 197 0
173 197 0
173 197 0
173 197 0
173 197 0
174 198 0
174 197 0
173 197 0
173 197 0
175 198 0
175 198 0
175 198 0
172 196 0
175 198 0
175 198 0
174 197 0
173 197 0
174 198 0
174 197 0
176 199 0
175 198 0
175 198 0
174 198 0
174 198 0
175 198 0
175 198 0
174 198 0
173 197 0
174 198 0
174 198 0
172 196 0
175 198 0
173 197 0
174 198 0
174 197 0
174 198 0
173 196 0
174 198 0
174 198 0
173 196 0
176 198 0
173 196 0
174 198 0
175 198 0
175 198 0
172 197 0
174 197 0
175 198 0
175 197 0
173 197 0
175 198 0
174 198 0
174 198 0
175 198 0
174 197 0
175 198 0
174 198 0
173 197 0
174 197 0
173 197 0
175 198 0
175 198 0
173 197 0
175 198 0
173 197 0
174 198 0
174 197 0
174 197 0
174 197 0
175 198 0
178 200 62
201 221 218
210 229 255
210 229 255
210 229 255
210 229 255
210 229 255
210 229 255
210 229 255
210 229 255
210 229 255
210 229 255
210 229 255
210 229 255
210 229 255
210 229 255
210 229 255
210 229 255
210 229 255
210 229 255
210 229 255
210 229 255
210 229 255
209 229 255
209 229 255
209 229 255
209 229 255
209 229 255
209 229 255
209 229 255
209 229 255
209 229 255
209 229 255
209 229 255
209 229 255
209 229 255
209 229 255
209 229 255
209 229 255
208 228 255
137 160 200
61 97 161
61 98 163
62 98 167
62 99 167
63 99 172
62 98 170
62 99 171
62 98 167
62 98 163
62 99 169
62 98 168
62 98 163
62 98 165
62 98 161
62 98 164
62 99 169
62 98 162
62 98 165
62 98 163
62 98 163
62 98 164
62 98 164
63 99 168
61 98 161
62 98 166
62 98 168
61 97 161
62 98 165
61 98 161
62 99 169
62 98 168
62 98 163
62 98 165
62 98 161
62 98 168
61 98 161
62 99 170
62 98 164
61 96 159
62 98 163
63 99 171
61 97 166
62 98 166
62 98 164
61 98 165
62 98 168
62 99 165
62 98 168
62 98 170
62 98 171
62 99 165
61 98 169
62 98 167
63 99 171
61 97 164
60 96 157
62 98 170
62 98 167
61 97 168
61 96 163
62 98 165
61 96 168
61 96 167
65 100 170
143 165 208
209 229 255
209 229 255
209 229 255
209 229 255
209 229 255
209 229 255
209 229 255
209 229 255
209 229 255
209 229 255
209 229 255
209 229 255
209 229 255
209 229 255
209 229 255
209 229 255
209 229 255
210 229 255
210 229 255
210 229 255
210 229 255
210 229 255
210 229 255
210 229 255
210 229 255
210 229 255
210 229 255
210 229 255
210 229 255
210 229 255
210 229 255
210 229 255
210 229 255
210 229 255
210 229 255
210 229 255
210 229 255
210 229 255
195 210 228
139 138 100
125 122 80
143 140 93
139 137 91
125 124 84
138 136 91
130 130 88
143 142 95
139 137 93
146 145 99
140 139 94
140 140 95
144 143 97
159 156 104
142 141 95
147 146 98
149 147 99
149 148 99
155 154 103
149 148 99
158 157 106
152 151 102
144 143 96
149 147 99
153 151 101
151 149 101
151 149 100
154 152 100
158 155 103
157 155 104
156 153 102
152 151 102
156 154 104
154 152 102
164 160 106
151 149 99
158 155 103
156 154 103
152 150 100
159 156 104
167 163 108
159 156 104
166 163 108
157 155 103
161 158 104
157 154 102
166 163 108
157 154 102
163 159 105
166 162 106
159 156 103
164 160 104
163 160 106
164 160 105
169 166 108
166 162 107
159 156 101
161 158 104
170 166 109
162 159 105
165 161 106
160 156 101
165 162 106
170 166 109
162 158 102
159 156 102
159 156 100
165 161 105
172 168 110
158 156 102
163 159 105
164 160 105
165 161 105
159 156 103
161 157 102
169 163 108
165 161 104
163 159 103
163 159 103
166 162 104
160 156 101
158 155 99
165 160 104
166 161 104
161 155 99
165 159 101
167 161 105
161 157 99
161 157 101
161 157 100
153 149 95
157 152 99
160 155 98
162 158 101
162 157 102
160 155 100
160 156 99
162 157 99
165 160 101
164 159 101
164 159 100
153 149 95
160 154 95
162 157 98
152 148 93
163 158 99
155 151 97
157 152 97
158 154 97
162 157 99
153 150 95
148 145 92
156 151 97
157 151 95
156 151 96
152 147 95
161 156 95
155 150 95
158 153 93
157 152 96
154 149 95
147 143 89
145 141 88
153 149 95
145 141 87
144 139 84
152 147 90
141 137 86
174 198 0
176 199 0
174 197 0
173 197 0
175 198 0
173 197 0
173 197 0
173 196 0
174 198 0
174 197 0
175 198 0
174 198 0
175 198 0
177 199 0
175 198 0
174 197 0
174 198 0
175 198 0
175 198 0
175 198 0
173 197 0
174 198 0
173 196 0
175 198 0
174 197 0
173 197 0
173 197 0
175 198 0
174 197 0
176 198 0
174 198 0
172 196 0
174 198 0
174 197 0
174 198 0
174 198 0
173 197 0
174 198 0
176 198 0
173 197 0
174 198 0
173 197 0
172 196 0
173 197 0
172 196 0
173 197 0
174 198 0
175 198 0
175 198 0
175 198 0
173 197 0
175 198 0
176 198 0
173 196 0
175 198 0
175 198 0
173 197 0
173 197 0
174 198 0
172 196 0
174 197 0
176 199 0
173 197 0
173 197 0
175 198 0
175 198 0
173 197 0
176 198 0
174 198 0
173 197 0
174 198 0
175 198 0
174 197 0
175 198 0
176 198 0
175 198 0
176 198 0
174 197 0
174 197 0
173 196 0
173 197 0
174 197 0
173 197 0
175 198 0
176 198 0
175 198 0
174 198 0
174 198 0
175 198 0
174 197 0
176 199 0
175 198 0
173 196 0
175 198 0
173 196 0
173 197 0
175 198 0
173 197 0
175 198 0
174 197 0
175 198 0
175 198 0
174 198 0
174 197 0
173 197 0
174 197 0
176 199 0
173 197 0
173 197 0
173 197 0
175 198 0
173 197 0
173 196 0
175 198 0
174 198 0
174 197 0
174 197 0
174 198 0
175 198 0
174 197 0
175 198 0
175 198 0
174 197 0
172 196 0
174 197 0
175 198 0
174 197 0
174 197 0
175 198 36
202 222 221
210 230 255
210 230 255
210 230 255
210 229 255
210 229 255
210 229 255
210 229 255
210 229 255
210 229 255
210 229 255
210 229 255
210 229 255
210 229 255
210 229 255
210 229 255
210 229 255
210 229 255
210 229 255
210 229 255
210 229 255
210 229 255
210 229 255
210 229 255
210 229 255
210 229 255
210 229 255
210 229 255
210 229 255
209 229 255
209 229 255
209 229 255
209 229 255
209 229 255
209 229 255
209 229 255
208 228 255
133 157 202
61 97 162
63 99 169
61 98 160
61 98 165
61 98 166
62 98 164
63 99 173
61 97 158
61 97 160
62 98 157
62 98 167
62 98 165
62 98 164
62 99 171
63 99 170
62 98 166
61 97 158
62 98 160
62 99 167
62 99 172
63 99 165
62 98 170
62 98 163
62 98 160
61 97 157
62 98 162
63 99 166
62 98 164
62 99 169
62 98 159
61 97 159
62 98 164
61 98 162
62 98 165
61 97 163
62 98 156
62 98 167
62 98 164
62 98 167
63 99 165
63 99 170
63 99 172
62 98 158
62 98 167
63 99 170
62 98 161
62 98 169
61 97 165
62 98 165
62 98 163
61 97 165
62 98 168
61 97 164
61 97 160
61 96 157
61 97 161
62 97 163
62 98 170
61 96 164
61 97 158
62 98 168
61 97 165
61 97 164
61 96 168
62 97 168
60 94 157
124 148 201
205 225 252
209 229 255
209 229 255
209 229 255
209 229 255
209 229 255
209 229 255
209 229 255
209 229 255
210 229 255
210 229 255
210 229 255
210 229 255
210 229 255
210 229 255
210 229 255
210 229 255
210 229 255
210 229 255
210 229 255
210 229 255
210 229 255
210 229 255
210 229 255
210 229 255
210 229 255
210 229 255
210 229 255
210 229 255
210 229 255
210 229 255
210 229 255
210 229 255
210 230 255
210 230 255
210 230 255
185 200 216
138 136 96
125 122 81
140 137 91
135 133 89
125 124 84
146 145 98
143 140 93
136 136 92
134 133 90
141 140 96
138 137 92
146 145 97
147 146 99
155 154 104
144 143 97
147 146 98
149 148 99
147 146 98
146 145 98
147 145 98
135 135 92
155 153 102
153 152 101
152 151 102
149 147 98
149 147 99
148 145 97
158 157 106
157 155 103
158 157 104
155 153 101
162 157 104
160 157 105
154 152 101
161 158 104
158 156 104
157 155 103
159 155 103
163 160 107
161 158 105
160 157 105
161 157 104
158 155 103
154 152 100
163 160 107
167 162 106
163 160 106
160 157 104
159 155 100
158 156 103
164 160 106
164 161 104
157 155 102
165 163 108
165 162 107
167 163 108
163 160 106
163 159 105
167 163 107
171 167 110
161 157 102
160 157 103
164 160 106
163 159 104
161 157 103
160 157 102
166 161 103
158 153 99
167 164 108
166 161 105
169 163 105
165 161 104
161 157 103
164 160 105
164 159 103
164 160 103
163 159 103
162 159 104
166 163 104
164 158 101
161 157 101
163 159 103
159 155 101
153 149 95
161 157 102
162 157 101
164 159 102
152 149 95
158 154 98
164 160 103
158 154 96
160 155 99
168 164 102
163 158 99
156 152 95
159 154 99
163 158 98
161 157 101
153 149 96
156 152 99
159 155 94
153 149 94
159 155 98
163 156 97
161 156 97
163 159 102
156 151 94
160 155 95
160 155 95
150 146 91
160 155 98
157 152 97
158 154 97
151 146 92
150 145 93
161 155 93
158 153 93
150 145 88
156 151 93
152 147 93
154 150 94
156 152 95
149 145 90
149 144 86
156 151 95
159 154 95
159 154 95
149 145 89
150 146 90
174 197 0
173 197 0
174 198 0
173 197 0
174 198 0
174 197 0
174 198 0
174 197 0
175 198 0
176 198 0
174 197 0
175 198 0
173 197 0
176 199 0
174 197 0
175 198 0
173 197 0
174 198 0
176 199 0
175 198 0
172 197 0
174 197 0
176 198 0
174 198 0
174 197 0
174 197 0
174 197 0
174 198 0
174 197 0
175 198 0
174 197 0
174 197 0
174 198 0
172 196 0
174 197 0
173 197 0
174 198 0
174 197 0
175 198 0
174 198 0
173 197 0
173 197 0
175 198 0
175 198 0
176 199 0
174 197 0
175 198 0
174 198 0
173 197 0
175 198 0
175 198 0
175 198 0
175 198 0
175 198 0
174 198 0
174 197 0
175 198 0
175 198 0
174 197 0
174 198 0
173 197 0
175 198 0
173 197 0
173 197 0
173 197 0
175 198 0
173 197 0
172 196 0
172 196 0
174 198 0
174 198 0
175 198 0
174 197 0
176 198 0
174 198 0
175 198 0
175 198 0
173 197 0
174 198 0
176 198 0
173 197 0
175 198 0
176 198 0
174 197 0
174 198 0
173 197 0
174 198 0
173 197 0
173 197 0
175 198 0
174 197 0
175 198 0
175 198 0
174 198 0
175 198 0
174 198 0
175 198 0
175 198 0
173 197 0
173 197 0
174 197 0
174 198 0
173 196 0
174 197 0
173 197 0
173 197 0
174 197 0
174 198 0
173 197 0
176 198 0
175 198 0
174 197 0
174 198 0
175 198 0
172 196 0
174 197 0
176 199 0
175 198 0
176 199 0
174 197 0
174 197 0
174 198 0
175 198 0
174 197 0
174 198 0
175 198 0
174 197 0
174 198 0
176 199 0
174 197 0
193 214 175
211 230 255
211 230 255
211 230 255
211 230 255
211 230 255
211 230 255
210 230 255
210 230 255
210 230 255
210 229 255
210 229 255
210 229 255
210 229 255
210 229 255
210 229 255
210 229 255
210 229 255
210 229 255
210 229 255
210 229 255
210 229 255
210 229 255
210 229 255
210 229 255
210 229 255
210 229 255
210 229 255
210 229 255
210 229 255
210 229 255
210 229 255
210 229 255
210 229 255
206 225 253
108 134 186
60 96 152
61 98 165
61 97 161
61 98 161
62 98 162
61 97 158
62 98 167
61 97 158
61 98 162
62 98 164
61 98 162
62 98 163
62 98 161
62 98 163
61 97 161
62 98 166
62 99 165
62 99 167
62 99 168
62 98 155
62 98 161
62 99 170
61 97 161
62 99 170
61 97 158
62 98 163
61 97 161
62 98 159
62 99 166
62 98 162
62 98 161
61 97 158
62 98 164
61 97 154
62 98 162
62 99 168
63 99 166
63 98 163
61 97 161
62 98 163
61 97 156
62 97 159
61 97 156
61 96 159
62 98 160
62 98 166
62 98 165
62 98 162
62 98 169
63 99 165
61 97 163
62 98 162
61 96 163
61 96 163
62 98 166
61 97 163
62 98 165
62 97 166
61 96 158
60 95 161
61 97 166
61 96 163
62 98 169
61 96 161
60 96 165
61 97 161
60 95 162
60 95 160
107 133 188
199 218 248
210 229 255
210 229 255
210 229 255
210 229 255
210 229 255
210 229 255
210 229 255
210 229 255
210 229 255
210 229 255
210 229 255
210 229 255
210 229 255
210 229 255
210 229 255
210 229 255
210 229 255
210 229 255
210 229 255
210 229 255
210 229 255
210 229 255
210 229 255
210 229 255
210 230 255
210 230 255
210 230 255
211 230 255
211 230 255
211 230 255
211 230 255
211 230 255
210 229 254
179 189 189
129 127 84
131 129 86
135 133 89
136 134 89
138 136 91
144 142 94
138 137 93
141 140 95
139 137 92
145 143 96
136 135 92
145 144 97
143 142 96
145 144 96
145 144 98
145 143 97
150 148 99
147 146 99
153 151 101
151 149 99
146 144 97
152 150 102
154 152 101
159 156 105
155 153 102
162 159 105
157 155 103
155 153 101
147 146 99
156 153 102
157 155 103
157 154 101
163 161 107
155 153 100
157 154 102
159 156 104
162 159 105
165 161 107
167 163 108
153 151 101
168 164 108
160 157 104
167 164 108
156 154 102
169 165 108
164 161 108
163 160 105
157 155 101
167 163 108
166 163 107
170 166 110
160 157 103
164 160 105
167 163 106
158 156 103
166 161 105
159 157 104
160 157 103
164 159 105
168 164 108
159 156 102
166 162 106
164 160 103
164 160 104
161 156 102
166 162 104
166 161 104
160 157 102
163 159 104
165 161 106
167 161 104
166 162 104
165 160 104
164 160 105
164 160 104
164 160 103
163 159 101
161 157 103
169 165 104
160 156 102
164 160 103
166 162 104
166 161 104
153 150 98
160 156 99
165 161 103
162 158 101
159 155 99
161 157 100
162 158 103
160 156 97
164 160 103
161 156 97
154 150 93
155 151 95
169 165 101
160 154 96
158 154 97
162 156 98
161 157 101
161 156 98
160 156 98
165 160 101
156 151 99
160 156 96
161 157 101
162 157 99
163 158 97
162 157 97
155 150 95
157 153 95
163 158 97
159 154 97
161 157 95
160 153 95
160 155 96
155 151 96
152 148 91
159 154 96
159 153 95
148 145 91
149 145 88
152 148 92
159 154 96
155 152 93
157 152 98
149 144 89
152 147 90
152 147 89
159 153 95
175 198 0
175 198 0
173 197 0
174 198 0
174 198 0
173 197 0
175 198 0
175 198 0
171 196 0
175 198 0
173 197 0
175 198 0
174 197 0
171 196 0
173 196 0
174 197 0
176 199 0
174 198 0
175 198 0
175 198 0
174 197 0
174 198 0
174 198 0
175 198 0
175 198 0
174 197 0
174 198 0
176 198 0
173 197 0
175 198 0
172 196 0
172 196 0
174 198 0
173 197 0
174 197 0
174 198 0
174 198 0
174 197 0
173 197 0
173 197 0
174 198 0
174 198 0
176 199 0
174 197 0
174 197 0
173 197 0
173 197 0
174 197 0
175 198 0
175 198 0
175 198 0
174 198 0
173 197 0
174 197 0
175 198 0
174 197 0
174 197 0
175 198 0
173 197 0
174 197 0
175 198 0
174 198 0
173 196 0
174 197 0
172 197 0
174 197 0
175 198 0
173 197 0
174 198 0
173 197 0
174 198 0
173 197 0
174 197 0
174 197 0
174 198 0
174 197 0
176 198 0
173 197 0
175 198 0
173 197 0
173 197 0
174 197 0
175 198 0
173 197 0
173 197 0
174 197 0
175 198 0
175 198 0
173 196 0
174 197 0
176 198 0
174 198 0
175 198 0
176 198 0
176 199 0
174 197 0
175 198 0
174 198 0
175 198 0
173 197 0
173 197 0
174 197 0
176 199 0
175 198 0
173 197 0
174 197 0
174 198 0
175 198 0
174 197 0
174 197 0
175 198 0
173 196 0
174 198 0
173 197 0
172 196 0
174 198 0
173 197 0
175 198 0
175 198 0
174 197 0
175 198 0
175 198 0
173 197 0
175 198 0
173 197 0
174 197 0
176 199 0
175 198 0
173 196 0
174 197 0
174 197 0
192 212 171
211 230 255
211 230 255
211 230 255
211 230 255
211 230 255
211 230 255
211 230 255
211 230 255
211 230 255
211 230 255
211 230 255
211 230 255
210 230 255
210 230 255
210 230 255
210 229 255
210 229 255
210 229 255
210 229 255
210 229 255
210 229 255
210 229 255
210 229 255
210 229 255
210 229 255
210 229 255
210 229 255
210 229 255
210 229 255
210 229 255
210 229 255
201 220 247
112 138 188
61 98 166
62 98 162
61 97 160
62 99 166
61 97 160
61 97 154
61 97 160
61 97 156
62 97 161
61 97 162
62 98 159
62 98 157
63 99 170
61 98 163
63 99 165
62 98 159
61 97 160
62 98 161
61 97 161
62 98 164
62 98 159
61 98 160
62 98 161
62 98 164
62 98 161
61 97 158
62 99 169
62 98 164
62 97 160
62 98 166
62 98 163
62 98 161
63 98 164
62 98 167
62 98 167
62 98 159
62 98 157
63 99 168
62 98 162
62 98 163
60 96 151
62 98 164
62 99 166
63 99 168
62 98 170
62 98 164
62 98 159
62 98 164
61 97 160
62 98 164
62 98 163
62 98 163
62 98 167
62 98 165
59 94 154
62 98 167
61 97 162
61 97 166
61 97 165
61 97 163
62 98 160
62 98 160
62 97 162
61 96 158
61 96 163
61 96 164
59 94 156
60 95 160
61 96 162
60 95 160
88 116 175
197 216 244
210 229 255
210 229 255
210 229 255
210 229 255
210 229 255
210 229 255
210 229 255
210 229 255
210 229 255
210 229 255
210 229 255
210 229 255
210 229 255
210 229 255
210 229 255
210 229 255
210 230 255
210 230 255
210 230 255
211 230 255
211 230 255
211 230 255
211 230 255
211 230 255
211 230 255
211 230 255
211 230 255
211 230 255
211 230 255
211 230 255
211 230 255
165 174 174
134 131 84
136 134 89
137 135 90
130 128 86
138 136 91
129 127 86
141 140 94
139 138 92
141 140 94
133 132 90
152 150 100
141 140 96
145 144 97
142 140 94
151 149 100
149 147 99
142 140 95
150 148 99
150 148 100
151 149 100
152 151 102
153 152 102
154 152 102
151 149 101
156 154 103
150 149 101
155 153 102
152 151 102
150 149 100
146 145 97
154 152 102
160 157 104
162 159 107
161 159 106
160 157 105
155 153 102
159 157 104
156 154 102
155 152 101
166 163 108
160 156 102
164 161 106
163 159 104
163 159 105
159 155 102
160 157 103
165 162 107
159 155 97
167 163 106
169 165 109
162 158 104
166 162 104
163 159 103
167 162 105
167 164 107
167 162 105
165 161 105
167 162 104
161 157 100
169 165 109
171 167 110
167 163 107
165 161 106
171 167 107
168 165 108
167 163 105
161 158 102
168 164 108
165 160 104
170 165 105
166 160 104
161 157 101
168 163 105
170 165 108
166 161 101
167 162 101
166 162 105
165 160 103
159 155 100
161 157 101
161 157 100
162 158 103
158 155 101
163 158 100
154 151 98
159 156 100
165 160 101
163 159 101
165 161 100
158 154 99
163 159 101
161 156 97
157 154 99
165 161 104
165 161 103
164 159 102
161 157 99
163 157 99
159 154 98
154 149 95
160 155 99
157 152 96
159 155 95
158 153 95
163 158 98
158 154 99
157 152 95
159 155 95
166 161 103
154 151 95
156 152 93
154 151 95
155 151 93
156 151 93
157 152 95
149 146 90
153 148 92
155 151 95
157 152 93
155 150 95
161 156 95
151 146 91
144 141 87
154 148 92
153 150 95
149 144 87
157 152 96
149 144 91
155 149 90
152 148 92
154 149 94
176 198 0
174 197 0
172 196 0
174 198 0
172 197 0
172 197 0
175 198 0
174 197 0
174 198 0
175 198 0
173 197 0
173 197 0
174 198 0
173 197 0
173 197 0
172 197 0
175 198 0
176 199 0
174 197 0
175 198 0
175 198 0
174 197 0
175 198 0
173 197 0
174 198 0
175 198 0
176 198 0
173 197 0
173 197 0
175 198 0
175 198 0
174 198 0
173 197 0
174 197 0
175 198 0
174 198 0
172 196 0
174 198 0
175 198 0
174 197 0
175 198 0
171 196 0
174 197 0
173 196 0
174 198 0
173 197 0
175 198 0
173 197 0
173 197 0
175 198 0
173 197 0
174 198 0
175 198 0
171 196 0
175 198 0
172 196 0
174 197 0
174 198 0
175 198 0
175 198 0
175 198 0
173 197 0
175 198 0
173 197 0
174 197 0
175 198 0
174 198 0
174 197 0
174 198 0
175 198 0
176 198 0
175 198 0
175 198 0
174 197 0
174 197 0
175 198 0
173 197 0
174 198 0
174 197 0
173 197 0
174 197 0
174 198 0
175 198 0
175 198 0
174 198 0
176 199 0
174 198 0
174 198 0
173 197 0
176 199 0
174 198 0
173 197 0
174 197 0
174 198 0
174 198 0
174 198 0
175 198 0
174 198 0
175 198 0
175 198 0
175 198 0
175 198 0
173 197 0
174 197 0
173 197 0
174 197 0
175 198 0
174 197 0
173 196 0
177 199 0
174 198 0
174 198 0
175 198 0
173 197 0
176 199 0
173 197 0
174 198 0
174 198 0
175 198 0
175 198 0
175 198 0
174 198 0
175 198 0
172 196 0
173 197 0
174 197 0
175 198 0
174 197 0
172 197 0
173 197 0
175 198 0
173 197 0
191 212 167
211 230 255
211 230 255
211 230 255
211 230 255
211 230 255
211 230 255
211 230 255
211 230 255
211 230 255
211 230 255
211 230 255
211 230 255
211 230 255
211 230 255
211 230 255
211 230 255
211 230 255
211 230 255
211 230 255
210 230 255
210 230 255
210 230 255
210 230 255
210 229 255
210 229 255
210 229 255
210 229 255
210 229 255
210 229 255
204 224 250
99 126 181
61 97 158
61 98 162
62 98 166
61 97 159
62 98 162
61 97 157
61 97 156
62 98 165
61 96 153
63 99 165
61 98 158
61 97 153
63 99 166
61 97 159
62 98 162
62 98 162
61 98 161
62 98 159
62 98 166
62 99 164
63 99 163
61 98 161
63 99 161
61 97 156
62 98 164
62 99 166
62 98 162
62 98 166
61 98 161
61 97 155
62 98 162
61 97 161
62 98 161
62 98 162
63 99 165
63 98 165
63 99 167
62 98 158
62 98 159
62 98 168
62 98 165
62 98 160
61 97 161
61 97 158
62 98 159
62 98 163
62 98 165
62 97 159
62 98 162
63 99 166
62 97 164
61 98 162
61 97 159
61 97 159
62 98 164
61 97 162
60 95 156
62 97 164
62 97 163
62 98 166
60 95 159
61 96 154
62 97 161
62 97 156
61 96 164
61 96 162
60 95 157
62 98 167
61 96 162
60 95 158
59 94 158
59 93 157
115 138 182
201 221 249
210 229 255
210 229 255
210 229 255
210 229 255
210 229 255
210 229 255
210 230 255
210 230 255
210 230 255
210 230 255
211 230 255
211 230 255
211 230 255
211 230 255
211 230 255
211 230 255
211 230 255
211 230 255
211 230 255
211 230 255
211 230 255
211 230 255
211 230 255
211 230 255
211 230 255
211 230 255
211 230 255
211 230 255
211 230 255
170 178 174
123 121 81
133 130 86
132 130 86
132 130 87
132 131 88
139 139 94
130 128 86
142 141 95
144 142 96
136 135 92
146 143 95
131 131 89
144 143 97
145 143 96
146 146 99
149 147 98
150 148 100
147 146 100
146 146 97
151 149 100
144 145 100
147 146 98
147 146 99
155 153 103
151 150 101
153 151 102
157 155 103
157 154 101
162 160 107
151 150 100
153 151 102
162 159 105
160 157 105
166 163 108
158 154 102
156 153 103
164 161 106
160 157 104
163 159 105
166 164 109
159 157 102
163 160 106
166 162 108
166 162 106
165 162 107
165 162 107
169 165 108
166 163 108
163 159 106
170 166 109
163 160 104
168 164 106
170 166 110
166 160 103
170 165 108
163 159 104
163 159 106
161 157 101
165 161 104
168 163 107
169 164 108
169 164 106
172 168 108
166 163 106
174 168 109
166 163 106
167 163 105
163 160 103
167 163 104
167 162 104
166 162 104
165 161 101
168 164 108
161 157 99
167 163 102
166 161 104
164 160 103
159 155 101
168 162 104
165 161 103
162 156 100
161 157 101
166 162 102
160 156 101
167 162 104
166 161 103
164 160 101
166 161 103
167 163 105
166 161 101
159 154 95
162 158 101
162 157 98
160 156 99
163 159 102
163 158 98
159 154 97
156 152 97
164 159 101
159 153 96
166 161 101
165 159 98
163 158 101
162 157 97
155 151 93
154 150 93
160 156 97
167 162 104
162 157 98
160 155 97
155 151 93
163 157 97
161 155 95
153 149 95
158 153 94
152 148 91
153 149 94
159 154 94
153 149 90
154 148 88
153 149 93
154 150 88
157 153 95
157 152 97
150 145 90
161 156 95
149 146 89
155 150 94
160 154 95
151 146 87
153 148 93
155 150 93
173 197 0
174 197 0
172 197 0
173 197 0
175 198 0
172 196 0
174 198 0
174 198 0
175 198 0
174 197 0
174 197 0
173 196 0
174 198 0
173 197 0
172 196 0
175 198 0
176 198 0
174 198 0
174 198 0
175 198 0
174 197 0
174 198 0
173 197 0
175 198 0
175 198 0
175 198 0
175 198 0
175 198 0
175 198 0
173 197 0
174 198 0
174 198 0
173 197 0
173 197 0
174 198 0
176 199 0
175 198 0
173 197 0
171 195 0
174 198 0
173 197 0
174 198 0
175 198 0
173 197 0
175 198 0
175 198 0
174 198 0
173 197 0
174 198 0
175 198 0
176 198 0
174 197 0
174 197 0
175 198 0
174 197 0
176 199 0
175 198 0
176 199 0
175 198 0
175 198 0
173 197 0
175 198 0
174 197 0
173 197 0
175 198 0
174 198 0
172 197 0
176 199 0
175 198 0
175 198 0
175 198 0
174 198 0
174 197 0
174 198 0
174 197 0
175 198 0
174 198 0
174 197 0
175 198 0
173 197 0
174 198 0
175 198 0
175 198 0
175 198 0
174 197 0
173 197 0
174 198 0
173 197 0
174 197 0
173 197 0
173 197 0
172 197 0
174 198 0
175 198 0
173 197 0
173 197 0
173 197 0
174 198 0
176 198 0
175 198 0
172 196 0
174 197 0
175 198 0
175 198 0
174 197 0
174 198 0
173 197 0
174 197 0
173 197 0
174 198 0
174 198 0
173 197 0
174 198 0
173 197 0
174 197 0
174 198 0
175 197 0
175 198 0
176 198 0
174 197 0
174 197 0
176 199 0
175 198 0
175 198 0
173 197 0
173 197 0
174 198 0
174 198 0
174 197 0
175 198 0
172 196 0
174 198 0
173 197 0
188 209 157
211 230 255
211 230 255
211 230 255
211 230 255
211 230 255
211 230 255
211 230 255
211 230 255
211 230 255
211 230 255
211 230 255
211 230 255
211 230 255
211 230 255
211 230 255
211 230 255
211 230 255
211 230 255
211 230 255
211 230 255
211 230 255
211 230 255
211 230 255
211 230 255
211 230 255
211 230 255
211 230 255
208 227 253
103 130 185
61 97 158
61 97 160
61 97 153
61 97 157
61 98 166
61 97 155
61 97 163
61 97 154
61 97 158
62 98 167
62 98 156
62 99 165
62 98 159
61 98 163
63 99 159
61 97 158
62 98 159
62 98 160
62 98 166
61 98 164
61 97 161
61 97 156
61 97 157
61 97 158
62 99 167
62 98 160
62 98 163
62 98 168
62 98 164
62 99 163
62 98 167
61 97 151
62 98 156
61 97 163
62 98 161
62 98 162
62 98 164
62 98 161
61 97 156
62 97 161
63 98 159
62 99 167
62 98 167
62 98 163
62 98 164
61 97 156
62 98 160
62 98 157
62 97 159
62 98 163
62 98 164
61 96 154
61 97 160
61 97 162
62 98 164
62 98 166
61 97 163
61 97 163
62 97 161
61 96 157
61 96 156
61 95 152
62 98 167
61 96 157
62 97 167
61 96 158
62 98 164
61 95 157
60 95 156
59 93 151
60 95 161
61 96 167
60 94 162
59 94 161
101 126 177
200 219 245
211 230 255
211 230 255
211 230 255
211 230 255
211 230 255
211 230 255
211 230 255
211 230 255
211 230 255
211 230 255
211 230 255
211 230 255
211 230 255
211 230 255
211 230 255
211 230 255
211 230 255
211 230 255
211 230 255
211 230 255
211 230 255
211 230 255
211 230 255
211 230 255
211 230 255
211 230 255
211 230 255
164 171 169
124 121 78
133 130 87
137 135 92
135 132 89
142 140 94
128 127 85
138 137 92
129 128 88
136 135 92
137 136 93
140 139 94
140 139 94
136 134 91
145 144 96
140 139 94
149 148 100
152 150 102
144 144 99
147 148 102
140 139 94
142 140 95
152 151 102
162 160 107
151 149 101
146 145 97
146 145 99
153 152 102
148 147 98
157 154 103
154 153 103
155 153 103
158 155 102
153 151 98
157 155 102
163 159 105
155 152 101
161 159 107
163 160 105
164 161 107
167 164 109
165 161 106
161 158 103
160 157 102
166 163 106
169 165 110
163 159 103
164 162 106
168 165 109
164 160 106
170 166 107
164 159 101
166 162 107
162 159 106
163 159 103
166 162 104
164 160 105
164 160 105
167 163 106
164 161 104
167 163 108
168 164 107
167 163 104
164 160 103
169 165 105
166 162 103
164 161 104
166 162 105
170 165 105
166 161 100
169 163 105
161 156 101
164 159 100
167 162 104
166 161 104
161 157 101
163 160 102
164 160 101
169 165 105
173 168 106
168 163 105
163 160 100
169 164 104
160 155 97
164 159 102
166 161 101
167 162 102
167 163 105
167 162 104
166 160 99
166 162 104
164 158 103
163 158 101
163 159 99
163 159 102
163 158 101
167 162 104
165 161 102
167 161 100
159 154 98
156 152 92
163 160 104
162 158 99
167 161 98
161 156 99
156 152 94
159 154 94
155 151 92
154 150 95
151 147 90
156 152 93
160 156 97
158 153 93
155 151 92
151 147 90
154 151 95
161 157 98
160 155 97
152 146 87
155 151 93
155 151 93
157 153 97
158 154 90
156 151 95
159 154 93
150 146 89
158 154 95
155 151 93
147 143 87
158 152 94
145 140 86
157 152 93
147 141 86
156 150 96
175 198 0
174 197 0
173 197 0
176 198 0
175 198 0
174 198 0
173 197 0
174 197 0
174 198 0
174 197 0
173 197 0
173 197 0
174 198 0
175 198 0
175 198 0
175 198 0
176 199 0
173 197 0
174 198 0
175 198 0
175 198 0
174 197 0
172 197 0
175 198 0
174 197 0
174 198 0
177 199 0
174 198 0
173 197 0
174 198 0
175 198 0
174 198 0
173 197 0
175 198 0
173 197 0
174 198 0
173 197 0
174 197 0
175 198 0
173 197 0
173 197 0
174 198 0
174 197 0
175 198 0
175 198 0
174 197 0
175 198 0
175 198 0
174 197 0
172 196 0
174 198 0
176 199 0
175 198 0
174 198 0
176 198 0
174 198 0
175 198 0
175 198 0
175 198 0
174 198 0
174 198 0
175 198 0
174 198 0
174 197 0
173 197 0
174 198 0
174 198 0
174 198 0
175 198 0
173 197 0
173 197 0
173 197 0
176 198 0
173 197 0
176 199 0
176 198 0
174 198 0
173 197 0
174 198 0
175 198 0
174 197 0
173 197 0
174 197 0
175 198 0
174 198 0
174 198 0
172 197 0
175 198 0
174 198 0
175 198 0
175 198 0
174 198 0
173 197 0
173 197 0
174 197 0
174 198 0
175 198 0
174 198 0
174 197 0
174 198 0
175 198 0
173 197 0
175 198 0
175 198 0
173 197 0
174 197 0
173 197 0
173 197 0
173 197 0
175 198 0
174 197 0
174 198 0
173 197 0
174 198 0
173 197 0
174 198 0
173 197 0
175 198 0
174 198 0
173 197 0
174 197 0
175 198 0
173 197 0
176 198 0
174 198 0
174 197 0
175 198 0
174 197 0
174 197 0
175 198 0
175 198 0
173 197 0
172 196 0
176 198 0
193 213 171
212 230 255
212 230 255
212 230 255
212 230 255
211 230 255
211 230 255
211 230 255
211 230 255
211 230 255
211 230 255
211 230 255
211 230 255
211 230 255
211 230 255
211 230 255
211 230 255
211 230 255
211 230 255
211 230 255
211 230 255
211 230 255
211 230 255
211 230 255
211 230 255
211 230 255
211 230 255
121 145 188
60 96 150
61 98 162
61 97 166
60 95 150
61 97 157
62 98 157
62 99 168
61 97 155
61 98 160
62 98 162
62 98 160
61 97 158
61 98 160
62 98 156
62 97 159
61 97 156
62 98 163
62 98 166
63 98 161
61 98 163
63 99 163
63 99 166
62 98 156
61 97 164
61 97 150
62 98 160
62 98 162
62 99 167
62 98 161
61 97 157
61 97 161
61 97 157
62 98 164
62 98 160
62 98 157
62 98 162
61 97 154
62 97 156
62 98 162
62 98 160
62 97 159
62 97 159
62 98 161
62 98 159
61 97 156
62 97 153
63 99 168
61 97 163
62 97 158
62 98 163
61 96 152
61 96 154
61 97 156
61 97 154
60 95 156
62 98 160
62 98 163
61 96 154
61 96 161
61 96 158
62 98 164
61 97 159
60 96 152
61 96 152
62 98 161
61 96 159
61 95 159
61 96 166
62 98 170
61 96 158
60 95 159
60 95 156
61 95 157
61 97 164
60 96 165
59 93 159
132 154 195
211 230 255
211 230 255
211 230 255
211 230 255
211 230 255
211 230 255
211 230 255
211 230 255
211 230 255
211 230 255
211 230 255
211 230 255
211 230 255
211 230 255
211 230 255
211 230 255
211 230 255
211 230 255
211 230 255
211 230 255
211 230 255
211 230 255
212 230 255
212 230 255
212 230 255
212 230 255
165 173 176
132 130 85
130 127 85
126 124 85
128 127 86
132 131 89
127 125 85
137 136 93
141 140 95
137 136 93
136 135 92
129 129 90
135 134 92
140 139 93
143 142 97
146 145 99
149 147 99
145 144 98
146 145 99
158 155 104
153 152 102
149 147 99
153 151 101
156 154 104
147 145 97
153 151 100
154 152 103
154 152 103
159 156 105
148 147 97
154 152 100
158 155 104
154 151 100
158 154 101
155 153 101
161 158 104
163 159 104
155 153 101
161 159 105
161 158 104
162 159 104
155 153 100
162 158 103
162 159 104
167 164 108
173 168 110
163 160 107
168 163 107
166 162 104
167 162 105
161 158 103
161 159 104
169 165 108
168 164 106
172 167 107
163 159 101
165 160 101
169 164 106
166 161 105
171 166 109
170 165 107
167 161 103
170 165 105
165 160 101
172 166 109
160 156 102
170 164 103
171 166 106
171 166 107
171 166 107
166 161 103
170 165 107
171 166 109
166 161 104
169 164 106
166 162 103
171 166 104
167 162 103
169 163 103
168 163 105
162 158 102
166 161 104
165 160 99
168 164 104
169 164 104
163 158 97
163 159 101
170 164 106
168 163 101
169 163 103
163 159 101
158 153 97
165 161 103
167 162 103
161 157 97
168 163 104
166 161 99
171 167 105
163 157 97
160 156 98
163 157 97
162 158 99
163 158 99
163 158 100
159 155 100
167 162 99
164 159 99
163 157 97
160 155 95
163 158 100
164 160 102
155 151 94
161 156 95
156 151 96
166 161 100
151 147 89
164 159 98
165 159 95
156 151 93
154 149 87
159 153 95
153 148 90
159 153 94
153 148 91
157 152 96
154 149 91
158 152 93
149 144 87
161 156 95
154 148 91
148 143 85
157 152 95
154 150 92
153 148 92
149 144 87
174 198 0
176 198 0
172 197 0
176 198 0
175 198 0
175 198 0
173 197 0
174 197 0
174 198 0
174 198 0
174 198 0
175 198 0
174 198 0
175 198 0
175 198 0
175 198 0
174 198 0
175 198 0
173 197 0
175 198 0
174 198 0
176 199 0
174 197 0
174 197 0
174 198 0
174 197 0
174 198 0
174 198 0
174 197 0
175 198 0
173 197 0
172 196 0
175 198 0
175 198 0
175 198 0
174 198 0
174 197 0
174 198 0
173 197 0
173 197 0
175 198 0
174 197 0
173 197 0
174 198 0
175 198 0
175 198 0
175 198 0
174 197 0
175 198 0
174 198 0
173 197 0
175 198 0
175 198 0
175 198 0
174 197 0
175 198 0
175 198 0
175 198 0
173 197 0
175 198 0
174 198 0
176 199 0
173 197 0
176 199 0
174 198 0
174 198 0
176 199 0
173 197 0
175 198 0
175 198 0
173 197 0
174 197 0
176 199 0
172 197 0
174 198 0
174 198 0
175 198 0
172 197 0
174 198 0
176 199 0
173 197 0
175 198 0
173 196 0
174 197 0
175 198 0
174 197 0
175 198 0
173 197 0
175 198 0
173 197 0
176 198 0
175 198 0
174 197 0
174 198 0
175 198 0
173 197 0
174 197 0
175 198 0
176 199 0
173 197 0
174 198 0
174 197 0
174 197 0
176 198 0
173 197 0
174 197 0
173 197 0
174 197 0
176 198 0
174 197 0
174 197 0
173 197 0
175 198 0
174 197 0
174 198 0
174 198 0
173 197 0
175 198 0
173 197 0
175 198 0
174 197 0
175 198 0
173 196 0
176 198 0
174 197 0
173 197 0
175 197 0
175 198 0
175 197 0
175 198 0
176 198 0
174 198 0
171 194 0
174 198 0
174 197 0
199 219 203
212 230 255
212 230 255
212 230 255
212 230 255
212 230 255
212 230 255
212 230 255
212 230 255
212 230 255
212 230 255
212 230 255
211 230 255
211 230 255
211 230 255
211 230 255
211 230 255
211 230 255
211 230 255
211 230 255
211 230 255
211 230 255
211 230 255
211 230 255
211 230 255
137 159 198
61 97 158
61 97 155
62 99 168
60 96 157
61 97 158
61 97 154
61 97 161
61 97 160
62 98 162
62 98 161
61 97 154
61 97 162
62 98 166
62 97 158
62 98 157
62 98 154
61 97 156
62 98 161
62 98 160
61 97 158
62 97 155
61 97 155
62 97 154
62 99 165
60 96 156
62 98 156
61 97 156
62 99 166
62 97 154
62 98 159
63 99 165
63 99 164
62 98 160
62 98 160
62 98 165
61 97 148
61 97 157
61 98 161
61 97 152
60 96 155
61 97 154
62 98 161
62 98 161
62 98 165
62 98 166
61 97 155
62 98 170
60 97 162
62 97 158
63 99 166
61 97 157
61 97 165
62 97 158
60 96 151
62 97 159
62 97 158
63 99 164
62 98 162
61 96 157
62 97 159
61 96 156
61 97 158
62 98 166
61 96 158
61 96 164
61 97 157
61 97 161
59 94 153
61 96 164
61 96 158
60 95 155
60 95 154
60 95 153
61 95 160
60 96 161
60 95 157
60 95 158
58 92 154
145 166 204
210 229 255
211 230 255
211 230 255
211 230 255
211 230 255
211 230 255
211 230 255
211 230 255
211 230 255
211 230 255
211 230 255
211 230 255
211 230 255
212 230 255
212 230 255
212 230 255
212 230 255
212 230 255
212 230 255
212 230 255
212 230 255
212 230 255
212 230 255
212 230 255
174 184 186
125 123 81
128 125 84
131 129 87
140 137 91
128 126 85
134 134 92
128 127 86
134 134 92
142 140 95
138 138 94
140 139 94
138 138 94
136 136 94
139 138 95
146 146 99
149 147 100
142 141 96
136 135 90
148 146 98
154 153 103
154 153 103
150 149 101
158 155 104
156 154 102
154 151 102
150 148 100
154 151 101
148 146 97
151 149 101
157 155 103
157 155 103
161 159 106
158 156 102
160 157 105
156 153 101
160 158 105
160 158 105
158 155 101
160 157 105
163 160 106
165 161 106
166 161 107
164 161 105
156 153 100
168 164 108
169 165 108
162 158 103
164 161 104
165 161 103
163 160 103
168 164 107
168 164 106
171 167 108
162 159 104
169 165 108
167 164 106
174 169 110
165 162 105
166 162 103
164 160 103
166 162 103
172 167 109
169 165 104
171 166 110
170 165 107
169 165 104
169 165 108
165 161 104
165 160 101
164 161 103
166 162 104
168 164 108
171 167 106
171 166 106
165 161 100
164 160 103
167 163 104
164 160 101
167 161 101
166 162 101
163 159 99
169 165 106
167 163 104
170 165 104
162 158 98
165 160 103
163 159 102
167 162 102
163 159 101
167 162 100
171 165 106
161 156 97
163 159 100
166 161 102
164 159 101
168 163 103
167 162 103
168 163 103
165 159 100
165 160 102
164 160 101
164 159 95
163 158 96
166 161 100
160 155 95
161 156 95
164 158 97
160 155 96
161 157 96
163 158 99
154 150 94
160 154 93
152 148 90
161 155 97
157 152 93
160 155 96
155 151 94
155 150 91
159 154 95
157 152 90
160 154 93
155 150 88
159 154 91
158 152 91
160 156 95
162 156 97
160 154 97
160 155 95
154 150 90
153 147 88
158 154 94
155 149 90
155 150 91
157 152 93
148 145 83
176 198 0
174 197 0
176 198 0
175 198 0
174 197 0
174 197 0
174 198 0
173 197 0
174 198 0
175 198 0
175 198 0
175 198 0
173 197 0
174 198 0
174 198 0
175 198 0
174 198 0
173 197 0
174 197 0
177 199 0
174 198 0
174 197 0
176 199 0
173 197 0
176 199 0
174 198 0
177 199 0
174 198 0
174 197 0
176 199 0
174 197 0
175 198 0
175 198 0
175 198 0
175 198 0
174 197 0
174 198 0
174 197 0
174 198 0
175 198 0
174 197 0
175 198 0
174 198 0
172 196 0
177 199 0
175 198 0
173 197 0
172 197 0
174 198 0
173 197 0
174 198 0
176 199 0
174 198 0
174 197 0
172 196 0
175 198 0
175 198 0
174 198 0
174 198 0
176 198 0
173 196 0
175 198 0
175 198 0
173 197 0
176 199 0
174 198 0
174 198 0
174 197 0
175 198 0
173 197 0
174 198 0
175 198 0
174 198 0
174 198 0
174 198 0
175 198 0
174 198 0
172 197 0
174 198 0
173 197 0
174 198 0
174 198 0
175 198 0
173 197 0
174 197 0
175 198 0
174 198 0
173 197 0
176 199 0
173 197 0
173 197 0
175 198 0
175 198 0
174 197 0
175 198 0
174 198 0
176 199 0
174 198 0
175 198 0
175 198 0
175 198 0
175 198 0
174 197 0
174 198 0
172 196 0
173 197 0
173 197 0
173 197 0
174 197 0
176 198 0
175 198 0
174 197 0
175 198 0
175 198 0
173 197 0
174 198 0
176 199 0
174 198 0
175 198 0
174 197 0
176 199 0
176 199 0
174 198 0
174 198 0
174 197 0
173 197 0
173 197 0
173 197 0
175 198 0
174 198 0
175 198 0
175 198 0
176 199 0
174 197 0
175 198 0
173 196 0
202 222 215
212 230 255
212 230 255
212 230 255
212 230 255
212 230 255
212 230 255
212 230 255
212 230 255
212 230 255
212 230 255
212 230 255
212 230 255
212 230 255
212 230 255
212 230 255
212 230 255
212 230 255
212 230 255
212 230 255
212 230 255
211 230 255
211 230 255
146 167 203
61 97 155
60 96 151
61 96 152
62 98 161
61 97 159
61 98 159
60 96 152
62 98 155
60 96 147
62 97 158
61 97 156
62 98 164
62 98 159
62 98 162
62 97 156
61 97 158
62 98 159
62 98 159
61 97 154
62 98 155
61 97 159
63 99 165
62 97 157
62 98 163
62 98 153
62 98 156
61 97 158
61 97 150
63 99 161
63 99 169
62 99 167
62 98 157
62 98 160
62 97 155
61 97 153
61 97 155
63 99 163
61 97 152
62 98 165
61 97 154
61 97 159
62 98 154
62 97 154
62 98 163
61 97 151
61 97 157
62 98 159
61 97 157
63 99 169
61 96 149
61 97 155
62 98 160
62 97 160
62 97 158
62 97 163
61 97 154
60 95 151
61 97 156
61 97 159
61 96 159
61 97 161
61 97 163
60 96 158
61 97 159
60 96 158
61 97 160
61 96 155
61 97 158
62 97 163
61 96 158
60 95 155
61 95 155
60 95 158
59 93 152
60 93 153
60 93 156
60 94 154
61 96 163
60 95 162
58 90 150
166 185 219
211 230 255
211 230 255
212 230 255
212 230 255
212 230 255
212 230 255
212 230 255
212 230 255
212 230 255
212 230 255
212 230 255
212 230 255
212 230 255
212 230 255
212 230 255
212 230 255
212 230 255
212 230 255
212 230 255
212 230 255
212 230 255
212 230 255
192 205 219
129 127 81
125 124 83
133 132 90
124 122 82
130 130 89
132 131 89
132 130 88
141 140 95
135 135 94
139 138 94
130 129 88
129 128 88
133 134 92
144 143 96
143 143 98
146 146 100
149 148 101
128 129 89
143 141 96
151 149 100
147 147 99
146 147 100
146 145 99
152 151 102
148 146 97
151 149 99
158 156 105
156 154 104
154 153 102
148 145 97
159 155 102
157 154 102
151 149 100
151 149 99
148 146 97
161 158 104
161 159 105
162 157 102
163 159 104
158 155 102
166 163 107
162 158 103
160 157 103
166 163 105
163 159 104
166 162 104
164 160 103
167 163 106
165 162 107
170 165 106
168 164 105
166 162 105
165 160 102
167 163 104
164 161 107
170 166 107
165 161 103
171 166 105
167 164 105
163 160 104
169 164 106
169 163 104
167 163 103
161 157 100
174 169 109
171 166 108
168 164 105
175 169 108
172 167 106
163 160 105
170 166 107
168 164 107
168 164 103
168 163 103
169 164 104
167 162 103
167 163 103
169 164 104
163 158 99
166 161 101
165 160 104
168 163 102
170 165 106
168 163 101
169 164 104
162 157 97
169 163 99
160 155 97
172 166 102
170 165 106
171 166 104
172 167 105
172 166 104
168 163 102
171 164 103
165 160 99
159 153 95
169 163 103
159 154 95
169 163 99
171 165 104
164 158 100
167 162 105
161 157 99
163 157 95
165 160 99
165 159 99
160 155 97
168 163 99
151 147 91
162 157 97
165 160 99
163 157 95
160 155 97
166 160 98
160 154 93
161 156 97
157 152 91
155 151 93
167 162 101
156 152 93
155 149 89
150 145 91
149 144 88
164 158 99
154 148 90
158 152 90
156 150 93
150 145 87
143 139 83
151 147 84
154 150 91
151 146 90
154 150 92
151 145 88
154 150 92
175 198 0
174 197 0
175 198 0
174 198 0
174 198 0
175 198 0
175 198 0
175 198 0
174 198 0
176 199 0
174 197 0
175 198 0
175 198 0
174 198 0
174 197 0
175 198 0
174 198 0
174 198 0
174 198 0
175 198 0
175 198 0
172 196 0
175 198 0
174 198 0
175 198 0
175 198 0
173 197 0
174 197 0
172 196 0
174 197 0
174 197 0
174 197 0
173 197 0
174 198 0
172 196 0
175 198 0
173 197 0
175 198 0
173 197 0
174 198 0
173 197 0
175 198 0
174 197 0
173 197 0
175 198 0
175 198 0
174 198 0
175 198 0
175 198 0
174 198 0
174 198 0
175 198 0
174 198 0
174 198 0
174 198 0
173 197 0
172 197 0
172 196 0
176 199 0
174 197 0
173 197 0
171 195 0
173 197 0
174 198 0
173 197 0
174 198 0
174 197 0
175 198 0
173 196 0
174 197 0
174 198 0
176 199 0
176 198 0
174 197 0
176 198 0
174 198 0
175 198 0
174 198 0
171 196 0
173 197 0
174 197 0
173 197 0
174 197 0
175 198 0
174 198 0
175 198 0
175 198 0
176 199 0
175 198 0
175 198 0
174 197 0
173 197 0
174 197 0
175 198 0
174 198 0
175 198 0
174 198 0
172 197 0
174 198 0
172 196 0
174 198 0
174 197 0
174 198 0
174 197 0
174 198 0
174 198 0
173 197 0
175 198 0
173 197 0
174 198 0
175 198 0
174 197 0
174 198 0
175 198 0
176 199 0
174 198 0
175 198 0
174 198 0
175 198 0
174 198 0
173 197 0
174 198 0
175 198 0
174 197 0
173 197 0
174 198 0
174 198 0
174 197 0
174 197 0
174 197 0
175 198 0
171 195 0
175 198 0
174 197 0
173 197 0
174 197 0
176 199 36
205 224 230
212 231 255
212 231 255
212 231 255
212 231 255
212 230 255
212 230 255
212 230 255
212 230 255
212 230 255
212 230 255
212 230 255
212 230 255
212 230 255
212 230 255
212 230 255
212 230 255
212 230 255
212 230 255
212 230 255
212 230 255
182 202 230
60 96 145
60 96 150
60 96 150
60 96 147
60 96 150
61 97 151
61 97 159
61 97 154
62 98 158
61 98 162
62 98 159
60 95 144
60 96 153
62 98 157
62 98 156
61 97 152
62 98 157
62 99 168
63 99 168
62 98 157
61 96 147
61 97 156
61 97 155
61 97 156
62 98 161
61 97 153
62 98 163
62 98 159
61 97 155
62 98 159
62 97 153
61 97 156
61 96 155
62 98 159
62 98 156
62 98 159
61 97 159
62 98 157
62 97 155
62 98 166
63 99 166
61 97 154
62 98 162
61 97 162
62 98 162
62 98 154
60 96 155
62 98 167
61 97 159
61 97 151
61 97 162
63 98 163
62 98 160
61 96 152
62 97 155
61 96 154
60 96 156
61 97 151
61 95 147
61 96 155
61 96 152
60 95 154
62 98 161
61 96 160
60 96 155
61 97 160
61 96 155
62 98 165
59 93 152
61 96 152
61 96 157
61 96 158
61 96 157
61 95 156
61 96 160
60 94 152
60 95 157
60 95 155
60 94 162
60 96 159
60 95 159
65 96 159
188 207 235
212 230 255
212 230 255
212 230 255
212 230 255
212 230 255
212 230 255
212 230 255
212 230 255
212 230 255
212 230 255
212 230 255
212 230 255
212 230 255
212 230 255
212 230 255
212 231 255
212 231 255
212 231 255
212 231 255
212 231 255
201 216 234
127 123 79
135 132 87
121 120 80
128 127 84
130 130 90
126 126 86
125 125 86
142 141 95
132 131 90
127 127 87
129 129 88
138 137 93
130 130 88
132 132 90
144 142 97
145 144 98
129 130 90
140 140 96
146 145 98
151 149 100
151 149 100
138 138 95
149 148 100
153 151 100
145 144 98
160 158 106
150 148 99
154 152 103
156 154 103
157 154 102
159 156 103
149 148 99
158 155 102
157 153 101
156 154 102
157 155 102
156 153 102
165 162 107
160 156 102
165 161 105
171 166 108
163 160 106
167 162 104
166 163 109
164 160 105
165 162 105
162 158 103
167 163 108
166 162 105
165 161 105
162 157 102
169 166 109
172 167 107
162 158 100
169 165 105
165 160 102
167 163 106
168 165 106
168 163 103
168 164 105
167 162 102
171 166 106
171 167 106
169 165 107
171 166 106
172 166 104
167 161 100
172 166 106
171 165 104
169 164 106
166 160 103
168 162 103
169 164 104
167 163 104
164 160 103
166 162 105
170 166 104
169 164 104
170 166 104
160 156 96
168 163 100
168 163 101
171 166 103
168 163 102
165 160 99
167 162 102
167 162 102
165 159 97
165 160 102
165 160 99
165 161 101
167 163 101
169 164 104
168 162 102
162 158 101
173 168 106
164 160 99
164 159 97
167 162 101
165 160 97
170 166 105
164 159 98
163 159 97
157 152 93
165 161 100
163 158 99
164 160 100
162 157 98
165 160 101
157 153 95
158 153 92
162 157 95
167 161 100
164 159 99
165 160 100
162 158 96
160 155 96
163 158 95
160 156 97
162 157 96
162 157 93
161 156 95
153 147 90
157 151 92
151 144 87
165 159 100
152 148 89
152 148 90
154 150 92
147 142 84
151 145 87
161 155 94
155 151 90
151 146 88
156 151 91
160 153 92
157 151 93
174 197 0
174 197 0
173 197 0
174 197 0
173 197 0
174 197 0
175 198 0
174 197 0
173 197 0
174 198 0
174 197 0
174 198 0
174 197 0
174 198 0
175 198 0
175 198 0
175 198 0
172 196 0
175 198 0
174 198 0
175 198 0
175 198 0
174 198 0
175 198 0
175 198 0
174 197 0
174 198 0
174 197 0
174 197 0
173 197 0
174 198 0
175 198 0
173 197 0
173 197 0
174 198 0
175 198 0
175 198 0
174 198 0
173 197 0
175 198 0
175 198 0
173 197 0
174 198 0
175 198 0
174 198 0
174 197 0
173 197 0
174 197 0
174 198 0
177 199 0
174 198 0
174 197 0
173 197 0
172 196 0
174 198 0
174 197 0
174 197 0
174 198 0
174 198 0
175 198 0
175 198 0
174 198 0
173 197 0
174 198 0
172 197 0
175 198 0
174 198 0
175 198 0
175 198 0
175 198 0
174 197 0
175 198 0
176 198 0
174 197 0
174 198 0
174 198 0
175 198 0
175 198 0
175 198 0
174 198 0
174 198 0
175 198 0
174 197 0
173 197 0
174 197 0
174 198 0
174 198 0
174 197 0
174 198 0
175 198 0
175 198 0
175 198 0
173 197 0
173 197 0
174 198 0
173 197 0
174 198 0
174 197 0
173 197 0
174 197 0
173 197 0
176 198 0
176 199 0
173 197 0
173 197 0
174 198 0
176 199 0
173 197 0
175 198 0
175 198 0
174 198 0
175 198 0
173 197 0
175 198 0
173 197 0
174 197 0
175 198 0
175 198 0
174 197 0
173 197 0
175 198 0
175 198 0
176 198 0
174 197 0
174 197 0
172 196 0
175 198 0
175 198 0
175 198 0
175 198 0
174 198 0
173 197 0
173 197 0
173 197 0
174 197 0
173 197 0
174 198 0
178 200 76
210 228 242
213 231 255
213 231 255
213 231 255
212 231 255
212 231 255
212 231 255
212 231 255
212 231 255
212 231 255
212 231 255
212 231 255
212 231 255
212 231 255
212 231 255
212 230 255
212 230 255
212 230 255
212 230 255
207 226 251
101 128 179
59 95 142
61 97 156
61 97 157
61 97 161
61 96 151
62 98 156
61 97 158
63 99 161
61 97 151
61 97 159
62 98 158
61 97 162
61 96 153
62 98 158
61 97 147
61 96 144
62 97 154
62 97 156
62 97 158
61 97 156
62 98 158
62 98 160
61 97 155
61 97 163
61 97 154
61 97 155
62 98 154
61 97 155
62 97 156
62 97 159
61 96 148
63 98 157
62 98 160
62 98 155
61 97 156
62 97 155
61 97 155
61 97 157
61 96 151
62 98 163
62 98 162
62 98 158
62 98 155
61 97 151
62 98 155
62 98 157
62 98 160
62 98 160
62 98 152
61 96 153
62 98 158
61 96 152
61 96 155
60 96 152
62 98 162
62 98 162
62 97 154
61 97 152
62 98 161
61 97 158
61 96 153
62 97 160
62 97 160
61 97 161
62 97 155
60 95 154
60 96 158
60 95 148
62 98 165
61 95 153
61 95 152
61 96 160
60 95 157
60 95 153
59 93 148
60 95 157
60 95 154
60 94 159
60 93 152
60 95 160
61 96 158
57 90 145
86 112 159
204 222 248
212 230 255
212 230 255
212 230 255
212 230 255
212 231 255
212 231 255
212 231 255
212 231 255
212 231 255
212 231 255
212 231 255
212 231 255
212 231 255
212 231 255
212 231 255
213 231 255
213 231 255
213 231 255
204 220 240
130 131 109
129 127 85
127 126 84
123 123 83
132 131 89
123 123 84
127 127 87
130 129 89
128 127 87
132 132 91
119 120 84
137 136 93
139 138 94
143 142 97
144 143 97
135 136 93
144 143 97
151 150 101
144 144 98
140 139 95
149 147 99
143 142 95
137 136 92
143 141 94
148 146 99
153 152 103
152 150 101
156 154 103
159 157 105
158 155 101
155 152 101
144 142 92
156 154 101
153 150 100
157 153 100
156 154 102
161 157 104
156 153 99
164 161 105
161 158 102
168 164 106
159 155 101
164 160 103
164 160 104
170 165 108
165 161 104
164 160 102
167 162 101
160 157 102
167 162 103
161 158 104
165 161 104
167 164 104
168 164 103
167 163 101
165 162 104
163 160 103
164 159 100
163 159 103
167 162 103
166 162 102
174 169 105
170 166 106
171 165 104
170 165 103
170 164 104
166 162 104
170 166 106
169 164 100
172 166 103
173 167 106
166 162 102
169 164 104
172 166 104
168 162 101
171 165 104
170 165 103
172 166 101
166 162 104
172 166 104
167 162 102
169 164 104
169 163 101
168 163 104
169 164 102
174 168 107
164 159 101
171 164 101
167 162 101
164 159 97
164 159 99
164 159 100
164 160 100
162 157 94
171 165 104
167 161 101
171 163 102
168 163 100
162 157 98
166 161 101
168 163 103
164 159 97
158 154 97
161 157 96
167 162 101
167 161 97
164 159 99
163 157 97
163 158 97
167 161 99
165 161 97
166 161 98
163 157 97
155 151 92
168 162 102
161 156 94
165 158 97
166 160 99
160 155 95
161 157 98
165 159 97
156 151 94
157 152 93
164 159 96
150 146 88
158 153 93
159 154 96
157 152 93
161 156 96
158 153 91
153 149 88
158 152 89
158 152 90
159 153 88
148 143 85
150 145 89
152 147 89
149 145 88
174 198 0
176 198 0
173 197 0
176 198 0
175 198 0
173 197 0
174 197 0
173 197 0
173 197 0
174 198 0
174 198 0
173 197 0
174 197 0
174 198 0
173 197 0
174 198 0
174 198 0
174 198 0
175 198 0
176 199 0
175 198 0
174 198 0
176 198 0
173 197 0
174 198 0
174 198 0
175 198 0
176 199 0
175 198 0
174 198 0
174 197 0
173 197 0
175 198 0
176 199 0
174 198 0
173 197 0
174 198 0
173 197 0
175 198 0
175 198 0
174 198 0
174 198 0
174 197 0
175 198 0
174 197 0
175 197 0
173 197 0
176 198 0
174 198 0
174 197 0
174 198 0
174 197 0
175 198 0
174 197 0
175 198 0
174 198 0
175 198 0
176 199 0
175 198 0
175 198 0
174 198 0
173 197 0
174 198 0
174 198 0
174 198 0
175 198 0
174 198 0
175 198 0
175 198 0
175 198 0
175 198 0
173 197 0
175 198 0
173 197 0
174 198 0
174 198 0
173 197 0
174 197 0
176 198 0
173 197 0
174 198 0
176 198 0
174 197 0
174 198 0
174 198 0
174 198 0
175 198 0
175 198 0
174 197 0
174 198 0
174 198 0
174 198 0
174 198 0
173 197 0
175 198 0
175 198 0
174 198 0
173 197 0
173 197 0
173 197 0
174 198 0
174 197 0
175 198 0
174 197 0
173 197 0
174 198 0
176 199 0
174 197 0
173 197 0
174 198 0
175 198 0
175 198 0
173 197 0
174 198 0
175 198 0
173 197 0
174 198 0
174 198 0
174 197 0
172 196 0
174 197 0
175 198 0
173 197 0
173 197 0
173 197 0
175 198 0
173 197 0
174 197 0
175 198 0
174 197 0
174 198 0
175 198 0
174 197 0
175 198 0
174 197 0
171 196 0
174 197 0
174 197 0
184 205 120
213 231 255
213 231 255
213 231 255
213 231 255
213 231 255
213 231 255
213 231 255
213 231 255
213 231 255
213 231 255
213 231 255
213 231 255
213 231 255
212 231 255
212 231 255
212 231 255
212 231 255
212 231 255
148 169 201
60 96 153
60 96 148
60 96 153
60 96 152
61 97 150
60 96 148
61 97 153
61 97 153
61 97 152
61 96 145
62 98 154
61 97 160
62 98 164
62 98 160
62 98 161
60 96 149
61 97 157
62 98 158
61 97 159
62 98 155
61 97 152
61 97 150
61 97 151
61 97 155
63 98 159
61 97 154
62 98 161
61 97 155
62 98 158
61 97 157
63 99 163
61 97 152
62 98 161
62 98 158
61 96 152
62 98 157
61 97 153
62 97 158
60 96 155
62 97 156
62 98 166
60 96 154
61 97 150
62 99 164
62 97 156
62 98 156
61 96 151
62 98 160
62 98 161
60 96 155
62 98 161
62 98 158
61 96 148
61 97 161
62 97 159
62 98 157
62 97 146
62 97 151
62 98 158
61 97 157
61 97 158
62 97 155
62 98 161
61 96 154
61 96 155
61 96 155
61 97 153
60 95 150
60 94 149
61 96 154
61 95 153
60 96 153
62 97 160
61 96 160
60 95 153
60 94 151
60 95 155
60 94 152
60 94 152
58 91 146
59 92 149
60 94 153
58 91 147
58 91 151
131 153 194
212 231 255
212 231 255
212 231 255
212 231 255
212 231 255
213 231 255
213 231 255
213 231 255
213 231 255
213 231 255
213 231 255
213 231 255
213 231 255
213 231 255
213 231 255
213 231 255
213 231 255
213 231 255
138 143 136
126 124 83
132 130 86
122 120 81
125 125 85
130 129 87
133 133 91
121 120 80
127 128 89
129 130 91
135 135 92
137 136 94
139 138 94
138 138 94
132 132 91
146 146 101
138 138 94
144 143 96
134 132 89
141 140 94
141 140 94
151 149 100
143 143 97
139 138 92
143 142 93
153 151 101
149 147 98
144 143 98
159 157 103
153 152 101
150 148 98
151 149 99
159 156 103
156 153 99
156 152 100
157 154 101
157 154 101
161 157 103
160 157 103
160 156 102
165 162 106
161 158 103
166 163 105
162 158 104
170 166 108
164 160 103
168 164 108
166 161 103
168 164 107
163 159 102
167 163 106
167 163 103
170 165 106
169 164 106
166 161 104
162 158 101
169 164 104
167 163 102
173 168 106
168 163 104
168 163 105
169 164 103
169 164 101
170 165 103
173 168 107
170 166 106
170 165 104
169 165 105
170 164 102
171 166 106
166 161 100
173 166 105
172 166 105
168 163 104
166 161 102
172 168 102
168 164 103
168 163 101
170 164 102
172 166 103
168 163 102
165 160 99
168 164 101
166 160 101
170 165 102
174 169 106
167 162 100
166 161 96
170 164 103
164 159 99
168 163 100
170 164 101
160 154 97
166 160 99
165 160 98
168 163 101
170 164 101
165 160 98
164 159 98
164 160 97
166 160 98
165 160 100
163 159 99
166 160 98
163 158 99
164 159 94
161 157 93
172 167 102
159 154 93
158 153 89
158 153 92
173 167 105
158 153 93
157 152 93
164 158 93
159 154 93
164 159 100
163 157 97
162 156 94
162 157 96
161 155 93
164 159 97
163 157 95
166 160 97
157 153 91
155 150 93
153 147 92
164 159 94
160 154 94
151 147 86
155 150 88
161 155 94
152 145 82
147 142 84
161 156 95
151 146 87
156 150 90
160 154 93
152 148 87
175 198 0
175 198 0
174 197 0
175 198 0
175 198 0
175 198 0
177 199 0
173 197 0
174 198 0
175 198 0
174 198 0
174 197 0
172 196 0
173 197 0
175 198 0
175 198 0
174 198 0
175 198 0
172 196 0
174 197 0
174 198 0
174 198 0
175 198 0
176 198 0
175 198 0
175 198 0
174 198 0
174 197 0
173 197 0
174 198 0
175 198 0
174 198 0
175 198 0
174 197 0
175 198 0
173 197 0
175 198 0
174 198 0
173 197 0
174 197 0
175 198 0
173 197 0
176 198 0
176 199 0
175 198 0
176 199 0
174 198 0
175 198 0
174 198 0
173 197 0
174 197 0
174 198 0
175 198 0
174 197 0
174 198 0
174 198 0
176 198 0
173 197 0
174 198 0
174 197 0
174 198 0
174 197 0
173 197 0
175 198 0
176 199 0
174 198 0
175 198 0
174 198 0
173 197 0
174 197 0
175 198 0
175 198 0
174 198 0
174 197 0
174 198 0
174 198 0
174 198 0
175 198 0
172 197 0
173 197 0
175 198 0
174 198 0
175 198 0
174 198 0
176 199 0
175 198 0
174 198 0
174 198 0
173 197 0
175 198 0
175 198 0
175 198 0
172 196 0
174 198 0
174 198 0
174 198 0
173 197 0
173 196 0
174 198 0
174 197 0
174 197 0
175 198 0
175 198 0
173 197 0
175 198 0
175 198 0
174 198 0
175 198 0
174 198 0
174 198 0
176 199 0
173 197 0
176 199 0
175 198 0
175 198 0
175 198 0
174 198 0
174 197 0
175 198 0
174 198 0
173 197 0
173 197 0
175 198 0
173 197 0
172 196 0
173 197 0
175 198 0
175 198 0
176 198 0
174 197 0
174 197 0
173 196 0
174 198 0
174 197 0
174 197 0
175 198 0
172 196 0
172 196 0
173 197 0
196 216 189
213 231 255
213 231 255
213 231 255
213 231 255
213 231 255
213 231 255
213 231 255
213 231 255
213 231 255
213 231 255
213 231 255
213 231 255
213 231 255
213 231 255
213 231 255
213 231 255
179 198 226
59 95 148
60 96 152
61 97 154
60 95 144
61 97 153
60 96 145
62 98 156
61 97 156
62 97 154
62 97 155
60 96 151
62 98 153
61 97 153
61 97 153
61 96 149
62 97 154
62 97 154
62 98 157
61 97 152
61 97 150
61 97 152
61 96 154
62 98 157
61 96 149
61 97 154
61 96 152
62 98 163
62 97 154
61 97 153
61 97 153
62 98 161
61 97 157
62 97 153
62 98 159
62 98 160
61 97 151
61 97 152
61 97 156
62 97 156
62 97 155
60 95 135
61 96 147
63 99 162
62 98 161
61 97 153
62 98 159
62 98 158
62 97 153
62 98 159
60 95 150
61 97 150
62 98 161
59 95 151
62 97 158
61 96 147
62 98 159
60 95 147
61 96 148
61 96 154
62 98 163
62 98 164
62 98 164
62 97 156
59 94 149
61 96 152
61 97 156
61 96 160
62 97 161
60 96 152
61 95 151
61 96 156
61 95 150
60 95 153
62 97 163
61 95 148
60 95 161
59 94 154
60 95 158
60 94 150
60 95 152
60 94 157
59 92 146
59 93 159
60 94 159
60 94 157
58 92 155
185 204 231
213 231 255
213 231 255
213 231 255
213 231 255
213 231 255
213 231 255
213 231 255
213 231 255
213 231 255
213 231 255
213 231 255
213 231 255
213 231 255
213 231 255
213 231 255
213 231 255
173 184 192
109 107 72
132 130 86
129 128 88
117 116 77
125 124 86
127 128 88
120 120 83
119 120 83
133 132 90
125 125 87
132 132 90
119 120 84
133 133 92
137 136 93
133 134 94
128 129 89
142 141 96
141 140 95
144 142 96
139 138 94
145 143 96
142 141 94
152 150 100
150 148 99
147 146 99
148 146 98
147 145 98
149 148 100
153 151 100
155 152 101
159 157 104
158 155 101
158 155 102
162 160 105
162 158 102
163 160 104
159 156 102
159 155 101
167 163 105
159 156 99
166 162 106
161 158 101
162 158 104
164 161 103
167 163 105
164 160 102
168 163 104
168 163 103
166 162 106
170 165 103
162 158 103
165 161 105
168 163 105
169 164 105
167 163 102
171 166 106
171 166 106
170 166 107
171 166 104
166 162 101
170 166 106
168 163 102
168 164 104
171 167 105
167 163 102
169 165 106
168 163 103
169 165 100
169 165 105
171 165 103
167 162 101
169 164 102
170 164 100
167 163 102
170 165 103
171 165 104
167 163 102
168 163 99
168 164 103
171 167 103
166 161 97
169 164 103
169 164 104
167 162 99
167 161 99
173 167 102
164 159 101
174 169 106
170 164 103
169 163 101
169 163 102
166 161 99
168 162 102
171 165 104
167 162 100
166 161 101
165 160 97
171 166 104
167 162 100
170 164 103
159 155 94
171 166 101
162 156 96
163 158 97
161 155 96
167 161 98
163 157 97
167 161 99
162 156 97
168 163 101
162 156 98
156 151 93
167 162 97
161 156 92
154 149 90
165 159 97
164 158 97
166 160 97
158 152 95
160 154 93
164 158 98
167 161 97
162 156 95
162 157 93
158 153 95
157 152 93
160 155 94
163 157 95
156 152 92
158 152 89
153 148 87
165 159 97
154 149 86
164 158 95
155 149 87
146 142 87
156 153 88
157 152 90
146 140 85
176 199 0
176 198 0
176 199 0
176 198 0
174 198 0
174 197 0
174 198 0
174 197 0
173 197 0
173 197 0
173 197 0
175 198 0
175 198 0
175 198 0
175 198 0
176 199 0
174 198 0
174 198 0
173 197 0
175 198 0
176 199 0
173 197 0
174 198 0
176 198 0
175 198 0
174 197 0
174 198 0
173 197 0
175 198 0
175 198 0
175 198 0
175 198 0
173 197 0
173 197 0
172 197 0
175 198 0
174 198 0
174 197 0
174 198 0
174 198 0
176 199 0
174 198 0
176 198 0
173 197 0
175 198 0
173 197 0
176 199 0
175 198 0
173 197 0
173 197 0
175 198 0
174 197 0
175 198 0
175 198 0
173 197 0
175 198 0
175 198 0
174 198 0
173 197 0
174 198 0
175 198 0
175 198 0
173 197 0
175 198 0
175 198 0
176 199 0
174 198 0
176 198 0
174 197 0
175 198 0
174 198 0
174 198 0
175 198 0
176 198 0
175 198 0
174 198 0
176 198 0
175 198 0
174 198 0
173 197 0
175 198 0
175 198 0
172 197 0
174 198 0
173 197 0
174 197 0
174 198 0
174 198 0
175 198 0
174 198 0
174 197 0
174 198 0
174 198 0
174 198 0
175 198 0
173 197 0
175 198 0
174 198 0
176 199 0
175 198 0
173 197 0
174 198 0
174 197 0
174 197 0
175 198 0
174 198 0
174 197 0
175 198 0
174 198 0
175 198 0
174 198 0
174 197 0
173 197 0
174 198 0
175 198 0
174 198 0
173 197 0
175 198 0
176 199 0
174 197 0
174 197 0
174 198 0
173 197 0
174 198 0
174 198 0
174 198 0
175 198 0
175 198 0
176 198 0
173 197 0
173 197 0
173 197 0
176 199 0
175 198 0
173 197 0
174 198 0
173 196 0
173 196 0
173 197 0
175 198 0
203 222 220
213 231 255
213 231 255
213 231 255
213 231 255
213 231 255
213 231 255
213 231 255
213 231 255
213 231 255
213 231 255
213 231 255
213 231 255
213 231 255
213 231 255
211 229 254
94 121 157
60 96 147
60 96 150
61 97 151
60 96 148
60 96 152
60 96 152
61 97 150
62 97 152
61 97 152
61 97 151
61 97 150
60 96 151
61 96 147
62 98 159
61 97 147
63 99 161
61 97 150
61 97 149
62 97 153
61 97 155
61 97 150
62 98 161
62 98 156
61 97 156
61 97 158
62 98 156
61 97 150
62 98 159
61 97 156
60 96 148
62 98 158
62 98 160
62 98 162
61 97 151
62 97 160
61 97 159
61 97 151
62 98 162
62 98 157
61 96 149
61 97 154
62 98 157
62 98 155
60 96 148
62 98 163
63 99 160
62 98 154
62 98 157
61 97 158
61 96 148
62 97 154
62 98 161
61 96 148
61 96 151
61 96 154
61 97 156
63 98 157
61 97 152
61 96 147
61 96 151
62 98 157
62 97 156
61 97 158
62 98 162
62 97 157
62 97 159
61 96 156
61 96 155
62 97 162
61 96 157
61 96 158
60 95 149
61 96 154
61 96 152
60 95 151
62 98 161
62 97 158
60 96 157
60 94 153
60 94 152
61 96 159
58 91 146
59 93 152
58 89 143
59 92 145
58 90 144
96 120 168
209 227 252
213 231 255
213 231 255
213 231 255
213 231 255
213 231 255
213 231 255
213 231 255
213 231 255
213 231 255
213 231 255
213 231 255
213 231 255
213 231 255
213 231 255
194 208 221
126 124 83
131 128 84
118 117 78
124 123 83
115 115 78
123 124 87
117 117 81
118 118 82
127 127 88
132 132 91
128 128 90
127 129 90
135 136 93
126 126 87
127 127 87
137 137 94
138 138 95
146 145 97
135 135 92
143 142 96
142 141 96
141 140 96
143 141 95
145 144 96
146 145 96
157 154 101
146 145 98
149 148 100
148 146 96
152 151 102
155 152 100
148 146 97
152 150 102
161 157 103
160 158 104
160 158 100
166 163 104
154 152 101
169 165 108
159 156 102
156 153 99
165 161 105
159 155 98
167 163 106
159 156 100
169 165 103
163 161 106
168 163 104
167 162 103
167 163 105
166 162 104
168 164 104
165 160 103
174 168 105
171 165 104
169 165 106
169 164 102
168 163 102
171 167 103
168 163 105
172 166 104
174 168 104
164 159 101
170 165 103
173 167 105
172 166 105
168 164 101
172 166 103
173 167 106
169 164 103
170 166 104
169 163 103
172 166 105
171 166 104
165 160 95
167 162 100
170 165 100
174 168 104
170 164 101
170 164 100
172 166 101
168 164 103
171 166 102
168 161 99
165 159 95
168 163 100
171 165 103
166 161 101
167 163 101
172 167 106
169 164 98
169 163 99
168 161 99
164 159 95
165 160 100
165 159 97
165 159 99
169 163 103
164 159 100
169 163 99
164 159 97
171 164 103
165 160 98
168 162 100
161 157 95
171 164 100
165 160 98
172 165 103
164 159 93
160 154 95
166 161 97
168 162 100
162 156 97
169 162 101
158 153 87
162 156 95
163 157 94
159 154 87
160 155 97
163 158 94
158 154 93
161 156 91
163 156 94
164 158 97
149 145 90
151 147 87
159 154 92
153 147 84
156 152 93
163 158 97
162 157 94
165 159 93
151 147 84
165 159 95
156 150 90
155 150 86
161 156 90
150 145 87
155 150 90
153 148 90
174 197 0
174 198 0
175 198 0
175 198 0
175 198 0
174 197 0
174 198 0
174 198 0
175 198 0
174 198 0
176 198 0
174 198 0
174 198 0
175 198 0
176 198 0
173 197 0
174 198 0
174 197 0
175 198 0
174 198 0
174 198 0
174 197 0
174 198 0
173 197 0
175 198 0
174 197 0
175 198 0
174 197 0
175 198 0
174 197 0
174 198 0
175 198 0
175 198 0
175 198 0
175 198 0
173 197 0
175 198 0
173 197 0
173 197 0
174 198 0
175 198 0
174 197 0
174 198 0
175 198 0
175 198 0
174 198 0
173 197 0
174 197 0
174 198 0
175 198 0
174 197 0
175 198 0
175 198 0
175 198 0
173 197 0
176 198 0
174 198 0
176 199 0
174 198 0
173 197 0
177 199 0
176 199 0
174 198 0
175 198 0
176 199 0
174 197 0
174 198 0
173 197 0
175 198 0
174 198 0
175 198 0
174 198 0
175 198 0
176 199 0
174 198 0
173 197 0
174 198 0
175 198 0
174 198 0
174 198 0
174 198 0
174 198 0
174 198 0
174 197 0
175 198 0
174 198 0
173 197 0
175 198 0
175 198 0
175 198 0
175 198 0
173 197 0
174 198 0
175 198 0
175 198 0
174 197 0
173 197 0
173 197 0
175 198 0
175 198 0
173 197 0
176 198 0
173 197 0
174 198 0
173 197 0
172 197 0
173 197 0
174 198 0
174 198 0
174 197 0
174 197 0
174 198 0
174 198 0
174 197 0
173 197 0
174 198 0
175 198 0
174 197 0
173 197 0
175 198 0
174 197 0
175 198 0
173 197 0
174 197 0
176 198 0
174 197 0
173 197 0
173 197 0
174 197 0
175 198 0
174 197 0
173 197 0
172 196 0
173 197 0
173 197 0
174 198 0
173 196 0
174 197 0
173 197 0
174 197 0
178 200 88
211 229 245
214 231 255
214 231 255
214 231 255
214 231 255
214 231 255
213 231 255
213 231 255
213 231 255
213 231 255
213 231 255
213 231 255
213 231 255
213 231 255
151 172 202
60 96 147
60 96 148
60 95 141
59 95 139
61 97 153
61 97 150
61 96 145
61 97 157
60 96 144
61 97 158
61 97 149
62 97 156
61 97 151
62 98 157
62 97 153
62 98 157
60 96 144
61 97 153
61 97 153
62 98 155
61 97 152
62 98 159
60 96 153
62 98 159
60 96 147
61 97 152
61 97 148
61 96 153
62 98 160
62 98 161
63 98 159
61 97 148
63 98 157
62 97 151
62 97 148
61 97 151
62 97 154
62 97 154
61 96 158
61 97 155
62 98 157
60 96 147
61 96 154
62 98 157
60 96 145
62 98 162
62 97 159
61 96 153
62 98 163
60 96 148
60 96 152
62 98 154
62 97 155
61 96 149
62 98 157
62 97 155
61 96 152
62 97 156
61 96 154
61 96 149
61 96 151
61 98 169
62 97 156
60 96 143
61 97 157
61 96 149
61 96 153
62 97 154
62 97 160
61 97 153
61 97 155
60 95 149
61 95 151
60 95 152
60 95 153
59 94 148
60 94 147
60 95 151
60 94 154
61 95 153
58 92 144
58 93 145
59 92 147
58 91 150
58 90 148
59 92 152
58 89 144
58 91 148
143 163 200
213 231 255
213 231 255
213 231 255
213 231 255
213 231 255
213 231 255
213 231 255
214 231 255
214 231 255
214 231 255
214 231 255
214 231 255
214 231 255
210 227 249
142 143 113
125 122 77
123 122 81
110 110 73
121 120 81
124 123 84
129 130 90
112 112 76
128 128 89
128 128 89
129 130 90
133 133 92
131 133 92
120 121 83
143 141 96
132 132 90
136 136 94
136 136 92
133 133 90
136 136 92
139 139 92
137 137 91
144 143 95
142 141 94
145 145 97
142 141 94
153 150 100
153 151 101
148 147 98
151 149 100
150 148 100
158 155 102
154 152 99
156 153 100
152 150 98
151 149 98
158 154 98
165 162 105
161 156 98
160 157 101
162 159 103
167 163 104
162 160 104
162 158 103
159 156 97
161 156 100
167 163 106
163 159 101
160 156 99
163 159 103
166 162 101
167 163 101
168 164 103
168 165 103
163 159 98
170 166 106
165 161 102
170 165 108
166 162 101
172 167 105
169 164 104
166 162 101
171 166 103
169 164 104
167 162 103
171 167 104
174 169 108
173 169 108
167 162 104
164 160 103
168 163 102
174 168 106
166 162 101
175 170 106
172 167 102
172 168 105
169 164 103
168 162 101
173 168 104
171 166 98
166 161 99
175 169 104
173 168 105
161 156 93
169 163 103
168 164 104
168 162 100
168 162 102
172 166 103
169 163 102
166 162 100
176 169 105
171 166 103
171 166 103
171 165 99
169 164 102
169 163 102
164 159 100
165 161 99
165 160 93
158 153 94
161 156 93
165 159 96
170 165 101
166 160 97
165 159 94
172 165 99
164 158 95
161 156 95
162 158 94
164 158 88
160 154 91
170 164 99
165 160 97
161 155 92
166 161 95
163 157 95
156 151 93
159 154 93
164 158 93
158 153 93
161 155 91
159 154 92
161 155 97
159 154 90
158 152 88
159 154 90
161 156 95
155 150 90
158 152 91
163 158 97
157 153 91
158 152 87
158 154 91
159 153 89
163 158 96
159 154 87
154 148 86
165 159 95
155 150 92
156 151 84
176 199 0
174 197 0
174 198 0
175 198 0
175 198 0
175 198 0
174 198 0
175 198 0
175 198 0
175 198 0
175 198 0
173 197 0
175 198 0
174 197 0
174 198 0
174 197 0
174 197 0
175 198 0
174 198 0
174 197 0
175 198 0
175 198 0
175 198 0
175 198 0
175 197 0
175 198 0
173 197 0
174 198 0
174 198 0
175 198 0
175 198 0
174 198 0
174 197 0
174 198 0
174 198 0
174 197 0
173 197 0
175 198 0
173 197 0
176 199 0
173 197 0
175 198 0
174 197 0
175 198 0
174 197 0
174 198 0
175 198 0
174 198 0
177 199 0
175 198 0
175 198 0
176 198 0
174 197 0
173 197 0
176 199 0
176 198 0
175 198 0
173 197 0
174 198 0
175 198 0
173 197 0
175 198 0
175 198 0
173 197 0
175 198 0
174 197 0
171 196 0
174 198 0
176 199 0
175 198 0
174 197 0
173 197 0
173 197 0
175 198 0
173 197 0
175 198 0
175 198 0
176 199 0
177 199 0
175 198 0
175 198 0
173 197 0
176 199 0
174 198 0
174 198 0
173 197 0
174 197 0
175 198 0
174 198 0
174 198 0
175 198 0
175 198 0
175 198 0
173 197 0
174 197 0
174 198 0
173 197 0
174 198 0
175 198 0
174 197 0
176 198 0
175 198 0
176 198 0
174 197 0
175 198 0
176 199 0
176 199 0
174 197 0
175 198 0
176 199 0
175 198 0
175 198 0
175 198 0
175 198 0
173 197 0
174 198 0
174 198 0
174 198 0
174 197 0
175 198 0
173 197 0
175 198 0
175 198 0
175 198 0
174 198 0
173 197 0
172 196 0
174 198 0
175 198 0
173 197 0
174 198 0
175 198 0
174 197 0
174 197 0
174 197 0
174 197 0
174 197 0
176 198 0
173 197 0
174 198 0
174 197 0
190 211 167
214 231 255
214 231 255
214 231 255
214 231 255
214 231 255
214 231 255
214 231 255
214 231 255
214 231 255
214 231 255
214 231 255
214 231 255
203 221 245
69 102 147
60 96 149
60 95 142
60 96 148
60 96 142
59 95 137
60 95 140
60 96 140
61 97 153
61 96 148
61 97 152
62 97 151
61 96 151
61 97 148
61 96 145
61 97 152
61 97 157
60 96 144
60 96 148
62 98 158
61 96 149
61 97 152
61 97 154
62 98 158
63 99 163
62 98 153
62 97 156
61 97 152
61 96 144
61 97 154
61 97 154
61 97 156
61 96 145
61 97 154
62 97 155
63 98 163
62 97 154
60 96 151
61 97 151
63 98 159
62 97 157
61 97 154
62 98 157
61 97 151
61 97 148
61 97 157
62 97 153
60 95 146
61 96 150
62 98 157
61 96 147
62 98 157
61 97 158
61 96 148
61 97 153
61 96 142
60 96 150
60 95 145
62 97 151
61 96 153
60 96 149
62 98 162
62 97 154
61 96 156
60 95 146
61 96 155
61 96 154
61 96 157
61 96 148
61 96 156
61 97 158
60 96 149
61 96 156
60 95 147
61 96 152
61 96 158
61 95 146
61 96 161
61 95 148
60 94 141
59 93 150
60 95 152
60 94 152
59 93 152
60 93 148
60 94 152
60 93 145
59 93 150
58 91 152
64 93 145
200 218 244
214 231 255
214 231 255
214 231 255
214 231 255
214 231 255
214 231 255
214 231 255
214 231 255
214 231 255
214 231 255
214 231 255
214 231 255
169 179 179
116 114 73
130 128 86
130 130 88
124 124 85
114 113 79
122 123 85
113 113 78
119 120 83
120 121 85
122 122 84
125 126 89
127 127 88
121 123 86
140 139 94
124 125 87
133 134 92
132 132 90
137 137 95
135 135 93
138 138 93
140 138 94
142 141 96
142 141 97
148 147 98
143 142 96
149 147 97
145 145 98
152 150 100
150 148 98
157 154 101
158 155 101
144 143 96
157 153 101
156 153 99
148 147 96
156 153 98
159 156 102
154 153 99
162 158 101
165 162 103
160 157 103
162 159 100
165 161 105
167 162 104
166 162 102
167 163 102
162 158 100
163 159 102
162 159 101
165 161 101
168 163 102
172 167 107
165 161 98
171 166 104
168 164 100
163 158 98
167 163 105
171 166 103
171 165 103
174 168 104
172 167 105
165 162 101
171 167 106
171 165 103
165 161 101
171 166 104
173 169 106
168 162 102
169 164 101
172 166 101
169 164 103
172 167 103
172 165 103
174 168 102
173 167 102
170 166 102
172 167 103
168 163 99
170 164 99
171 165 101
171 166 105
164 159 95
175 169 103
172 166 106
170 164 95
167 162 100
167 162 99
170 165 99
172 164 103
169 162 98
167 162 98
171 165 100
165 160 97
167 162 103
165 160 97
169 163 97
170 165 103
170 165 99
158 154 95
165 160 99
169 163 99
169 164 102
163 158 91
164 160 96
167 161 98
165 160 98
163 156 93
165 159 95
168 163 100
163 158 96
163 157 93
166 160 99
165 159 97
164 159 95
169 163 101
162 156 90
165 159 95
165 159 92
163 157 91
164 159 94
159 154 89
159 153 92
161 156 92
164 158 91
156 151 91
160 154 89
158 153 88
155 150 86
158 153 88
162 156 94
155 150 90
163 157 95
155 150 86
168 162 97
158 153 87
160 155 89
161 156 95
163 157 91
163 157 94
155 150 94
159 154 96
176 199 0
174 198 0
174 198 0
174 198 0
174 198 0
173 196 0
176 199 0
175 198 0
175 198 0
174 198 0
175 198 0
174 198 0
175 198 0
173 197 0
175 198 0
174 198 0
174 198 0
175 198 0
176 199 0
175 198 0
175 198 0
175 198 0
176 199 0
174 198 0
174 198 0
175 198 0
174 198 0
176 198 0
176 198 0
174 198 0
175 198 0
176 198 0
173 197 0
173 197 0
175 198 0
174 197 0
174 197 0
174 198 0
173 197 0
171 196 0
174 198 0
175 198 0
175 198 0
175 198 0
175 198 0
174 198 0
175 198 0
175 198 0
173 197 0
174 198 0
174 197 0
175 198 0
177 199 0
174 198 0
174 198 0
174 198 0
175 198 0
174 198 0
174 197 0
175 198 0
174 197 0
174 198 0
175 198 0
174 197 0
175 198 0
174 198 0
174 198 0
174 198 0
174 198 0
176 199 0
175 198 0
174 198 0
175 198 0
175 197 0
174 198 0
174 198 0
174 198 0
174 198 0
174 198 0
175 198 0
174 198 0
175 198 0
175 198 0
175 198 0
175 198 0
173 197 0
173 197 0
176 198 0
174 198 0
177 199 0
175 198 0
174 197 0
176 199 0
174 198 0
173 197 0
173 197 0
174 198 0
174 197 0
175 198 0
176 198 0
176 198 0
175 198 0
174 198 0
173 197 0
174 197 0
175 198 0
173 197 0
174 198 0
174 198 0
174 198 0
174 197 0
175 198 0
175 198 0
175 198 0
175 198 0
173 197 0
175 198 0
174 197 0
174 198 0
175 198 0
175 198 0
172 196 0
176 198 0
174 198 0
175 198 0
176 198 0
174 197 0
173 197 0
174 198 0
173 197 0
175 198 0
174 197 0
175 198 0
174 197 0
175 198 0
175 198 0
175 198 0
174 198 0
173 197 0
173 196 0
172 196 0
176 199 25
209 227 238
214 232 255
214 232 255
214 232 255
214 232 255
214 232 255
214 232 255
214 232 255
214 231 255
214 231 255
214 231 255
214 231 255
140 162 195
60 95 139
60 95 141
61 96 149
61 96 147
60 96 144
61 97 150
61 96 148
60 95 140
60 95 143
61 96 145
61 96 144
61 97 149
61 96 148
62 97 151
61 97 149
61 97 157
62 97 151
62 97 154
61 96 144
62 97 154
62 98 154
60 96 141
62 97 152
63 98 153
62 97 152
62 97 156
62 97 154
61 97 149
62 97 155
61 97 149
61 97 151
62 98 161
61 97 149
61 97 155
60 96 142
62 97 154
61 96 153
61 97 150
62 98 153
61 97 156
61 97 144
62 98 154
61 96 151
62 98 153
61 97 151
62 98 157
61 97 155
62 97 154
61 97 151
61 97 154
61 96 153
61 96 152
60 95 152
62 98 160
61 97 158
62 97 154
60 95 148
62 97 153
62 97 156
61 97 158
61 96 143
61 97 149
63 99 165
61 96 156
61 97 149
61 96 151
61 97 153
61 96 151
61 96 148
60 95 146
61 96 153
61 97 152
61 96 155
61 96 156
59 94 149
60 95 148
61 96 159
61 96 151
60 94 156
61 95 157
59 93 154
60 94 154
58 92 145
58 90 142
59 92 144
59 92 145
58 91 144
59 91 150
58 90 146
57 89 143
133 153 189
214 231 255
214 231 255
214 231 255
214 231 255
214 232 255
214 232 255
214 232 255
214 232 255
214 232 255
214 232 255
214 232 255
204 220 238
128 125 83
122 120 80
113 112 76
120 119 82
120 120 82
118 119 84
121 120 82
126 125 85
107 109 78
118 119 84
112 115 84
118 120 83
129 129 90
131 130 89
128 129 89
132 133 92
130 130 89
129 130 89
138 137 93
137 137 91
136 135 90
138 137 91
148 147 99
141 140 93
133 132 89
152 151 100
145 144 97
144 143 95
152 150 98
153 151 99
153 150 98
151 149 99
153 150 99
157 154 100
155 152 99
155 151 96
158 155 100
160 157 101
160 156 101
159 155 97
161 156 99
159 156 99
161 158 99
166 161 100
167 163 106
168 164 103
164 161 101
169 164 102
159 156 99
171 166 105
166 162 99
170 166 99
170 165 106
166 162 102
173 168 105
173 167 106
169 165 107
174 169 106
167 162 102
169 165 103
173 167 103
173 167 104
174 169 104
172 167 104
169 164 102
167 162 101
174 168 105
168 164 98
170 165 101
172 167 103
169 164 99
170 165 103
173 167 103
170 165 100
172 168 104
167 163 99
171 166 103
163 159 100
175 169 103
175 169 104
165 160 97
169 165 102
171 166 101
168 163 100
173 168 103
173 167 104
162 156 92
168 163 96
167 162 98
174 167 101
169 163 101
172 166 103
168 162 99
171 166 99
173 167 100
171 166 102
166 161 100
172 166 99
169 162 94
166 161 99
169 163 101
168 161 98
168 162 99
165 159 97
169 164 93
167 161 95
171 165 100
166 160 93
166 161 95
165 159 92
162 157 94
164 157 93
164 159 97
169 163 98
167 162 99
171 165 97
160 154 89
167 161 97
156 150 88
159 154 87
159 154 95
165 160 97
156 151 91
162 156 93
165 160 97
162 156 94
158 153 93
165 159 90
155 150 90
161 154 92
162 156 90
163 156 93
163 157 94
160 154 84
157 151 84
164 158 95
163 157 92
158 153 92
160 154 88
159 153 90
152 147 89
154 149 85
174 197 0
173 197 0
175 198 0
175 198 0
174 198 0
175 198 0
176 199 0
174 198 0
175 198 0
174 198 0
173 197 0
173 197 0
174 197 0
172 197 0
174 198 0
174 198 0
175 198 0
173 197 0
175 198 0
174 198 0
174 197 0
174 198 0
175 198 0
176 199 0
174 198 0
174 198 0
175 198 0
176 199 0
176 199 0
174 198 0
174 198 0
173 197 0
175 198 0
173 197 0
175 198 0
173 197 0
175 198 0
175 198 0
175 198 0
176 199 0
173 197 0
174 197 0
173 197 0
174 197 0
175 198 0
177 199 0
175 198 0
174 197 0
174 198 0
174 198 0
173 197 0
173 197 0
174 197 0
176 199 0
174 198 0
173 197 0
174 198 0
174 198 0
174 197 0
172 197 0
174 198 0
174 198 0
173 197 0
174 198 0
175 198 0
174 197 0
175 198 0
174 198 0
175 198 0
174 197 0
175 198 0
175 198 0
174 197 0
174 197 0
175 198 0
175 198 0
174 198 0
173 197 0
173 197 0
175 198 0
174 198 0
174 198 0
175 198 0
175 198 0
174 197 0
176 199 0
174 197 0
173 197 0
177 199 0
175 198 0
175 198 0
173 197 0
175 198 0
175 198 0
175 198 0
175 198 0
174 198 0
174 197 0
174 197 0
174 198 0
175 198 0
174 198 0
173 196 0
174 197 0
175 198 0
175 198 0
173 197 0
175 198 0
174 198 0
175 198 0
174 197 0
175 198 0
175 198 0
176 199 0
176 199 0
173 197 0
175 198 0
174 198 0
173 197 0
176 199 0
174 198 0
174 198 0
174 197 0
176 199 0
173 197 0
175 198 0
175 198 0
175 198 0
175 198 0
175 198 0
174 197 0
174 197 0
176 199 0
174 197 0
174 198 0
174 198 0
176 198 0
174 198 0
174 197 0
172 196 0
172 195 0
174 197 0
180 202 99
214 232 255
214 232 255
214 232 255
214 232 255
214 232 255
214 232 255
214 232 255
214 232 255
214 232 255
214 232 255
197 214 238
59 95 140
59 94 124
60 95 133
60 96 140
60 96 142
60 96 148
60 95 139
60 95 139
61 97 156
61 96 142
61 97 155
61 97 153
62 97 155
61 97 159
62 98 155
61 96 151
61 96 147
60 95 137
61 97 160
61 96 148
61 96 148
62 97 154
61 97 153
61 97 152
61 97 158
62 97 150
60 95 145
61 97 149
61 97 150
62 98 161
61 97 149
63 98 157
60 96 148
61 97 157
61 97 151
62 98 158
62 97 153
61 97 152
62 97 153
62 98 156
62 98 158
61 96 145
62 97 152
62 97 150
62 97 158
61 97 152
61 97 147
61 97 150
62 97 151
61 96 147
62 97 154
61 96 143
61 97 156
61 97 159
61 97 153
63 98 164
60 96 150
60 95 145
63 98 160
62 98 157
62 98 157
61 96 150
61 97 150
61 96 151
61 96 145
61 97 150
61 96 154
60 94 138
61 95 150
62 97 156
62 97 156
62 97 157
60 94 144
60 95 146
61 96 151
60 95 148
60 95 143
61 95 154
60 95 152
59 93 140
61 95 154
62 96 154
60 95 151
61 96 158
59 92 145
59 92 151
60 93 150
59 92 143
59 92 147
56 86 135
57 88 136
56 87 142
188 205 231
214 232 255
214 232 255
214 232 255
214 232 255
214 232 255
214 232 255
214 232 255
214 232 255
214 232 255
214 232 255
142 146 132
124 122 79
119 118 80
107 107 74
117 117 80
129 129 89
119 119 82
117 118 82
107 110 78
122 123 85
113 114 79
121 123 86
125 126 88
133 134 93
133 133 89
126 127 89
134 134 91
126 126 86
140 139 94
137 137 91
132 130 87
134 133 91
141 141 97
139 139 92
140 139 92
145 143 96
134 133 88
142 140 93
154 151 100
144 143 92
149 148 99
150 149 95
157 154 100
152 149 96
152 150 99
158 155 99
156 153 100
153 151 96
154 152 97
158 155 98
161 158 98
160 157 100
163 160 104
167 163 103
159 155 100
159 155 102
168 163 106
164 159 100
169 164 103
164 160 101
162 159 95
168 163 100
172 166 103
169 164 106
170 165 103
164 160 101
171 165 100
170 165 101
165 160 97
172 167 103
166 161 97
171 166 102
172 167 104
173 167 102
173 167 105
170 164 100
169 165 99
171 166 103
169 164 100
174 168 103
162 158 95
171 164 98
168 163 104
171 165 99
172 167 101
169 165 103
172 166 104
169 164 103
172 167 104
167 163 99
170 164 100
170 165 99
171 165 103
171 166 102
168 163 98
164 159 97
170 164 96
170 165 101
172 166 98
170 164 101
171 165 101
170 163 99
171 165 99
168 163 99
168 162 100
165 159 95
166 160 94
173 167 106
170 165 99
165 161 98
169 162 97
169 162 98
169 162 95
167 162 99
161 156 95
167 161 94
170 164 97
170 163 102
165 160 95
164 159 93
160 154 84
159 153 90
168 162 93
165 159 96
163 157 95
164 159 95
165 159 93
156 150 87
162 156 91
164 157 92
164 159 92
161 155 94
159 154 90
158 152 90
165 159 94
157 151 91
161 156 93
157 152 86
157 151 91
164 157 96
163 156 93
162 156 93
163 157 90
158 153 89
158 153 90
162 156 94
161 155 95
165 160 95
164 157 95
159 154 90
156 149 90
148 144 83
151 145 84
174 198 0
173 197 0
173 197 0
173 197 0
176 199 0
175 198 0
174 197 0
174 197 0
175 198 0
175 198 0
174 198 0
174 198 0
175 198 0
175 198 0
175 198 0
174 198 0
176 198 0
174 197 0
174 198 0
174 198 0
174 198 0
175 198 0
175 198 0
175 198 0
175 198 0
173 197 0
173 197 0
173 197 0
174 198 0
174 198 0
175 198 0
174 198 0
174 198 0
173 197 0
172 197 0
174 198 0
174 198 0
175 198 0
174 197 0
175 198 0
173 197 0
173 197 0
175 198 0
174 197 0
175 198 0
174 198 0
175 198 0
175 198 0
175 198 0
174 198 0
176 199 0
174 198 0
173 197 0
174 198 0
175 198 0
174 198 0
175 198 0
175 198 0
176 198 0
175 198 0
174 198 0
175 198 0
174 197 0
175 198 0
174 198 0
175 198 0
173 197 0
176 199 0
176 199 0
175 198 0
175 198 0
174 198 0
174 198 0
173 197 0
176 199 0
175 198 0
175 198 0
177 199 0
174 198 0
174 198 0
174 198 0
174 198 0
174 198 0
174 198 0
173 197 0
174 198 0
175 198 0
175 198 0
175 198 0
175 198 0
173 197 0
173 197 0
174 198 0
174 198 0
174 197 0
174 198 0
174 197 0
173 197 0
174 197 0
175 198 0
175 198 0
175 198 0
175 198 0
174 198 0
173 197 0
174 197 0
175 198 0
174 198 0
175 198 0
176 198 0
174 198 0
176 198 0
174 198 0
175 198 0
173 197 0
174 198 0
173 197 0
174 198 0
174 197 0
175 198 0
174 198 0
174 198 0
174 197 0
173 197 0
175 198 0
175 198 0
175 198 0
172 197 0
174 197 0
175 198 0
174 198 0
175 198 0
174 198 0
175 198 0
174 198 0
176 199 0
173 197 0
175 198 0
175 198 0
174 197 0
174 197 0
174 198 0
173 195 0
200 219 209
215 232 255
215 232 255
215 232 255
215 232 255
215 232 255
215 232 255
215 232 255
215 232 255
215 232 255
138 159 183
60 96 145
61 97 145
59 95 139
59 95 142
61 96 149
60 95 142
61 97 145
62 97 149
61 97 147
62 98 155
61 96 149
61 97 148
61 96 150
62 98 157
61 96 142
62 97 149
61 97 148
61 97 148
61 97 157
61 96 145
62 97 149
62 98 160
61 97 147
61 96 154
61 96 149
61 97 157
61 97 154
62 98 154
61 97 148
60 96 148
61 97 143
61 97 151
61 97 150
60 96 150
61 96 147
60 96 141
61 96 145
62 98 150
62 98 159
62 97 151
61 97 148
62 98 158
61 96 149
61 97 153
62 98 157
62 97 159
62 98 157
61 97 147
62 97 154
63 98 161
61 97 152
61 96 150
61 96 151
61 97 149
61 97 153
62 97 155
63 98 157
61 97 152
60 95 139
61 96 156
62 98 160
60 94 146
62 97 155
61 96 147
62 98 154
61 96 152
61 97 148
61 95 148
60 95 150
61 95 147
61 96 150
62 97 158
60 94 145
61 95 156
59 93 143
61 96 153
60 94 145
59 94 146
61 95 153
61 96 156
60 95 149
61 94 152
61 95 154
58 91 148
60 94 151
59 92 143
59 92 147
59 92 149
56 87 141
58 90 141
60 93 152
54 85 134
128 148 182
215 232 255
215 232 255
215 232 255
215 232 255
215 232 255
215 232 255
215 232 255
215 232 255
215 232 255
183 195 208
129 125 78
129 127 84
109 108 72
122 120 82
118 119 84
115 115 79
112 114 80
113 113 79
112 113 79
115 116 81
122 123 86
121 122 85
130 131 90
128 129 90
133 133 92
129 130 89
131 131 90
123 125 87
136 136 93
130 130 90
147 146 99
137 137 92
136 135 92
140 139 92
132 133 90
151 149 99
149 147 96
145 143 94
150 149 98
143 142 95
145 144 96
158 154 101
152 150 98
150 148 95
154 153 99
162 158 103
155 152 97
155 152 99
160 157 99
159 156 98
165 161 100
165 161 99
168 163 104
157 153 95
161 158 99
165 162 103
164 160 98
165 161 101
167 163 102
166 162 100
165 160 100
171 166 105
170 166 104
171 166 104
168 163 102
169 165 106
159 156 99
170 165 103
168 164 100
170 165 102
171 165 99
168 163 102
170 166 100
174 168 106
165 160 97
167 162 100
169 166 103
170 164 97
170 166 101
175 169 103
171 165 101
170 165 98
175 170 106
169 164 99
172 165 100
171 166 103
175 168 99
167 162 96
172 167 103
169 164 101
166 162 98
169 163 97
170 165 97
169 163 96
173 167 103
174 168 102
172 167 103
173 167 102
171 165 98
171 166 102
169 163 95
172 166 101
172 165 101
169 163 97
168 163 99
171 166 102
168 162 95
176 170 100
173 166 97
173 167 103
168 162 95
167 160 95
169 163 99
173 166 97
163 157 93
163 159 93
167 160 94
165 160 94
167 162 97
162 157 90
163 157 93
162 157 90
161 155 90
166 161 95
165 159 94
163 158 93
157 152 92
164 158 93
161 156 93
158 152 87
165 158 95
168 161 100
163 157 94
161 155 89
167 161 96
170 163 96
164 158 89
167 160 96
165 159 93
161 156 88
164 158 92
161 156 90
157 151 84
165 159 95
155 150 88
161 156 89
160 154 92
164 157 90
152 147 86
156 150 84
159 153 90
157 152 90
154 148 87
175 198 0
174 198 0
174 198 0
176 199 0
173 197 0
175 198 0
175 198 0
174 198 0
173 197 0
174 197 0
174 198 0
177 199 0
174 198 0
174 198 0
174 198 0
176 198 0
174 198 0
172 197 0
175 198 0
174 197 0
176 198 0
174 197 0
175 198 0
174 198 0
175 198 0
175 198 0
174 197 0
176 199 0
174 198 0
174 198 0
173 197 0
175 198 0
173 197 0
175 198 0
173 197 0
176 199 36
178 200 67
182 204 92
188 208 125
181 203 92
186 206 108
191 211 142
196 215 161
200 217 175
201 218 175
202 219 181
203 220 186
209 225 207
205 222 194
210 225 207
211 226 211
209 224 204
218 232 233
218 232 236
214 229 221
217 231 230
220 234 240
215 230 227
221 234 241
219 233 237
219 233 237
220 234 241
222 235 246
219 233 237
222 235 246
218 232 234
219 233 237
219 232 236
216 231 228
216 230 226
219 233 237
211 226 212
211 226 209
211 226 212
209 225 206
212 227 212
203 220 184
202 219 182
201 219 181
199 216 167
196 215 161
193 212 151
191 210 137
186 207 117
181 203 84
176 199 44
174 197 0
175 198 0
174 198 0
178 200 0
174 198 0
176 199 0
176 198 0
175 198 0
175 198 0
175 198 0
174 198 0
173 197 0
173 197 0
175 198 0
175 198 0
174 198 0
174 198 0
175 198 0
175 198 0
175 198 0
175 198 0
175 198 0
173 197 0
174 198 0
176 199 0
176 199 0
175 198 0
175 198 0
175 198 0
175 198 0
175 198 0
174 197 0
173 197 0
175 198 0
175 198 0
175 198 0
175 198 0
174 198 0
176 198 0
175 198 0
175 198 0
175 198 0
175 198 0
175 198 0
175 198 0
174 198 0
173 197 0
173 197 0
173 197 0
175 198 0
174 198 0
174 197 0
176 199 0
173 197 0
173 197 0
174 198 0
172 196 0
182 204 105
215 232 254
215 232 255
215 232 255
215 232 255
215 232 255
215 232 255
215 232 255
215 232 255
204 221 244
63 97 139
60 95 134
60 96 144
60 96 150
61 96 148
60 96 141
60 95 142
61 96 145
62 97 151
60 96 144
61 96 149
61 97 148
61 97 148
61 96 143
61 97 152
61 97 147
61 96 143
62 97 156
61 97 153
60 96 143
62 97 149
63 98 155
62 97 151
62 97 152
62 97 159
61 96 147
61 97 148
61 96 151
62 97 151
62 97 153
60 96 145
60 95 143
62 97 151
62 97 153
61 97 151
61 96 145
61 96 145
62 97 157
62 97 153
62 98 159
61 97 149
62 98 155
61 97 151
62 98 156
61 96 150
61 97 148
62 98 159
61 96 143
60 96 152
61 97 150
61 96 145
60 95 142
62 97 155
60 95 145
61 96 154
61 97 150
61 96 149
61 97 152
60 96 148
62 98 160
61 96 148
62 98 155
61 96 150
61 96 146
61 95 147
61 96 158
60 95 144
61 97 154
61 97 161
61 96 150
61 95 145
60 95 147
60 95 152
60 94 140
60 95 152
61 96 154
60 95 147
60 94 146
60 95 146
60 95 153
60 95 150
61 95 147
60 94 149
60 94 149
58 92 142
57 89 139
59 92 144
58 91 142
60 94 148
60 92 143
58 92 147
58 89 144
57 88 137
60 90 137
204 221 247
215 232 255
215 232 255
215 232 255
215 232 255
215 232 255
215 232 255
215 232 255
213 229 251
132 133 110
111 110 75
107 106 72
99 99 69
105 106 72
109 110 75
114 115 80
104 107 76
112 114 81
109 112 79
118 120 86
109 111 78
113 115 81
114 116 81
119 120 82
120 121 84
133 133 90
135 135 92
129 130 88
130 131 87
138 138 90
136 135 93
140 140 93
130 131 91
145 144 97
151 149 97
146 145 96
144 142 93
153 151 98
155 152 99
149 147 95
147 145 94
157 154 99
158 154 98
155 152 100
160 156 101
157 155 97
150 148 98
155 152 99
159 156 100
164 160 103
164 159 101
169 164 107
162 158 98
159 156 99
166 162 99
169 164 102
166 162 104
167 162 101
166 162 103
164 160 101
165 161 99
169 164 100
170 166 101
170 164 101
168 163 99
170 164 100
169 165 105
166 161 100
172 167 101
169 164 101
174 169 103
171 166 100
172 168 101
176 171 104
169 164 100
168 163 98
175 169 102
170 165 102
171 165 100
175 169 104
171 166 99
171 166 100
166 162 99
167 162 99
169 164 97
167 162 94
175 169 101
175 170 104
174 168 101
169 164 99
170 165 100
166 161 95
173 167 102
172 167 100
170 164 97
173 167 103
170 166 103
167 162 95
173 167 101
170 164 98
167 161 98
172 166 101
166 161 96
171 165 97
168 162 95
171 165 97
171 164 99
166 161 93
168 161 94
173 167 101
168 162 97
168 162 101
175 168 103
165 158 95
169 164 96
166 160 96
166 161 97
167 161 93
161 155 92
168 162 92
166 160 93
162 157 91
167 161 95
167 162 94
165 159 93
162 157 90
160 155 88
166 160 98
168 162 99
164 158 92
160 155 87
162 157 93
153 148 83
165 160 93
169 163 96
160 155 93
162 156 90
157 153 90
154 149 88
158 153 88
162 156 89
167 162 92
159 153 90
159 154 87
160 154 92
164 159 93
157 151 87
160 155 94
158 152 87
159 154 85
154 148 85
152 146 88
157 152 84
175 198 0
175 198 0
174 198 0
175 198 0
175 198 0
176 199 0
175 198 0
175 198 0
173 197 0
177 199 0
175 198 0
175 198 0
175 198 0
174 197 0
174 198 0
176 199 0
174 198 0
174 198 0
175 198 0
174 198 0
175 198 0
176 199 44
180 202 80
186 206 108
187 208 122
195 214 159
196 215 159
197 216 167
205 221 193
208 224 203
208 224 203
217 231 230
215 229 224
221 234 242
224 237 250
225 237 253
225 238 255
225 238 255
225 238 255
225 238 255
225 238 255
225 238 255
225 238 255
225 238 255
225 238 255
225 238 255
225 238 255
225 238 255
225 238 255
225 238 255
225 238 255
225 238 255
225 238 255
225 238 255
225 238 255
225 238 255
225 238 255
225 238 255
225 238 255
225 238 255
225 238 255
225 238 255
225 238 255
225 238 255
225 238 255
225 238 255
225 238 255
225 238 255
225 238 255
225 238 255
225 238 255
225 238 255
225 238 255
225 238 255
225 238 255
225 238 255
225 238 255
225 238 255
225 238 255
225 238 255
225 238 255
226 238 255
226 238 255
226 238 255
226 238 255
226 238 255
223 236 248
220 234 241
215 230 226
212 227 214
207 223 198
197 215 165
194 213 153
185 206 111
185 206 111
177 200 57
174 198 0
175 198 0
173 197 0
175 198 0
174 198 0
175 198 0
175 198 0
174 198 0
174 197 0
174 198 0
175 198 0
174 198 0
174 198 0
173 197 0
173 197 0
175 198 0
175 198 0
174 197 0
174 198 0
173 197 0
174 197 0
174 197 0
173 197 0
176 199 0
176 199 0
174 198 0
173 197 0
175 198 0
174 198 0
174 198 0
174 198 0
177 199 0
174 197 0
173 197 0
174 198 0
175 198 0
174 198 0
173 197 0
174 198 0
174 197 0
174 197 0
174 198 0
175 198 0
174 197 0
173 197 0
173 197 0
173 197 0
172 195 0
197 216 193
215 232 255
215 232 255
215 232 255
215 232 255
215 232 255
215 232 255
215 232 255
155 174 200
59 94 134
60 95 136
60 95 140
59 94 130
60 95 136
60 95 141
60 95 141
61 96 144
60 95 139
60 96 148
60 94 144
61 97 153
61 96 141
61 97 142
61 97 150
61 97 150
62 97 152
62 98 154
61 97 153
61 96 143
61 97 157
61 96 142
62 98 155
62 97 152
62 98 152
61 96 144
61 96 145
61 97 155
62 98 155
61 97 152
61 96 147
61 96 140
61 97 151
61 96 142
62 98 154
63 98 156
61 96 145
62 97 149
62 98 150
60 96 147
60 95 147
63 98 160
62 98 155
61 96 142
61 96 150
61 96 152
61 96 144
62 98 155
62 97 150
62 98 158
61 97 152
61 96 148
61 96 150
61 97 149
60 96 151
60 96 144
61 97 152
61 96 145
62 98 159
61 97 152
61 96 152
61 96 152
60 94 150
61 96 153
62 98 156
60 95 140
60 95 142
62 97 156
60 94 140
60 94 146
60 94 144
60 94 143
61 95 142
61 96 152
61 96 152
60 94 149
61 95 149
60 95 145
60 94 147
60 94 150
60 94 143
59 93 145
60 94 144
60 93 147
59 92 147
57 89 136
61 94 148
59 92 142
57 89 136
58 90 139
56 88 132
57 89 137
57 88 140
54 85 133
144 163 197
215 232 255
215 232 255
215 232 255
215 232 255
215 232 255
215 232 255
215 232 255
191 204 216
120 119 78
112 110 73
119 119 81
111 111 77
102 104 74
118 119 84
105 107 76
107 110 78
102 105 75
119 120 85
114 115 80
115 116 83
120 122 84
111 114 81
128 128 87
127 127 86
129 129 87
127 127 87
118 118 78
131 131 89
123 124 86
131 131 88
139 138 93
134 133 89
142 141 93
138 136 90
142 141 95
149 146 97
134 134 88
152 150 96
146 145 97
152 150 96
146 144 93
153 150 95
159 155 98
148 147 94
156 153 98
156 154 99
160 156 98
157 154 97
166 161 101
161 158 99
160 157 98
166 161 104
159 156 99
165 161 100
161 158 98
164 160 100
167 162 102
166 162 99
163 158 98
164 160 97
167 163 99
171 166 101
173 168 106
172 166 101
167 162 100
171 165 99
170 165 102
173 168 104
170 165 102
165 160 98
169 164 101
173 167 100
171 165 100
172 167 102
177 171 107
172 166 96
169 164 99
171 166 100
173 167 100
173 167 106
169 165 99
174 167 103
172 168 103
174 169 104
174 168 100
173 167 100
173 167 99
172 166 99
161 157 91
176 169 100
171 165 99
173 166 101
168 163 96
171 165 97
167 162 97
173 167 102
173 166 97
169 164 97
173 167 101
171 165 97
172 166 101
169 164 93
169 164 98
167 162 95
172 167 100
164 160 97
169 163 93
171 165 99
170 165 97
162 157 92
165 159 93
165 160 95
171 165 95
167 162 90
168 162 95
171 164 97
162 157 95
163 158 95
168 162 94
167 161 95
167 160 95
164 158 93
169 164 98
169 163 99
167 161 97
167 161 96
166 160 95
162 156 92
164 158 97
160 155 91
167 161 99
167 160 97
163 157 95
158 153 93
162 156 93
165 159 91
164 159 94
161 155 90
159 152 89
158 153 90
167 161 94
158 151 89
157 151 84
161 155 92
157 152 87
163 158 91
160 154 90
159 153 88
157 152 87
156 151 83
163 158 89
154 150 84
174 198 0
174 198 0
174 198 0
174 197 0
174 198 0
173 197 0
174 198 0
174 198 0
174 197 0
175 198 0
177 200 51
182 204 95
189 209 128
188 208 120
201 219 179
203 220 184
211 226 211
208 224 204
212 228 218
217 231 233
221 234 244
225 238 255
225 238 255
225 238 255
225 238 255
225 238 255
225 238 255
225 238 255
225 238 255
225 238 255
225 238 255
225 238 255
225 238 255
225 238 255
225 238 255
225 238 255
225 238 255
225 238 255
225 238 255
225 238 255
225 238 255
225 238 255
225 238 255
225 238 255
225 238 255
225 238 255
225 238 255
225 238 255
225 238 255
225 238 255
225 238 255
225 238 255
225 238 255
225 238 255
225 238 255
225 238 255
225 238 255
225 238 255
225 238 255
225 238 255
225 238 255
225 238 255
225 238 255
225 238 255
225 238 255
225 238 255
225 238 255
225 238 255
225 238 255
225 238 255
225 238 255
225 238 255
225 238 255
225 238 255
225 238 255
225 238 255
225 238 255
225 238 255
225 238 255
225 238 255
225 238 255
225 238 255
225 238 255
225 238 255
225 238 255
225 238 255
225 238 255
225 238 255
225 238 255
225 238 255
225 238 255
225 238 255
225 238 255
226 238 255
226 238 255
225 238 254
222 235 246
215 230 226
214 228 220
199 217 169
196 215 161
183 205 102
176 199 44
174 197 0
174 197 0
173 197 0
176 199 0
174 197 0
174 197 0
174 197 0
174 198 0
175 198 0
176 198 0
174 198 0
174 198 0
176 198 0
174 198 0
174 197 0
174 197 0
175 198 0
175 198 0
174 197 0
173 197 0
173 197 0
174 198 0
174 198 0
176 199 0
173 197 0
172 197 0
174 198 0
174 198 0
175 198 0
175 198 0
173 197 0
173 197 0
174 198 0
174 198 0
175 198 0
174 197 0
175 198 0
172 196 0
174 197 0
173 196 0
173 197 0
177 200 76
215 232 254
216 232 255
216 232 255
216 232 255
216 232 255
215 232 255
214 231 255
81 110 148
59 94 133
59 95 140
60 95 137
61 96 145
61 97 150
60 95 135
61 96 142
61 96 140
61 96 143
60 96 144
61 96 144
61 97 151
61 96 144
61 96 140
60 96 148
61 97 147
62 97 150
61 96 145
61 97 149
62 97 150
61 97 152
61 96 145
61 97 152
61 96 141
61 97 144
62 98 159
60 96 144
61 97 148
62 97 149
61 97 151
60 95 141
62 97 148
61 96 144
62 98 155
60 96 147
61 97 155
61 97 145
62 97 152
62 98 160
62 97 155
60 95 139
61 96 148
60 95 142
62 97 148
61 97 151
60 95 141
61 96 149
60 96 144
59 94 135
61 96 152
61 97 154
61 97 150
59 94 141
62 97 153
61 96 143
62 98 149
62 97 156
62 98 154
62 97 152
61 96 151
60 94 141
60 95 145
61 95 143
60 95 149
60 96 149
62 96 147
61 96 149
61 96 147
60 95 143
62 97 151
61 96 147
60 96 149
61 95 147
62 97 149
61 95 147
61 96 156
61 96 143
61 96 154
59 93 144
59 93 150
59 94 139
60 93 139
59 92 142
59 93 144
60 94 145
58 91 136
59 93 142
59 91 143
58 90 136
59 93 148
59 92 144
57 89 139
56 88 135
55 85 134
80 104 148
211 228 252
215 232 255
216 232 255
216 232 255
216 232 255
216 232 255
215 231 254
127 126 96
111 111 75
119 117 79
107 107 75
105 107 75
103 105 75
114 115 79
107 109 76
102 105 75
103 107 79
107 110 79
111 113 80
113 114 78
113 114 80
114 116 80
116 119 83
123 124 84
127 127 86
121 123 85
135 135 91
131 130 86
124 125 85
136 136 90
135 134 87
143 142 96
139 137 90
134 132 87
143 141 94
142 142 94
143 141 88
145 143 95
152 150 97
150 147 94
158 154 98
154 152 96
154 151 98
156 153 98
156 153 94
147 145 91
159 156 98
160 157 98
162 159 103
159 156 99
160 156 98
158 154 96
164 159 98
157 153 96
159 155 93
170 165 102
164 160 103
168 163 100
170 165 103
164 159 96
168 163 101
162 158 97
169 165 101
167 163 103
169 164 101
173 167 103
165 161 96
167 162 98
169 164 100
169 164 101
172 166 101
173 167 99
172 167 103
172 166 98
172 166 100
170 165 100
175 169 101
173 168 103
166 161 94
172 167 98
173 166 101
176 169 101
172 166 98
175 169 102
171 165 100
168 163 98
173 168 102
174 168 101
173 166 99
172 167 101
170 164 99
169 163 95
168 163 93
171 165 95
170 164 99
173 166 100
171 166 102
172 167 106
172 167 98
164 159 97
169 164 99
170 164 99
171 165 97
165 159 90
168 162 96
168 163 96
168 161 94
172 165 101
171 164 100
172 166 96
171 165 101
175 168 103
168 163 94
171 164 97
168 162 94
168 162 90
168 162 95
162 157 89
165 159 91
161 156 87
163 157 95
164 159 98
166 160 95
163 158 93
171 164 100
167 161 90
164 159 91
162 157 88
166 160 95
164 158 95
169 163 96
163 158 93
162 156 92
160 153 86
166 160 95
160 153 89
160 153 84
167 160 94
163 156 93
164 157 87
154 148 83
164 158 91
164 158 97
150 145 86
156 151 84
160 153 84
156 151 85
160 155 86
162 157 90
164 157 95
152 148 81
156 151 87
181 203 84
186 206 108
186 206 111
193 212 149
200 218 177
202 219 182
212 227 214
213 228 220
216 231 230
223 236 250
225 238 255
225 238 255
225 238 255
225 238 255
225 238 255
225 238 255
225 238 255
225 238 255
225 238 255
225 238 255
225 238 255
225 238 255
225 238 255
225 238 255
225 238 255
225 238 255
225 238 255
225 238 255
225 238 255
225 238 255
225 238 255
225 238 255
225 238 255
225 238 255
225 238 255
225 238 255
225 238 255
225 238 255
225 238 255
225 238 255
225 238 255
225 238 255
225 238 255
225 238 255
225 238 255
225 238 255
225 238 255
225 238 255
225 238 255
225 238 255
225 238 255
225 238 255
225 238 255
225 238 255
225 238 255
225 238 255
225 238 255
225 238 255
225 238 255
225 238 255
225 238 255
225 238 255
225 238 255
225 238 255
225 238 255
225 238 255
225 238 255
225 238 255
225 238 255
225 238 255
225 238 255
225 238 255
225 238 255
225 238 255
225 238 255
225 238 255
225 238 255
225 238 255
225 238 255
225 238 255
225 238 255
225 238 255
225 238 255
225 238 255
225 238 255
225 238 255
225 238 255
225 238 255
225 238 255
225 238 255
225 238 255
225 238 255
225 238 255
225 238 255
225 238 255
225 238 255
225 238 255
225 238 255
225 238 255
225 238 255
225 238 255
226 238 255
226 238 255
221 235 244
216 230 226
209 224 204
199 217 169
190 210 135
177 200 57
174 197 0
175 198 0
174 198 0
175 198 0
174 197 0
175 198 0
174 198 0
174 198 0
175 198 0
174 198 0
175 198 0
174 198 0
177 199 0
175 198 0
174 198 0
175 198 0
174 198 0
175 198 0
173 197 0
174 198 0
176 199 0
174 198 0
175 198 0
174 197 0
174 198 0
175 198 0
174 197 0
177 199 0
174 198 0
175 198 0
173 197 0
175 198 0
174 197 0
174 197 0
174 198 0
171 194 0
203 221 207
216 233 255
216 233 255
216 233 255
216 232 255
216 232 255
176 194 221
58 93 125
58 93 125
60 95 136
60 96 147
59 94 131
59 94 139
60 96 140
61 96 145
61 97 149
61 96 143
61 97 151
61 96 140
61 96 150
61 97 151
60 95 140
61 96 145
60 95 137
62 97 149
62 97 149
61 96 139
61 96 149
60 95 140
61 97 140
61 97 156
61 96 150
61 96 148
61 97 143
60 95 136
60 96 144
61 96 144
62 97 149
61 97 147
60 95 143
61 96 152
61 97 150
61 96 144
62 97 151
61 96 144
60 95 151
62 98 157
61 97 150
62 98 159
62 97 149
61 96 150
61 96 148
61 96 145
61 96 142
62 97 156
62 98 155
60 95 144
60 95 141
61 96 150
61 97 150
61 96 151
61 97 151
60 95 143
61 96 147
61 96 140
61 96 155
62 97 152
61 97 150
62 97 149
60 95 146
60 95 142
62 97 152
61 95 141
61 96 156
60 95 141
61 96 145
62 97 154
60 95 142
61 95 142
60 95 146
61 95 145
59 93 137
61 96 146
61 95 142
60 95 144
61 95 150
60 95 148
60 93 142
59 92 147
59 93 144
60 94 144
60 94 147
59 92 137
58 91 140
59 92 145
58 91 143
59 91 146
60 93 144
55 85 126
57 89 137
56 88 130
56 87 133
55 86 134
176 193 219
216 232 255
216 232 255
216 233 255
216 233 255
216 233 255
189 202 217
117 114 73
121 119 77
109 109 75
107 106 72
99 100 70
103 105 75
108 110 77
90 93 66
111 112 80
107 109 77
95 97 69
112 113 79
112 113 77
122 124 86
118 121 85
128 129 91
124 125 85
126 127 85
127 129 88
127 126 85
133 133 89
139 138 90
135 134 87
143 141 95
141 139 92
137 135 89
143 142 89
151 148 92
142 141 95
136 136 88
149 146 96
148 146 93
150 148 94
143 141 89
158 155 97
161 157 101
153 148 91
161 158 97
156 153 97
159 155 97
157 155 98
150 148 93
157 153 93
166 162 100
162 158 99
160 157 98
166 161 101
165 161 98
166 162 103
165 161 99
167 162 101
169 164 102
166 161 101
160 159 96
164 160 97
169 164 97
171 165 103
173 168 100
170 165 102
174 168 102
167 162 97
172 167 101
174 168 102
171 166 96
170 165 102
174 168 99
172 167 98
173 167 100
177 170 105
172 167 101
173 168 103
173 168 101
170 165 98
170 165 100
176 169 99
175 169 104
170 164 98
175 168 100
173 167 97
178 170 104
169 163 97
169 164 98
175 169 102
175 168 99
170 164 101
168 162 96
169 163 97
172 166 95
170 164 97
172 166 97
174 168 101
171 164 100
171 165 95
166 160 95
170 164 100
168 163 97
171 165 95
171 165 99
168 162 94
173 167 99
170 164 93
169 164 94
171 165 95
169 163 92
168 162 92
171 164 95
168 163 97
169 163 92
165 160 93
170 164 97
165 159 93
165 159 97
162 157 93
169 162 91
171 164 97
165 160 91
166 160 90
161 155 87
169 162 92
163 156 90
165 159 92
166 160 92
164 158 95
167 160 96
154 148 84
163 157 87
157 151 84
160 154 89
156 150 84
162 156 93
161 156 84
171 163 96
159 154 88
157 152 86
162 156 92
162 156 89
157 151 83
162 157 89
155 150 81
158 152 89
155 150 87
160 155 88
161 155 90
162 156 88
157 152 87
225 238 255
225 238 255
225 238 255
225 238 255
225 238 255
225 238 255
225 238 255
225 238 255
225 238 255
225 238 255
225 238 255
225 238 255
225 238 255
225 238 255
225 238 255
225 238 255
225 238 255
225 238 255
225 238 255
225 238 255
225 238 255
225 238 255
225 238 255
225 238 255
225 238 255
225 238 255
225 238 255
225 238 255
225 238 255
225 238 255
225 238 255
225 238 255
225 238 255
225 238 255
225 238 255
225 238 255
225 238 255
225 238 255
225 238 255
225 238 255
225 238 255
225 237 255
225 237 255
225 237 255
225 237 255
225 237 255
225 237 255
225 237 255
225 237 255
225 237 255
225 237 255
225 237 255
225 237 255
225 237 255
225 237 255
225 237 255
225 237 255
225 237 255
225 237 255
225 237 255
225 237 255
225 237 255
225 237 255
225 237 255
225 237 255
225 237 255
225 237 255
225 237 255
225 237 255
225 237 255
225 237 255
225 238 255
225 237 255
225 238 255
225 238 255
225 238 255
225 238 255
225 238 255
225 238 255
225 238 255
225 238 255
225 238 255
225 238 255
225 238 255
225 238 255
225 238 255
225 238 255
225 238 255
225 238 255
225 238 255
225 238 255
225 238 255
225 238 255
225 238 255
225 238 255
225 238 255
225 238 255
225 238 255
225 238 255
225 238 255
225 238 255
225 238 255
225 238 255
225 238 255
225 238 255
225 238 255
225 238 255
226 238 255
226 238 255
221 234 242
208 224 201
197 215 165
191 210 135
178 200 62
174 198 0
174 198 0
174 198 0
174 198 0
174 198 0
173 197 0
175 198 0
175 198 0
173 197 0
174 198 0
174 198 0
175 198 0
175 198 0
176 199 0
174 197 0
176 199 0
176 198 0
174 197 0
173 197 0
174 198 0
175 198 0
174 198 0
176 199 0
175 198 0
175 198 0
173 197 0
171 196 0
176 199 0
174 197 0
173 197 0
173 197 0
185 207 130
216 233 255
216 233 255
216 233 255
216 233 255
216 233 255
138 158 182
60 96 143
60 95 139
59 94 135
60 95 135
60 95 142
60 95 142
61 96 143
61 97 149
60 96 141
60 96 136
62 97 148
61 96 145
62 98 155
61 96 143
62 97 145
61 96 144
62 97 151
61 96 152
61 96 152
61 96 143
61 96 150
61 96 145
62 97 150
61 96 150
61 97 154
61 96 142
61 97 153
61 96 147
61 97 147
61 97 148
61 96 145
61 96 147
61 97 151
61 97 147
61 96 147
61 96 149
61 97 143
61 97 153
62 98 158
60 95 137
60 95 141
61 96 144
61 97 148
61 96 142
61 96 147
61 96 144
61 96 147
62 98 152
61 96 147
60 95 143
63 99 159
60 95 145
61 95 146
61 96 143
62 97 150
62 97 149
61 97 150
62 98 154
61 95 140
61 95 146
61 97 148
59 93 135
61 95 152
61 96 145
60 95 150
61 96 150
60 95 146
61 96 152
60 95 141
60 95 146
59 93 134
62 97 157
60 94 138
61 95 143
60 94 142
63 98 162
60 94 142
59 93 142
60 93 139
59 93 131
61 95 146
60 94 142
60 94 150
60 94 142
60 93 148
59 93 140
60 93 143
58 90 141
60 93 145
56 87 136
58 91 140
57 88 129
57 89 135
58 89 131
55 85 132
52 81 121
141 158 189
216 233 255
216 233 255
216 233 255
216 233 255
216 233 255
144 148 135
100 100 67
89 89 60
102 103 71
91 94 67
91 93 66
97 100 70
107 108 76
102 104 73
114 114 79
112 114 80
108 110 77
103 104 72
108 111 79
110 113 79
111 113 80
112 114 78
128 128 87
134 135 91
116 117 82
122 124 85
127 127 85
132 132 90
135 135 87
124 124 85
132 132 88
133 133 85
140 137 89
138 136 89
140 140 93
145 144 92
145 143 93
152 150 96
148 146 95
153 150 92
157 154 97
149 148 94
159 156 100
158 154 99
156 153 96
161 157 95
161 157 98
158 154 94
163 159 100
163 159 95
161 156 96
162 158 95
158 154 90
158 154 93
162 159 97
163 158 97
170 165 101
166 162 100
163 158 96
171 166 106
167 163 98
168 163 97
172 166 101
165 160 93
171 165 96
171 167 100
172 165 97
174 168 100
172 166 98
176 169 105
175 169 104
170 166 100
173 167 98
169 164 101
173 166 100
174 168 100
169 164 96
172 166 101
172 166 97
169 164 96
172 167 98
167 162 98
179 172 104
174 168 101
171 166 99
175 168 99
172 167 99
170 164 97
167 161 93
171 166 95
175 169 97
173 167 96
174 168 97
170 164 93
171 165 95
172 166 99
173 166 95
171 165 97
171 165 97
164 158 87
171 165 98
164 158 93
171 165 97
174 168 99
171 165 97
172 165 97
167 161 94
170 165 100
166 160 90
169 163 96
168 162 95
167 161 91
166 160 93
168 162 92
162 156 88
169 163 99
165 159 93
164 159 87
168 161 92
169 162 93
161 155 87
170 164 97
168 163 93
172 165 99
168 162 95
162 156 86
161 156 86
161 155 89
162 157 87
162 156 93
162 157 89
163 157 94
164 158 90
156 149 83
166 160 90
164 159 91
160 154 88
161 154 91
163 157 93
164 159 90
160 154 91
153 148 86
162 155 86
161 155 89
168 161 95
154 149 81
151 146 83
157 151 86
160 154 85
158 152 84
153 147 87
225 238 255
225 238 255
225 238 255
225 238 255
225 238 255
225 238 255
225 238 255
225 238 255
225 238 255
225 238 255
225 238 255
225 238 255
225 238 255
225 238 255
225 238 255
225 238 255
225 238 255
225 237 255
225 237 255
225 237 255
225 237 255
225 237 255
225 237 255
225 237 255
225 237 255
225 237 255
225 237 255
225 237 255
225 237 255
225 237 255
225 237 255
225 237 255
225 237 255
225 237 255
225 237 255
225 237 255
225 237 255
225 237 255
225 237 255
224 237 255
224 237 255
224 237 255
224 237 255
224 237 255
224 237 255
224 237 255
224 237 255
224 237 255
224 237 255
224 237 255
224 237 255
224 237 255
224 237 255
224 237 255
224 237 255
224 237 255
224 237 255
224 237 255
224 237 255
224 237 255
224 237 255
224 237 255
224 237 255
224 237 255
224 237 255
224 237 255
224 237 255
224 237 255
224 237 255
224 237 255
224 237 255
224 237 255
224 237 255
224 237 255
224 237 255
224 237 255
225 237 255
225 237 255
225 237 255
225 237 255
225 237 255
225 237 255
225 237 255
225 237 255
225 237 255
225 237 255
225 237 255
225 237 255
225 237 255
225 237 255
225 238 255
225 238 255
225 238 255
225 238 255
225 238 255
225 238 255
225 238 255
225 238 255
225 238 255
225 238 255
225 238 255
225 238 255
225 238 255
225 238 255
225 238 255
225 238 255
225 238 255
225 238 255
225 238 255
225 238 255
225 238 255
225 238 255
225 238 255
225 238 254
220 233 240
206 222 198
193 212 151
184 205 111
177 199 25
173 197 0
174 198 0
174 198 0
175 198 0
177 199 0
175 198 0
174 197 0
176 198 0
174 198 0
174 198 0
176 199 0
175 198 0
174 198 0
174 198 0
174 198 0
175 198 0
174 198 0
175 198 0
174 198 0
175 198 0
175 198 0
172 196 0
173 197 0
174 197 0
173 197 0
174 197 0
174 197 25
211 228 237
216 233 255
216 233 255
216 233 255
212 229 252
65 98 125
59 94 122
59 94 121
60 95 134
59 94 129
60 95 141
60 95 129
61 96 145
60 95 137
61 96 149
61 96 141
60 95 141
61 96 147
61 96 142
61 96 143
61 97 149
61 96 144
60 96 144
61 97 152
61 97 151
60 95 148
61 96 148
61 97 149
61 96 147
62 97 155
62 98 151
60 95 139
61 97 145
61 96 147
61 97 150
60 95 140
61 95 139
60 95 137
61 97 148
62 98 153
60 95 142
62 97 152
61 96 147
62 97 151
60 95 143
61 96 145
61 96 149
61 96 148
60 95 141
61 96 151
61 96 148
59 94 139
61 97 156
61 96 149
62 97 151
61 97 154
61 96 146
61 96 144
61 96 148
60 96 142
61 96 140
61 96 151
60 96 143
61 96 143
62 97 152
61 97 148
61 95 148
60 95 147
59 93 136
60 95 146
62 97 154
60 95 143
60 95 142
61 95 146
60 95 148
60 94 139
61 96 145
62 96 153
61 96 149
60 94 134
59 92 140
60 95 139
61 95 153
60 94 140
61 96 153
59 94 149
60 95 147
60 94 147
58 92 129
58 91 131
58 92 142
60 93 141
60 94 143
58 91 139
58 91 141
60 94 147
57 90 137
57 88 130
58 90 145
56 86 128
56 88 142
55 85 128
68 92 133
212 228 251
216 233 255
216 233 255
216 233 255
205 219 237
99 97 63
110 109 75
99 100 71
98 100 68
84 88 63
100 101 69
96 99 69
104 106 75
92 96 69
110 112 77
105 107 75
112 114 80
107 110 78
120 122 86
111 114 81
111 112 79
123 125 85
118 118 80
123 122 82
129 129 86
126 125 84
126 128 87
132 131 85
130 130 88
128 129 85
143 141 91
127 128 85
139 138 90
146 145 95
139 139 93
144 144 93
145 143 91
154 151 94
144 143 92
159 155 95
147 145 94
152 149 93
155 152 97
156 152 97
147 145 91
162 157 98
158 154 98
161 156 98
156 153 93
166 161 98
165 161 94
159 156 95
161 158 96
163 159 100
167 162 98
164 160 96
168 163 99
168 163 97
169 164 102
167 161 99
167 161 97
171 166 99
162 158 90
170 165 99
170 165 100
171 165 98
172 167 97
168 163 96
168 163 98
167 162 92
169 164 99
173 167 96
168 163 97
164 159 91
170 164 97
169 163 98
169 163 93
175 169 100
170 164 99
175 168 97
174 168 99
175 169 99
171 165 96
173 168 97
167 162 97
176 169 101
167 162 91
174 168 101
171 165 94
168 162 92
169 164 95
173 167 97
174 168 100
169 164 94
172 166 99
171 165 95
173 166 98
170 164 97
172 165 98
172 166 98
172 165 95
170 163 96
168 162 90
168 163 90
167 162 93
166 160 94
167 161 97
172 164 97
171 164 97
170 164 96
171 164 95
164 158 92
168 163 95
166 160 90
166 161 92
169 163 97
169 163 95
165 160 89
167 161 94
163 157 93
165 160 90
163 158 90
164 159 87
169 163 91
172 166 97
168 162 98
160 154 86
162 156 93
168 162 97
165 160 90
163 156 86
163 157 91
163 157 88
167 161 91
159 154 88
158 152 87
162 156 87
156 151 86
152 148 82
160 154 90
155 150 87
159 153 85
164 158 92
155 150 83
159 154 90
159 153 87
158 151 87
154 149 84
157 151 86
154 148 80
154 149 84
225 238 255
225 237 255
225 237 255
225 237 255
225 237 255
225 237 255
225 237 255
225 237 255
225 237 255
225 237 255
225 237 255
225 237 255
225 237 255
225 237 255
225 237 255
224 237 255
224 237 255
224 237 255
224 237 255
224 237 255
224 237 255
224 237 255
224 237 255
224 237 255
224 237 255
224 237 255
224 237 255
224 237 255
224 237 255
224 237 255
224 237 255
224 237 255
224 237 255
224 237 255
224 237 255
224 237 255
224 237 255
224 237 255
224 237 255
224 237 255
224 237 255
224 237 255
224 237 255
224 237 255
224 237 255
224 237 255
224 237 255
224 237 255
224 237 255
224 237 255
224 237 255
224 237 255
224 237 255
224 237 255
224 237 255
224 237 255
224 237 255
224 237 255
224 237 255
224 237 255
224 237 255
224 237 255
224 237 255
224 237 255
224 237 255
224 237 255
224 237 255
224 237 255
224 237 255
224 237 255
224 237 255
224 237 255
224 237 255
224 237 255
224 237 255
224 237 255
224 237 255
224 237 255
224 237 255
224 237 255
224 237 255
224 237 255
224 237 255
224 237 255
224 237 255
224 237 255
224 237 255
224 237 255
224 237 255
224 237 255
224 237 255
224 237 255
225 237 255
225 237 255
225 237 255
225 237 255
225 237 255
225 237 255
225 237 255
225 237 255
225 237 255
225 238 255
225 238 255
225 238 255
225 238 255
225 238 255
225 238 255
225 238 255
225 238 255
225 238 255
225 238 255
225 238 255
225 238 255
225 238 255
225 238 255
225 238 255
225 238 255
225 238 255
224 236 250
214 229 223
203 220 184
190 210 133
177 199 44
176 198 0
173 197 0
175 198 0
174 198 0
175 198 0
174 197 0
175 198 0
175 198 0
174 198 0
174 198 0
174 198 0
174 198 0
173 197 0
174 197 0
175 198 0
176 198 0
174 197 0
174 197 0
174 197 0
173 196 0
174 197 0
173 197 0
175 198 0
191 211 159
217 233 255
217 233 255
217 233 255
173 191 211
59 93 121
59 93 118
60 95 133
59 95 133
59 95 135
60 96 141
61 96 135
62 97 150
60 95 131
60 95 139
61 97 147
61 97 150
61 96 140
61 96 144
61 96 140
60 95 137
61 96 144
62 98 150
62 97 151
62 97 144
60 95 142
60 96 142
61 97 148
63 98 157
62 97 147
61 97 148
61 96 145
62 97 153
61 97 148
62 97 148
60 95 145
62 98 157
61 96 144
62 97 149
61 96 147
60 95 142
61 96 149
60 95 147
61 97 149
61 96 149
61 96 148
60 95 140
60 95 135
61 96 142
59 94 141
61 95 149
60 95 142
60 95 139
62 97 154
61 96 151
61 97 154
62 98 155
63 98 162
61 97 151
61 96 150
61 97 144
62 97 150
61 96 144
60 95 142
60 95 140
61 96 145
60 95 144
61 96 151
60 95 140
60 95 156
60 96 144
60 95 145
60 94 133
60 95 131
61 96 146
61 96 150
61 96 150
61 96 153
60 95 148
61 96 151
62 96 149
58 92 134
59 93 145
58 92 134
60 95 148
60 94 140
59 92 141
59 92 136
60 94 146
60 93 150
60 94 148
59 93 143
58 91 141
58 91 134
58 90 134
60 94 148
59 92 143
58 90 136
58 90 137
57 88 136
57 88 134
57 89 140
55 84 129
173 189 216
217 233 255
217 233 255
217 233 255
167 177 183
106 104 64
92 93 61
100 101 70
88 89 61
81 83 59
89 91 66
88 91 65
107 108 74
99 101 72
92 97 69
101 104 73
114 115 79
107 110 78
95 99 70
111 112 77
109 111 78
126 126 85
108 110 76
128 129 89
130 130 86
112 114 79
124 125 81
136 135 89
130 130 86
138 137 91
136 136 90
135 134 86
141 140 89
145 143 93
138 136 86
143 143 91
147 146 91
145 142 87
155 152 97
145 143 89
156 151 94
149 147 91
156 154 97
159 156 95
159 155 96
156 153 93
156 152 92
157 154 92
168 163 101
165 159 97
163 159 95
161 157 94
166 161 95
170 164 100
166 162 100
163 159 96
160 155 94
162 158 92
164 159 94
170 165 97
163 159 91
171 165 101
172 166 98
166 162 96
172 166 98
167 163 97
171 166 98
172 166 96
163 159 93
174 168 98
173 167 99
167 162 94
171 166 97
172 166 97
174 169 99
171 166 93
173 167 99
172 166 98
172 166 95
172 166 94
170 164 95
169 164 97
165 160 92
172 166 100
172 165 95
169 163 90
171 164 96
169 163 94
171 165 92
171 165 97
170 164 93
168 162 91
172 166 89
169 163 96
173 166 93
173 166 99
169 164 93
165 159 88
170 163 94
168 162 91
174 167 99
166 160 90
166 160 96
170 163 95
168 161 93
171 165 93
169 164 90
172 166 97
169 163 93
169 164 95
166 161 91
168 162 95
166 160 87
174 167 97
167 161 90
164 159 88
165 159 88
157 152 88
166 159 93
167 162 92
168 161 92
168 161 89
168 161 95
162 156 88
162 156 90
165 159 87
158 152 86
169 163 92
164 159 84
165 159 88
164 158 88
157 152 85
168 162 97
161 156 85
156 150 80
167 161 91
168 161 93
162 156 90
157 151 82
152 146 82
159 153 85
160 154 84
161 154 90
161 155 84
160 154 86
166 160 88
151 146 79
159 153 83
148 144 80
158 154 84
153 148 87
224 237 255
224 237 255
224 237 255
224 237 255
224 237 255
224 237 255
224 237 255
224 237 255
224 237 255
224 237 255
224 237 255
224 237 255
224 237 255
224 237 255
224 237 255
224 237 255
224 237 255
224 237 255
224 237 255
224 237 255
224 237 255
224 237 255
224 237 255
224 237 255
224 237 255
224 237 255
224 237 255
224 237 255
224 237 255
224 237 255
224 237 255
224 237 255
224 237 255
224 237 255
224 237 255
224 237 255
224 237 255
224 237 255
224 237 255
224 237 255
224 237 255
224 237 255
224 237 255
224 237 255
224 237 255
224 237 255
224 237 255
224 237 255
224 237 255
224 237 255
224 237 255
224 237 255
224 237 255
224 237 255
224 237 255
224 237 255
224 237 255
224 237 255
224 237 255
224 237 255
224 237 255
224 237 255
224 237 255
224 237 255
224 237 255
224 237 255
224 237 255
224 237 255
224 237 255
224 237 255
224 237 255
224 237 255
224 237 255
224 237 255
224 237 255
224 237 255
224 237 255
224 237 255
224 237 255
224 237 255
224 237 255
224 237 255
224 237 255
224 237 255
224 237 255
224 237 255
224 237 255
224 237 255
224 237 255
224 237 255
224 237 255
224 237 255
224 237 255
224 237 255
224 237 255
224 237 255
224 237 255
224 237 255
224 237 255
224 237 255
224 237 255
224 237 255
224 237 255
225 237 255
225 237 255
225 237 255
225 237 255
225 237 255
225 238 255
225 238 255
225 238 255
225 238 255
225 238 255
225 238 255
225 238 255
225 238 255
225 238 255
225 238 255
225 238 255
225 238 255
225 238 255
225 238 255
224 236 250
212 227 217
201 218 181
183 205 102
176 199 25
175 198 0
173 197 0
174 197 0
173 197 0
175 198 0
174 197 0
174 198 0
174 198 0
175 198 0
173 197 0
175 198 0
175 198 0
173 197 0
174 197 0
174 198 0
175 198 0
174 197 0
173 197 0
174 197 0
179 202 88
217 233 255
217 233 255
217 233 255
149 168 186
59 94 121
59 94 121
59 94 133
59 94 135
61 96 142
60 95 133
61 96 143
62 97 147
60 95 137
60 96 143
61 96 144
60 95 137
60 95 139
60 94 136
61 96 142
62 97 148
61 96 142
61 96 142
60 95 136
61 97 148
60 95 144
61 97 150
60 95 134
60 94 141
61 96 144
61 97 153
61 97 149
60 95 145
61 96 149
61 96 140
61 96 145
62 97 155
61 96 141
61 96 145
59 94 136
61 96 145
60 94 133
60 94 139
61 96 145
61 96 149
61 97 147
59 94 128
60 94 137
61 95 142
61 96 149
60 96 139
62 97 154
60 95 144
61 96 145
60 96 145
61 97 147
62 97 147
60 94 136
62 97 147
60 95 140
61 96 146
61 97 145
62 97 152
62 96 147
61 96 147
61 96 142
60 95 145
61 95 141
60 95 141
61 96 148
61 96 150
61 95 148
61 95 146
61 96 146
60 95 147
61 96 146
58 92 133
60 93 137
61 96 148
60 95 140
59 94 142
61 96 139
59 93 137
60 95 140
60 94 142
61 95 148
60 94 142
58 91 136
60 93 140
58 91 131
60 94 146
58 91 143
59 90 135
58 91 132
58 91 142
57 88 132
56 88 136
57 89 138
59 92 146
57 89 136
55 86 129
52 82 126
54 85 134
124 141 168
217 233 255
217 233 255
217 233 255
132 133 114
95 95 62
98 98 68
96 97 66
80 83 60
65 69 52
89 93 68
93 96 68
90 95 68
107 109 76
98 101 72
87 92 67
115 117 81
103 106 76
98 101 71
102 105 74
106 109 77
110 112 76
112 115 78
112 113 77
126 127 84
113 114 78
132 131 84
130 129 84
116 117 76
136 135 88
145 143 90
136 135 88
137 135 84
139 138 89
149 147 92
145 143 89
147 145 89
142 139 87
149 146 91
148 146 89
146 143 92
160 156 95
147 143 90
161 158 97
155 152 92
160 155 91
155 152 91
164 160 99
158 154 92
160 156 96
163 159 98
159 156 93
163 158 99
164 159 96
167 161 95
161 156 92
165 161 92
171 166 103
167 162 96
168 163 96
167 162 95
167 163 99
164 159 91
168 163 97
169 163 97
172 166 95
167 162 95
171 165 91
172 166 99
172 166 94
171 165 97
169 164 98
169 164 93
171 165 98
173 167 98
173 167 95
170 165 95
170 165 98
167 163 92
176 170 102
174 168 97
170 164 91
173 166 93
170 164 90
179 172 104
168 163 93
174 168 95
174 168 99
172 166 96
172 166 95
166 161 93
175 168 96
174 167 97
168 162 93
167 162 93
173 167 97
175 169 100
168 162 90
168 162 88
171 164 94
175 168 98
170 164 95
169 163 95
165 160 95
172 164 95
169 163 95
172 165 94
169 163 92
169 163 87
166 161 92
173 166 98
171 164 95
167 161 93
169 163 93
162 156 84
169 162 93
169 162 94
166 160 91
169 163 91
165 159 90
164 159 84
161 156 87
163 157 91
166 161 90
166 160 89
165 158 93
163 157 90
169 162 90
157 151 84
169 163 92
165 159 90
165 159 85
162 156 89
159 154 85
168 161 95
160 154 86
156 150 86
168 160 96
162 156 88
161 155 91
164 157 90
163 156 90
159 153 89
167 160 92
160 154 85
159 152 83
156 151 86
151 145 78
160 154 90
160 154 83
160 155 81
224 237 255
224 237 255
224 237 255
224 237 255
224 237 255
224 237 255
224 237 255
224 237 255
224 237 255
224 237 255
224 237 255
224 237 255
224 237 255
224 237 255
224 237 255
224 237 255
224 237 255
224 237 255
224 237 255
224 237 255
224 237 255
224 237 255
224 237 255
224 237 255
224 237 255
224 237 255
224 237 255
224 237 255
224 237 255
224 237 255
224 237 255
224 237 255
224 237 255
224 237 255
224 237 255
224 237 255
224 237 255
224 237 255
224 237 255
224 237 255
224 237 255
224 237 255
224 237 255
224 237 255
224 237 255
224 237 255
224 237 255
224 237 255
224 237 255
224 237 255
224 237 255
224 237 255
224 237 255
224 237 255
224 237 255
224 237 255
224 237 255
224 237 255
224 237 255
224 237 255
224 237 255
224 237 255
224 237 255
224 237 255
224 237 255
224 237 255
224 237 255
224 237 255
224 237 255
224 237 255
224 237 255
224 237 255
224 237 255
224 237 255
224 237 255
224 237 255
224 237 255
224 237 255
224 237 255
224 237 255
224 237 255
224 237 255
224 237 255
224 237 255
224 237 255
224 237 255
224 237 255
224 237 255
224 237 255
224 237 255
224 237 255
224 237 255
224 237 255
224 237 255
224 237 255
224 237 255
224 237 255
224 237 255
224 237 255
224 237 255
224 237 255
224 237 255
224 237 255
224 237 255
224 237 255
224 237 255
224 237 255
224 237 255
224 237 255
224 237 255
225 237 255
225 237 255
225 237 255
225 237 255
225 237 255
225 238 255
225 238 255
225 238 255
225 238 255
225 238 255
225 238 255
225 238 255
225 238 255
225 238 255
225 238 255
225 238 255
221 234 241
209 224 204
194 213 151
180 202 76
174 198 0
175 198 0
175 198 0
175 198 0
175 198 0
175 198 0
174 198 0
174 198 0
174 198 0
173 197 0
173 197 0
173 197 0
173 197 0
176 199 0
174 197 0
174 198 0
174 197 0
210 227 230
217 233 255
216 232 254
91 117 140
59 93 118
59 94 129
59 94 135
60 95 133
60 94 128
60 95 136
60 95 129
59 94 130
61 96 142
60 95 139
60 95 136
62 97 144
62 97 152
60 95 135
60 95 142
61 97 151
61 96 141
60 95 143
61 96 145
61 96 144
61 96 144
62 97 147
62 97 149
60 95 144
61 96 144
61 96 149
61 96 150
61 96 141
60 95 136
61 97 145
62 97 150
61 97 145
61 96 140
61 96 143
62 97 153
61 96 149
61 96 144
61 96 145
61 96 143
61 95 140
61 96 145
61 96 144
61 96 148
61 97 147
61 96 143
62 97 156
61 95 136
62 97 152
61 96 142
61 96 141
60 95 140
60 95 145
60 95 144
61 96 148
60 95 133
61 96 142
61 96 147
61 95 140
62 97 152
61 97 149
61 95 145
61 96 142
61 95 145
61 97 153
61 95 144
61 95 142
61 96 152
61 95 145
61 95 146
61 96 144
61 95 145
61 95 140
60 95 140
60 94 147
60 94 140
60 94 142
61 96 142
59 93 137
59 92 144
58 91 135
59 93 135
61 95 142
59 93 134
59 93 141
59 92 138
61 94 147
59 92 136
58 91 139
58 91 137
58 91 138
57 89 131
56 88 124
56 88 136
58 90 137
56 87 130
56 87 135
55 86 136
54 83 131
98 117 146
217 233 255
217 233 255
200 214 230
105 104 65
104 104 70
103 103 69
86 88 63
89 92 65
95 97 69
85 89 63
89 92 65
89 94 69
93 96 68
95 98 70
102 104 74
92 96 72
103 106 74
89 93 67
108 110 78
121 122 82
113 114 76
103 106 76
123 124 84
116 118 76
118 120 79
127 126 80
115 116 75
130 129 84
134 133 84
138 137 89
129 128 83
139 137 87
144 144 92
144 142 86
148 146 89
141 140 90
150 148 96
148 146 90
154 150 94
156 153 92
147 145 94
157 153 94
163 159 98
156 152 88
154 150 91
159 156 98
160 155 93
164 158 96
151 147 87
164 159 94
163 160 96
162 158 94
168 162 98
168 164 99
162 157 93
168 162 97
167 162 92
167 163 97
164 161 97
164 160 95
167 163 97
167 162 100
166 160 89
175 168 99
173 167 99
171 165 98
168 164 97
171 164 96
171 165 97
166 161 100
170 164 95
172 166 94
168 163 95
171 166 96
170 164 92
170 165 98
175 168 98
173 166 95
173 167 98
177 171 100
171 165 98
170 165 92
173 166 96
171 166 95
173 167 94
174 168 100
174 167 97
171 165 96
173 167 96
170 164 90
172 165 92
174 167 93
172 165 94
173 165 95
171 164 95
168 162 89
171 165 93
166 161 86
169 163 92
168 162 95
168 162 90
170 163 94
176 169 101
172 166 97
167 161 90
168 161 94
164 159 93
171 165 94
168 162 96
170 164 89
166 160 87
168 161 93
165 159 90
165 160 88
169 163 92
169 162 92
175 168 97
165 160 92
164 159 87
160 154 86
165 159 89
164 158 92
164 158 92
161 155 83
165 159 90
158 153 85
166 160 91
167 160 91
166 160 93
161 154 90
168 162 97
165 160 93
159 154 87
158 152 83
167 161 93
158 152 85
166 160 90
161 155 86
167 160 92
162 155 87
163 157 87
160 154 89
158 153 84
155 150 87
154 148 84
158 152 84
157 151 82
158 152 79
157 152 84
156 150 85
224 237 255
224 237 255
224 237 255
224 237 255
224 237 255
224 237 255
224 237 255
224 237 255
224 237 255
224 237 255
224 237 255
224 237 255
224 237 255
224 237 255
224 237 255
224 237 255
224 237 255
224 237 255
224 237 255
224 237 255
224 237 255
224 237 255
224 237 255
224 237 255
224 237 255
224 237 255
224 237 255
224 237 255
224 237 255
224 237 255
224 237 255
224 237 255
224 237 255
224 237 255
224 237 255
224 237 255
224 237 255
224 237 255
224 237 255
224 237 255
224 237 255
224 237 255
224 237 255
224 237 255
224 237 255
224 237 255
224 237 255
224 237 255
224 237 255
224 237 255
224 237 255
224 237 255
224 237 255
224 237 255
224 237 255
224 237 255
224 237 255
224 237 255
224 237 255
224 237 255
224 237 255
224 237 255
224 237 255
224 237 255
224 237 255
224 237 255
224 237 255
224 237 255
224 237 255
224 237 255
224 237 255
224 237 255
224 237 255
224 237 255
224 237 255
224 237 255
224 237 255
224 237 255
224 237 255
224 237 255
224 237 255
224 237 255
224 237 255
224 237 255
224 237 255
224 237 255
224 237 255
224 237 255
224 237 255
224 237 255
224 237 255
224 237 255
224 237 255
224 237 255
224 237 255
224 237 255
224 237 255
224 237 255
224 237 255
224 237 255
224 237 255
224 237 255
224 237 255
224 237 255
224 237 255
224 237 255
224 237 255
224 237 255
224 237 255
224 237 255
224 237 255
224 237 255
224 237 255
224 237 255
224 237 255
224 237 255
224 237 255
225 237 255
225 237 255
225 237 255
225 238 255
225 238 255
225 238 255
225 238 255
225 238 255
225 238 255
225 238 255
225 238 255
225 238 255
225 237 253
219 232 236
204 221 189
181 203 88
173 197 0
174 198 0
174 198 0
174 197 0
174 197 0
176 199 0
174 198 0
174 198 0
174 198 0
174 198 0
174 198 0
174 198 0
175 198 0
173 197 0
195 214 173
218 234 255
197 214 236
59 93 114
60 95 124
60 95 133
60 95 130
59 94 125
60 95 128
60 94 131
62 97 150
62 97 154
60 95 128
62 97 147
62 98 154
62 97 152
61 97 149
61 96 143
62 98 155
60 96 141
62 97 143
62 97 149
62 97 148
60 95 140
61 96 147
62 97 153
60 95 144
61 96 139
60 95 141
60 96 143
61 96 143
61 96 147
61 96 145
60 95 141
62 97 149
61 96 141
61 96 143
61 96 147
61 96 148
61 96 144
61 97 149
61 96 147
61 96 139
61 95 139
60 96 147
61 96 142
60 95 143
61 95 136
61 96 144
60 96 143
61 97 147
61 95 140
60 95 136
60 95 140
60 95 139
61 96 141
60 95 143
61 96 139
60 96 147
61 96 143
60 95 139
60 94 134
61 96 136
60 94 142
61 96 147
60 95 137
60 95 147
60 95 142
59 94 139
60 94 134
61 96 143
61 96 147
61 96 145
60 95 142
60 94 142
61 96 147
60 95 141
61 96 151
61 94 147
60 94 138
60 95 147
60 93 134
59 94 135
59 93 140
60 94 142
59 92 137
61 96 145
59 92 141
58 91 134
59 92 133
60 94 145
59 92 142
56 88 129
59 91 134
57 89 126
57 88 133
58 90 129
59 91 141
56 87 128
57 88 126
55 85 130
53 83 130
50 77 114
202 218 238
218 234 255
170 180 188
97 97 66
102 102 68
91 91 63
83 84 57
79 82 59
71 75 56
89 90 62
82 86 63
85 90 65
90 94 66
94 96 69
86 91 66
95 97 69
87 90 63
92 97 71
112 113 75
101 104 73
109 111 77
109 111 74
128 127 85
111 113 77
129 128 83
125 126 83
132 131 81
130 129 85
138 137 87
141 140 86
138 138 91
136 135 85
133 132 83
142 140 88
155 151 95
143 141 86
138 137 81
147 145 85
149 146 89
153 150 93
147 145 86
144 142 87
156 152 89
152 150 92
157 153 93
161 157 96
151 147 91
155 151 88
160 155 91
160 157 94
170 164 100
165 160 94
162 158 93
161 158 92
164 159 95
166 162 97
162 158 92
169 163 94
168 163 97
166 161 96
164 159 93
167 161 96
166 160 91
165 160 91
169 163 94
163 158 94
172 166 97
174 168 98
174 168 100
169 164 95
167 161 93
173 166 100
174 167 97
165 161 93
166 162 89
173 166 100
174 168 99
173 167 97
176 169 99
171 165 97
171 165 93
173 167 95
174 167 96
171 164 93
169 162 92
173 167 95
176 169 99
174 167 97
173 167 99
179 171 103
170 164 93
170 164 91
171 165 95
168 162 92
171 165 96
167 161 95
174 167 98
170 164 95
164 159 88
166 160 90
169 162 90
171 164 85
168 161 90
165 159 86
168 162 93
169 162 93
170 163 92
166 160 93
168 162 89
167 160 87
172 166 96
167 161 84
167 161 87
162 157 90
169 163 95
163 157 87
167 161 90
169 163 95
166 159 89
168 162 90
159 153 87
168 161 93
166 160 91
162 156 84
165 160 93
162 155 90
170 163 97
170 163 93
164 158 85
168 161 93
161 154 86
161 155 90
166 159 90
163 158 87
163 157 86
164 158 95
161 155 85
161 155 84
164 158 84
163 156 87
168 161 91
159 152 87
160 155 88
156 150 86
163 157 88
159 153 84
153 148 86
161 154 86
158 153 84
152 145 75
224 237 255
224 237 255
224 237 255
224 237 255
224 237 255
224 237 255
224 237 255
224 237 255
224 237 255
224 237 255
224 237 255
224 237 255
224 237 255
224 237 255
224 237 255
224 237 255
224 237 255
224 237 255
224 237 255
224 237 255
224 237 255
224 237 255
224 237 255
224 237 255
224 237 255
224 237 255
224 237 255
223 237 255
223 237 255
223 237 255
223 237 255
223 237 255
223 237 255
223 237 255
223 237 255
223 237 255
223 237 255
223 237 255
223 237 255
223 237 255
223 237 255
223 237 255
223 237 255
223 237 255
223 237 255
223 237 255
223 237 255
223 237 255
223 237 255
223 237 255
223 237 255
223 237 255
223 237 255
223 237 255
223 237 255
223 237 255
223 237 255
223 237 255
223 237 255
223 237 255
223 237 255
223 237 255
223 237 255
223 237 255
223 237 255
223 237 255
223 237 255
223 237 255
223 237 255
223 237 255
223 237 255
223 237 255
223 237 255
223 237 255
223 237 255
223 237 255
223 237 255
223 237 255
223 237 255
223 237 255
223 237 255
223 237 255
223 237 255
223 237 255
223 237 255
223 237 255
224 237 255
224 237 255
224 237 255
224 237 255
224 237 255
224 237 255
224 237 255
224 237 255
224 237 255
224 237 255
224 237 255
224 237 255
224 237 255
224 237 255
224 237 255
224 237 255
224 237 255
224 237 255
224 237 255
224 237 255
224 237 255
224 237 255
224 237 255
224 237 255
224 237 255
224 237 255
224 237 255
224 237 255
224 237 255
224 237 255
224 237 255
224 237 255
224 237 255
224 237 255
224 237 255
224 237 255
225 237 255
225 237 255
225 237 255
225 238 255
225 238 255
225 238 255
225 238 255
225 238 255
225 238 255
225 238 255
225 238 255
219 232 236
199 217 169
186 207 117
173 197 0
174 197 0
174 198 0
175 198 0
176 199 0
174 198 0
173 197 0
173 197 0
174 198 0
173 197 0
172 196 0
181 203 92
218 234 255
172 189 212
61 96 140
60 95 125
61 96 133
61 96 139
62 97 139
59 94 124
60 95 141
62 97 147
61 96 150
61 96 145
60 95 140
62 97 149
60 95 133
62 97 145
60 95 143
61 96 141
60 96 139
61 96 139
61 97 148
60 94 135
61 96 139
63 98 153
60 95 144
60 95 141
61 96 152
62 97 143
61 97 149
62 98 147
62 97 150
61 96 148
61 96 144
61 96 149
61 96 140
61 96 141
61 96 145
61 97 149
61 96 142
62 97 149
62 97 150
60 95 144
62 97 150
61 97 147
61 96 148
60 95 137
60 95 137
60 95 136
61 97 145
62 97 148
59 94 131
61 96 143
60 94 134
60 95 149
61 96 140
60 94 139
60 95 149
60 95 144
60 95 143
60 94 140
61 96 149
60 95 144
61 96 149
61 96 143
60 95 142
61 96 149
61 96 143
60 95 141
61 96 151
60 94 139
62 97 150
60 95 139
61 95 151
60 94 133
60 94 144
61 95 148
60 95 144
60 94 137
61 95 136
61 95 142
62 97 157
60 94 137
61 96 150
62 96 150
58 91 131
58 91 137
60 94 148
58 91 134
59 92 135
60 94 141
59 92 139
59 92 141
56 88 128
56 87 120
60 93 148
58 90 132
56 87 126
55 86 125
55 85 120
57 88 132
55 85 124
49 74 102
172 187 210
218 234 255
122 126 115
85 85 54
88 88 57
99 99 66
80 81 56
60 64 48
79 81 57
73 77 56
89 93 68
88 92 66
78 83 60
84 89 63
101 104 72
87 91 66
99 102 70
92 95 63
108 111 74
108 112 78
106 108 74
97 99 66
112 113 74
110 111 71
118 119 78
129 129 83
123 124 79
133 130 80
131 130 87
140 139 86
135 133 83
132 131 86
138 136 88
153 150 94
137 136 80
145 143 88
146 144 88
141 139 90
157 153 90
158 154 93
155 152 94
152 149 89
151 148 89
155 151 95
153 150 92
153 149 89
156 153 90
149 147 86
158 154 93
156 153 87
160 156 92
161 157 92
164 160 98
160 155 92
164 160 96
166 161 95
165 161 94
168 162 95
159 156 89
167 161 97
170 164 96
170 165 95
166 159 88
170 165 93
171 165 96
171 165 96
171 166 97
163 159 84
173 167 99
171 166 97
168 163 91
171 165 93
171 165 91
171 166 95
172 165 95
169 163 90
178 171 104
173 166 96
169 164 93
171 166 96
170 164 90
170 164 89
169 164 91
173 167 96
169 163 93
172 166 91
170 164 96
172 166 93
165 159 91
169 163 95
170 164 92
171 164 93
167 161 86
176 169 96
172 165 93
170 164 88
167 161 93
171 164 95
171 164 97
168 163 95
168 162 93
175 168 98
170 163 95
165 160 91
169 162 90
168 162 91
167 161 90
168 162 90
172 165 95
167 161 89
166 160 88
170 164 94
163 157 80
168 162 90
165 159 90
166 161 88
164 158 89
162 156 87
160 155 87
167 161 91
165 159 89
167 160 86
167 161 84
163 156 88
158 152 77
160 155 90
166 160 94
170 163 95
160 155 86
170 163 91
158 151 83
165 159 90
168 161 92
163 157 87
163 157 90
170 163 91
157 150 84
166 160 95
161 155 83
152 147 76
157 151 85
161 154 84
157 151 84
156 152 81
165 159 89
164 158 90
157 151 82
165 158 85
157 151 84
162 155 87
224 237 255
224 237 255
223 237 255
223 237 255
223 237 255
223 237 255
223 237 255
223 237 255
223 237 255
223 237 255
223 237 255
223 237 255
223 237 255
223 237 255
223 237 255
223 237 255
223 237 255
223 237 255
223 237 255
223 237 255
223 237 255
223 237 255
223 237 255
223 237 255
223 237 255
223 237 255
223 237 255
223 237 255
223 237 255
223 237 255
223 237 255
223 237 255
223 237 255
223 237 255
223 237 255
223 237 255
223 237 255
223 237 255
223 237 255
223 237 255
223 237 255
223 237 255
223 237 255
223 237 255
223 237 255
223 237 255
223 237 255
223 237 255
223 237 255
223 237 255
223 237 255
223 237 255
223 237 255
223 237 255
223 237 255
223 237 255
223 237 255
223 237 255
223 237 255
223 237 255
223 237 255
223 237 255
223 237 255
223 237 255
223 237 255
223 237 255
223 237 255
223 237 255
223 237 255
223 237 255
223 237 255
223 237 255
223 237 255
223 237 255
223 237 255
223 237 255
223 237 255
223 237 255
223 237 255
223 237 255
223 237 255
223 237 255
223 237 255
223 237 255
223 237 255
223 237 255
223 237 255
223 237 255
223 237 255
223 237 255
223 237 255
223 237 255
223 237 255
223 237 255
223 237 255
223 237 255
223 237 255
223 237 255
223 237 255
223 237 255
223 237 255
223 237 255
224 237 255
224 237 255
224 237 255
224 237 255
224 237 255
224 237 255
224 237 255
224 237 255
224 237 255
224 237 255
224 237 255
224 237 255
224 237 255
224 237 255
224 237 255
224 237 255
224 237 255
224 237 255
224 237 255
224 237 255
224 237 255
224 237 255
224 237 255
224 237 255
224 237 255
224 237 255
225 237 255
225 237 255
225 238 255
225 238 255
225 238 255
225 238 255
225 238 255
225 238 255
217 231 231
204 221 191
184 205 105
174 198 0
175 198 0
172 197 0
173 197 0
175 198 0
172 197 0
173 197 0
174 197 0
174 197 36
216 232 249
156 174 197
60 95 129
60 95 133
61 96 143
61 96 142
62 97 142
61 96 141
63 98 149
61 95 135
62 97 148
61 96 134
60 94 135
61 97 143
61 96 142
61 96 148
61 96 147
61 96 144
61 96 141
60 95 142
61 96 145
61 95 137
61 96 141
61 96 144
61 96 140
60 95 141
61 96 139
61 96 142
60 95 142
61 96 142
61 96 141
62 97 153
61 96 140
61 96 142
61 97 151
61 96 140
61 96 141
61 97 150
61 97 147
61 96 153
61 96 148
61 96 137
60 95 133
62 97 149
60 95 149
61 96 144
61 97 148
61 96 147
61 96 139
60 95 145
62 97 149
60 95 140
61 95 137
60 96 137
61 96 145
59 93 140
61 96 145
61 96 143
61 96 147
61 96 148
59 94 133
61 96 145
61 97 148
60 94 146
60 94 134
60 94 139
60 95 141
61 96 147
61 96 147
61 97 143
60 95 141
59 94 137
60 94 137
60 94 139
60 94 140
60 95 139
60 95 143
61 96 148
59 94 141
61 96 149
59 93 128
61 95 147
60 93 131
60 94 151
59 93 139
59 93 136
59 93 139
60 94 138
59 92 138
57 90 126
59 93 140
58 91 135
59 91 135
57 89 132
56 87 122
56 86 126
56 87 129
55 86 125
56 87 138
54 84 123
55 83 121
51 78 113
136 150 172
217 232 252
103 100 62
89 88 56
92 91 62
96 97 68
84 86 61
77 80 57
64 68 49
68 74 57
65 70 54
83 88 65
90 94 67
88 92 65
82 86 62
89 93 64
100 103 69
88 93 67
114 115 78
114 114 76
106 109 77
99 101 68
123 122 79
117 118 77
117 119 75
116 118 79
131 129 79
119 119 74
132 131 82
129 128 81
114 116 75
140 138 81
135 134 85
141 139 88
134 132 82
141 139 83
149 147 89
147 144 89
144 142 84
150 147 87
147 144 81
148 145 86
154 151 89
158 154 92
164 159 96
157 152 90
152 147 91
163 158 94
162 157 96
164 159 96
161 156 94
159 155 90
166 161 92
165 161 93
161 157 95
164 158 94
164 160 95
168 163 96
170 164 93
163 158 89
166 161 94
167 162 89
174 168 94
172 167 97
167 162 88
166 161 88
170 164 94
172 166 98
173 167 97
169 163 90
169 163 93
164 159 87
171 165 96
175 167 98
170 164 90
173 168 96
170 165 89
170 164 93
171 165 92
173 167 98
172 166 95
172 165 97
169 164 89
173 167 98
171 165 95
170 165 94
172 166 95
171 165 93
170 165 91
165 160 86
173 167 96
172 166 94
170 164 91
174 168 99
170 163 93
169 163 93
174 167 93
170 164 91
171 164 95
171 164 92
168 163 89
169 163 94
170 164 89
171 164 92
170 163 90
172 165 94
170 164 89
168 162 87
163 158 86
172 165 90
173 166 96
165 159 83
168 162 93
167 161 87
163 158 88
170 163 90
163 156 86
169 162 93
169 162 93
162 156 85
166 159 90
162 155 84
163 157 90
164 159 85
163 157 84
167 161 94
165 159 87
167 160 88
162 156 90
166 160 86
166 159 89
159 153 89
159 154 81
160 154 83
160 153 86
158 152 84
158 152 85
160 154 88
165 159 88
163 158 81
161 155 84
157 151 81
159 154 83
159 153 85
145 141 71
157 152 84
159 153 87
149 144 79
158 152 88
164 158 91
223 237 255
223 237 255
223 237 255
223 237 255
223 237 255
223 237 255
223 237 255
223 237 255
223 237 255
223 237 255
223 237 255
223 237 255
223 237 255
223 237 255
223 237 255
223 237 255
223 237 255
223 237 255
223 237 255
223 237 255
223 237 255
223 237 255
223 237 255
223 237 255
223 237 255
223 237 255
223 237 255
223 237 255
223 237 255
223 237 255
223 237 255
223 237 255
223 237 255
223 237 255
223 237 255
223 237 255
223 237 255
223 237 255
223 237 255
223 237 255
223 237 255
223 237 255
223 237 255
223 237 255
223 237 255
223 237 255
223 237 255
223 237 255
223 237 255
223 237 255
223 237 255
223 237 255
223 237 255
223 237 255
223 237 255
223 237 255
223 237 255
223 237 255
223 237 255
223 237 255
223 237 255
223 237 255
223 237 255
223 237 255
223 237 255
223 237 255
223 237 255
223 237 255
223 237 255
223 237 255
223 237 255
223 237 255
223 237 255
223 237 255
223 237 255
223 237 255
223 237 255
223 237 255
223 237 255
223 237 255
223 237 255
223 237 255
223 237 255
223 237 255
223 237 255
223 237 255
223 237 255
223 237 255
223 237 255
223 237 255
223 237 255
223 237 255
223 237 255
223 237 255
223 237 255
223 237 255
223 237 255
223 237 255
223 237 255
223 237 255
223 237 255
223 237 255
223 237 255
223 237 255
223 237 255
223 237 255
223 237 255
223 237 255
223 237 255
223 237 255
223 237 255
223 237 255
224 237 255
224 237 255
224 237 255
224 237 255
224 237 255
224 237 255
224 237 255
224 237 255
224 237 255
224 237 255
224 237 255
224 237 255
224 237 255
224 237 255
224 237 255
224 237 255
224 237 255
224 237 255
224 237 255
224 237 255
225 237 255
225 237 255
225 238 255
225 238 255
225 238 255
225 238 255
225 238 255
221 234 242
202 219 179
183 204 92
174 197 0
173 197 0
174 198 0
175 198 0
175 198 0
174 198 0
208 225 221
125 147 179
61 95 130
61 96 135
61 96 140
61 96 140
61 96 143
62 98 145
61 96 139
61 96 144
61 97 145
61 96 140
62 97 148
61 96 137
61 96 144
61 96 140
60 95 139
60 95 141
62 97 151
61 97 142
62 98 150
61 97 147
62 98 153
61 96 143
62 98 153
61 95 143
61 97 144
61 96 148
61 96 145
60 95 137
61 96 145
61 95 140
59 94 139
61 97 147
61 95 137
61 97 140
60 94 136
61 96 142
60 94 133
60 95 136
60 95 139
61 95 140
60 94 131
60 95 141
61 96 147
60 94 135
60 95 140
61 96 147
60 95 148
61 96 143
60 95 140
62 97 151
61 96 144
60 95 147
60 95 139
60 95 141
61 96 142
62 97 144
60 94 141
60 95 145
60 96 140
60 94 140
62 97 160
61 96 142
59 94 140
62 97 153
59 93 138
62 97 154
60 95 140
60 95 148
59 94 128
59 93 133
61 95 142
61 95 145
60 93 132
61 96 140
59 94 134
60 95 141
59 93 139
59 92 140
59 92 134
59 93 137
59 92 134
59 92 139
60 93 137
58 90 126
58 90 129
60 94 145
57 89 121
59 93 130
58 90 135
58 91 135
58 90 130
58 91 138
56 88 118
56 86 124
57 89 136
57 88 135
55 84 112
54 83 113
53 83 119
53 80 110
118 135 160
199 211 224
91 89 58
89 89 55
77 78 51
82 85 62
85 87 60
82 85 59
68 71 50
78 83 59
73 78 58
79 82 58
83 88 65
76 82 60
88 92 62
95 98 70
88 92 60
83 88 63
100 104 71
116 117 75
111 113 79
104 107 71
107 109 70
112 112 73
110 111 70
135 134 85
124 125 81
124 125 78
131 130 81
127 127 79
138 137 80
133 132 81
148 144 87
141 138 84
140 139 85
140 138 83
152 149 88
146 143 88
134 133 79
153 149 87
151 148 90
154 151 91
143 140 83
161 157 94
157 153 89
154 151 87
160 157 91
158 154 91
161 157 90
154 150 90
162 158 91
159 155 93
166 160 94
169 164 94
165 160 94
159 154 87
166 160 94
166 161 91
166 160 93
168 162 94
168 163 96
170 165 94
169 163 90
167 162 93
170 164 97
172 166 96
166 162 86
166 162 90
171 164 92
172 166 94
174 167 92
166 161 92
171 165 97
169 163 88
165 160 87
172 166 94
170 164 89
175 168 98
170 164 91
174 167 93
171 166 94
175 168 98
172 166 93
172 166 97
173 166 93
169 163 92
175 169 95
173 167 95
175 167 93
170 164 94
172 165 92
167 161 87
171 164 88
170 164 90
171 165 95
171 165 89
171 165 93
176 169 97
175 168 95
171 165 87
169 163 92
170 165 88
171 164 91
165 160 90
169 163 90
166 160 85
170 165 89
170 164 95
168 163 91
169 162 87
163 157 91
168 162 91
165 159 83
167 160 88
161 155 87
169 162 93
164 158 85
169 163 93
169 163 88
165 159 88
164 158 84
165 159 84
163 157 80
159 154 84
162 156 87
160 155 81
161 155 82
170 162 95
164 158 90
170 163 90
168 162 92
159 152 80
159 154 80
162 156 85
160 154 84
162 155 88
161 155 85
166 159 92
160 154 87
158 152 81
151 145 82
164 157 88
166 160 88
155 149 81
162 156 89
155 150 82
154 149 83
161 156 88
147 142 75
150 145 75
223 237 255
223 237 255
223 237 255
223 237 255
223 237 255
223 237 255
223 237 255
223 237 255
223 237 255
223 237 255
223 237 255
223 237 255
223 237 255
223 237 255
223 237 255
223 236 255
223 236 255
223 236 255
223 236 255
223 236 255
223 236 255
223 236 255
223 236 255
223 236 255
223 236 255
223 236 255
223 236 255
223 236 255
223 236 255
223 236 255
223 236 255
223 236 255
223 236 255
223 236 255
223 236 255
223 236 255
223 236 255
223 236 255
223 236 255
223 236 255
223 236 255
223 236 255
223 236 255
223 236 255
223 236 255
223 236 255
223 236 255
223 236 255
223 236 255
223 236 255
223 236 255
223 236 255
223 236 255
223 236 255
223 236 255
223 236 255
223 236 255
223 236 255
223 236 255
223 236 255
223 236 255
223 236 255
223 236 255
223 236 255
223 236 255
223 236 255
223 236 255
223 236 255
223 236 255
223 236 255
223 236 255
223 236 255
223 236 255
223 236 255
223 236 255
223 236 255
223 236 255
223 236 255
223 236 255
223 236 255
223 236 255
223 236 255
223 236 255
223 236 255
223 236 255
223 236 255
223 236 255
223 236 255
223 236 255
223 236 255
223 236 255
223 236 255
223 236 255
223 236 255
223 236 255
223 237 255
223 237 255
223 237 255
223 237 255
223 237 255
223 237 255
223 237 255
223 237 255
223 237 255
223 237 255
223 237 255
223 237 255
223 237 255
223 237 255
223 237 255
223 237 255
223 237 255
223 237 255
223 237 255
223 237 255
223 237 255
223 237 255
223 237 255
223 237 255
223 237 255
223 237 255
224 237 255
224 237 255
224 237 255
224 237 255
224 237 255
224 237 255
224 237 255
224 237 255
224 237 255
224 237 255
224 237 255
224 237 255
224 237 255
224 237 255
224 237 255
224 237 255
225 237 255
225 238 255
225 238 255
225 238 255
224 237 253
217 231 228
193 212 147
176 199 36
175 198 0
174 197 0
174 197 0
201 220 194
91 118 153
62 97 140
61 96 144
61 96 139
63 98 153
62 98 152
61 96 140
61 96 137
61 96 147
61 96 145
62 98 153
62 97 153
61 96 147
60 94 134
61 96 141
60 94 142
61 97 150
60 95 133
62 96 145
59 94 137
61 95 143
61 97 152
62 97 147
60 95 140
61 96 145
61 97 142
61 96 144
62 98 155
60 96 147
61 96 148
60 95 134
61 96 144
61 96 142
61 96 147
61 96 139
61 96 140
62 97 151
60 94 131
61 95 147
60 95 140
60 94 139
59 93 130
60 95 149
60 95 140
61 96 141
61 96 145
62 97 147
62 97 147
61 95 147
60 95 141
60 95 143
60 94 134
60 95 140
61 95 143
61 96 141
59 94 133
60 94 138
60 95 142
61 96 147
61 95 139
62 97 150
60 94 141
59 94 135
61 96 141
60 95 135
61 96 139
60 95 147
59 93 138
60 94 130
61 95 131
61 96 151
59 93 127
60 94 138
60 94 144
60 95 140
60 94 138
59 94 139
61 95 139
60 94 133
60 95 140
60 94 146
60 95 144
61 96 148
60 94 137
59 92 143
59 93 136
59 94 140
59 92 147
60 93 140
59 93 144
57 89 131
59 91 139
57 89 129
59 92 134
56 89 128
55 86 127
55 86 125
55 85 115
56 87 122
56 85 129
52 80 117
81 101 130
174 184 191
97 95 57
92 91 55
69 71 48
51 56 41
72 75 53
77 79 56
69 73 52
74 79 58
59 65 49
64 70 53
65 72 53
82 87 63
87 89 59
93 97 69
88 92 59
91 94 63
93 96 66
105 107 72
103 106 67
118 119 80
120 120 77
113 115 76
123 123 80
127 126 83
124 124 80
125 124 77
134 133 82
140 139 82
138 137 80
135 133 81
129 129 79
130 129 77
140 138 86
143 141 87
142 140 79
149 146 87
148 145 84
154 150 87
149 145 87
157 152 87
146 143 79
162 157 90
148 145 85
157 153 86
155 151 84
152 148 85
166 160 93
155 151 85
158 154 92
158 154 89
161 156 90
153 150 83
166 160 96
167 161 93
163 158 85
167 161 84
168 163 93
165 160 89
166 161 92
167 161 89
166 159 93
165 160 92
170 165 93
168 164 93
167 162 92
168 162 87
169 164 92
172 166 96
171 164 94
169 164 91
175 167 100
169 164 87
168 162 91
168 163 91
171 164 91
168 163 84
173 167 93
174 168 93
170 164 93
173 166 93
171 165 96
170 165 90
166 161 85
170 164 94
171 165 93
171 164 91
167 162 88
169 163 91
173 167 96
169 163 90
174 166 94
169 163 91
167 161 88
168 162 90
170 163 91
168 162 88
163 158 86
171 165 95
165 160 85
168 162 88
165 158 86
163 157 87
172 165 90
174 167 92
164 159 83
166 160 86
170 163 86
172 165 93
167 161 91
167 161 90
158 153 82
168 162 93
172 165 91
172 164 95
164 158 86
161 155 84
167 160 86
160 154 81
168 161 90
167 160 87
162 156 84
167 161 87
166 160 91
160 155 86
165 159 85
163 156 82
161 154 86
166 159 88
163 156 89
154 148 82
157 151 83
161 155 86
155 149 77
164 157 84
160 154 84
164 157 87
165 159 87
158 153 77
162 157 87
161 155 87
162 156 82
164 159 85
161 156 89
148 143 80
157 150 79
163 157 89
159 152 83
156 150 83
223 236 255
223 236 255
223 236 255
223 236 255
223 236 255
223 236 255
223 236 255
223 236 255
223 236 255
223 236 255
223 236 255
223 236 255
223 236 255
223 236 255
223 236 255
223 236 255
223 236 255
223 236 255
223 236 255
223 236 255
223 236 255
223 236 255
223 236 255
223 236 255
223 236 255
223 236 255
223 236 255
223 236 255
223 236 255
223 236 255
223 236 255
223 236 255
223 236 255
223 236 255
223 236 255
223 236 255
223 236 255
223 236 255
223 236 255
223 236 255
223 236 255
223 236 255
223 236 255
223 236 255
223 236 255
223 236 255
223 236 255
223 236 255
223 236 255
223 236 255
223 236 255
223 236 255
223 236 255
223 236 255
223 236 255
223 236 255
223 236 255
223 236 255
223 236 255
223 236 255
223 236 255
223 236 255
223 236 255
223 236 255
223 236 255
223 236 255
223 236 255
223 236 255
223 236 255
223 236 255
223 236 255
223 236 255
223 236 255
223 236 255
223 236 255
223 236 255
223 236 255
223 236 255
223 236 255
223 236 255
223 236 255
223 236 255
223 236 255
223 236 255
223 236 255
223 236 255
223 236 255
223 236 255
223 236 255
223 236 255
223 236 255
223 236 255
223 236 255
223 236 255
223 236 255
223 236 255
223 236 255
223 236 255
223 236 255
223 236 255
223 236 255
223 236 255
223 236 255
223 236 255
223 236 255
223 236 255
223 236 255
223 236 255
223 236 255
223 236 255
223 236 255
223 237 255
223 237 255
223 237 255
223 237 255
223 237 255
223 237 255
223 237 255
223 237 255
223 237 255
223 237 255
223 237 255
223 237 255
223 237 255
223 237 255
223 237 255
223 237 255
223 237 255
224 237 255
224 237 255
224 237 255
224 237 255
224 237 255
224 237 255
224 237 255
224 237 255
224 237 255
224 237 255
224 237 255
224 237 255
225 237 255
225 237 255
225 238 255
225 238 255
222 235 245
199 217 171
180 202 88
177 199 0
181 202 142
62 97 137
64 99 150
62 97 147
62 97 149
63 98 149
63 98 150
62 97 145
62 97 145
62 97 148
62 97 147
61 96 149
60 95 135
61 96 143
62 98 149
61 96 140
61 96 148
60 95 136
61 95 135
60 95 140
61 96 148
61 95 135
61 96 152
61 96 140
61 96 144
60 95 142
60 95 142
61 97 145
60 95 133
60 94 136
61 97 145
62 97 149
61 96 144
61 97 145
60 95 139
61 97 145
59 93 136
60 95 141
60 95 142
59 94 137
61 96 145
58 93 128
60 95 136
61 96 143
61 95 139
59 94 131
60 95 143
60 95 134
61 96 147
62 97 148
60 95 139
61 95 136
60 95 148
60 94 139
60 95 139
60 95 141
60 95 142
61 96 140
60 94 135
59 93 138
59 93 130
61 96 137
60 95 139
59 94 133
61 96 143
60 95 137
60 94 141
60 95 139
60 94 134
60 94 139
59 93 133
62 97 148
60 95 134
60 94 141
60 94 138
59 93 132
60 94 139
60 95 144
59 93 135
59 91 139
59 93 140
60 94 135
61 96 140
60 94 145
58 91 128
59 92 141
57 89 129
59 92 138
58 91 142
60 94 153
57 89 133
60 93 142
59 92 135
59 91 130
57 89 131
58 89 129
56 87 129
58 90 139
57 87 129
55 84 126
54 84 120
51 78 108
45 69 94
143 149 147
85 84 55
83 83 54
81 82 55
62 65 44
65 67 45
58 61 42
52 57 43
62 67 51
62 67 49
69 73 52
69 76 57
86 91 65
83 87 58
90 94 66
85 88 56
97 100 67
88 92 65
104 108 74
105 108 74
119 121 79
105 107 68
113 114 71
127 127 81
119 118 73
119 118 76
130 128 80
137 136 82
136 134 80
140 138 85
138 136 77
136 134 80
134 132 76
138 137 75
138 136 78
144 141 81
138 136 83
145 144 88
148 145 90
152 148 85
154 150 85
145 143 89
155 151 91
145 143 85
154 149 87
153 149 85
155 151 88
161 157 91
157 153 81
157 153 89
161 157 88
157 152 89
167 161 89
158 153 92
166 161 93
162 156 90
165 160 91
166 160 91
163 158 90
168 162 94
169 163 93
167 162 92
165 159 91
156 152 78
170 163 90
172 165 95
171 164 91
167 162 93
173 166 100
171 165 95
171 165 90
171 164 91
170 165 92
173 166 93
167 162 89
172 166 91
170 165 93
172 166 93
169 163 88
174 167 93
171 164 92
171 165 93
173 167 94
176 169 94
168 163 90
170 164 93
174 167 96
175 167 87
172 166 93
171 165 91
169 163 90
170 164 92
173 166 95
175 168 95
168 162 89
169 164 94
177 169 97
167 161 87
166 160 87
171 165 90
171 165 91
171 165 90
171 163 91
172 165 93
167 160 87
171 164 93
171 164 90
163 156 84
163 157 87
162 156 80
166 160 82
167 161 89
167 160 87
158 153 79
170 165 91
161 156 76
168 161 90
169 162 93
161 154 82
162 155 85
164 159 87
168 161 89
166 160 91
173 165 93
165 158 84
171 165 89
161 155 81
170 162 89
162 157 85
159 152 80
160 155 78
169 162 90
159 154 82
161 156 84
167 161 88
160 155 82
164 157 88
160 154 86
161 155 82
161 155 85
160 153 82
163 156 86
159 153 83
160 155 82
157 152 85
157 152 86
156 150 83
160 154 85
157 150 81
223 236 255
223 236 255
223 236 255
223 236 255
223 236 255
223 236 255
223 236 255
223 236 255
223 236 255
223 236 255
223 236 255
223 236 255
223 236 255
223 236 255
222 236 255
222 236 255
222 236 255
222 236 255
222 236 255
222 236 255
222 236 255
222 236 255
222 236 255
222 236 255
222 236 255
222 236 255
222 236 255
222 236 255
222 236 255
222 236 255
222 236 255
222 236 255
222 236 255
222 236 255
222 236 255
222 236 255
222 236 255
222 236 255
222 236 255
222 236 255
222 236 255
222 236 255
222 236 255
222 236 255
222 236 255
222 236 255
222 236 255
222 236 255
222 236 255
222 236 255
222 236 255
222 236 255
222 236 255
222 236 255
222 236 255
222 236 255
222 236 255
222 236 255
222 236 255
222 236 255
222 236 255
222 236 255
222 236 255
222 236 255
222 236 255
222 236 255
222 236 255
222 236 255
222 236 255
222 236 255
222 236 255
222 236 255
222 236 255
222 236 255
222 236 255
222 236 255
222 236 255
222 236 255
222 236 255
222 236 255
222 236 255
222 236 255
222 236 255
222 236 255
222 236 255
222 236 255
222 236 255
222 236 255
222 236 255
222 236 255
222 236 255
222 236 255
222 236 255
222 236 255
222 236 255
223 236 255
223 236 255
223 236 255
223 236 255
223 236 255
223 236 255
223 236 255
223 236 255
223 236 255
223 236 255
223 236 255
223 236 255
223 236 255
223 236 255
223 236 255
223 236 255
223 236 255
223 236 255
223 236 255
223 236 255
223 236 255
223 236 255
223 236 255
223 236 255
223 236 255
223 236 255
223 237 255
223 237 255
223 237 255
223 237 255
223 237 255
223 237 255
223 237 255
223 237 255
223 237 255
223 237 255
223 237 255
223 237 255
223 237 255
224 237 255
224 237 255
224 237 255
224 237 255
224 237 255
224 237 255
224 237 255
224 237 255
224 237 255
224 237 255
225 237 255
225 238 255
223 236 250
206 222 194
166 187 121
63 98 149
63 98 155
62 97 142
63 98 151
62 98 148
63 98 151
62 97 152
62 97 151
60 95 133
61 96 135
61 96 137
62 97 144
62 97 149
61 96 141
62 97 148
61 97 151
61 96 139
62 98 148
62 97 148
59 94 125
60 95 136
61 96 137
61 96 145
60 95 145
60 95 142
61 96 137
62 97 145
60 95 141
60 95 142
61 96 137
60 95 139
60 95 134
60 94 133
61 96 142
61 96 143
61 97 152
60 95 142
59 94 135
60 95 142
61 97 147
60 95 131
60 95 137
60 95 135
61 96 145
60 95 140
61 95 143
60 94 139
61 96 141
60 95 141
61 96 143
60 95 140
60 95 140
61 97 147
60 95 141
61 96 137
61 96 140
60 95 140
60 94 139
60 95 137
60 95 142
59 93 130
61 96 143
59 94 132
60 94 132
62 97 153
60 95 139
61 96 139
59 94 129
61 96 146
59 93 140
60 94 137
59 93 134
60 95 137
58 92 133
60 95 139
60 93 139
60 93 136
59 93 136
59 93 137
60 94 142
60 95 143
60 94 132
59 93 132
59 92 135
60 94 138
59 91 134
60 93 136
58 91 133
59 92 134
56 87 125
60 93 137
58 90 134
57 90 135
57 88 126
57 88 130
57 88 126
58 89 132
54 84 120
54 84 123
54 84 123
50 77 111
52 79 119
109 110 87
82 81 50
74 73 47
67 68 48
65 67 46
58 61 44
61 66 48
56 61 43
57 63 45
64 69 50
67 73 54
70 75 54
91 94 64
84 87 59
80 84 56
83 86 57
85 89 63
91 95 63
96 99 68
106 108 67
109 110 69
110 111 73
118 117 74
113 114 70
112 114 71
131 130 82
115 115 75
130 128 81
132 130 81
127 127 74
142 139 83
132 131 76
141 139 87
142 139 81
137 135 80
149 144 83
141 139 81
140 138 79
145 141 81
154 150 91
148 146 88
153 149 87
153 150 92
156 152 90
152 149 88
158 153 86
154 150 86
164 158 90
157 153 86
153 150 82
163 158 92
161 156 82
160 156 88
164 159 89
162 157 89
163 157 89
168 162 95
162 157 87
168 162 95
164 159 93
168 161 87
170 164 93
170 164 90
170 164 97
168 163 87
167 161 93
163 158 90
172 165 91
171 165 91
169 163 92
172 166 92
171 166 93
173 166 93
170 163 89
174 167 96
171 164 87
172 165 91
172 166 92
171 165 92
168 162 87
168 162 89
168 163 86
174 167 93
171 165 94
170 164 94
173 167 93
169 163 88
173 166 90
173 166 95
171 165 94
172 166 88
166 161 89
171 164 87
169 162 92
171 164 90
165 160 85
174 166 93
171 164 89
170 163 87
161 155 82
171 164 90
168 162 83
167 161 83
170 163 89
163 159 84
171 164 93
168 162 88
169 163 91
171 165 93
161 155 81
163 158 82
164 157 85
166 160 84
171 164 87
169 162 92
167 161 87
162 156 80
160 155 83
167 161 88
167 161 91
165 158 83
160 153 79
161 155 86
161 154 84
163 156 88
166 159 86
157 152 80
165 159 84
168 161 90
159 153 87
160 155 81
161 155 84
157 151 80
153 147 80
163 156 84
166 159 91
158 152 82
156 150 79
159 152 84
158 153 80
163 156 81
168 161 90
161 155 86
154 148 75
159 153 80
160 154 80
158 152 81
155 149 84
158 152 77
222 236 255
222 236 255
222 236 255
222 236 255
222 236 255
222 236 255
222 236 255
222 236 255
222 236 255
222 236 255
222 236 255
222 236 255
222 236 255
222 236 255
222 236 255
222 236 255
222 236 255
222 236 255
222 236 255
222 236 255
222 236 255
222 236 255
222 236 255
222 236 255
222 236 255
222 236 255
222 236 255
222 236 255
222 236 255
222 236 255
222 236 255
222 236 255
222 236 255
222 236 255
222 236 255
222 236 255
222 236 255
222 236 255
222 236 255
222 236 255
222 236 255
222 236 255
222 236 255
222 236 255
222 236 255
222 236 255
222 236 255
222 236 255
222 236 255
222 236 255
222 236 255
222 236 255
222 236 255
222 236 255
222 236 255
222 236 255
222 236 255
222 236 255
222 236 255
222 236 255
222 236 255
222 236 255
222 236 255
222 236 255
222 236 255
222 236 255
222 236 255
222 236 255
222 236 255
222 236 255
222 236 255
222 236 255
222 236 255
222 236 255
222 236 255
222 236 255
222 236 255
222 236 255
222 236 255
222 236 255
222 236 255
222 236 255
222 236 255
222 236 255
222 236 255
222 236 255
222 236 255
222 236 255
222 236 255
222 236 255
222 236 255
222 236 255
222 236 255
222 236 255
222 236 255
222 236 255
222 236 255
222 236 255
222 236 255
222 236 255
222 236 255
222 236 255
222 236 255
222 236 255
222 236 255
222 236 255
222 236 255
222 236 255
222 236 255
222 236 255
222 236 255
222 236 255
222 236 255
222 236 255
222 236 255
223 236 255
223 236 255
223 236 255
223 236 255
223 236 255
223 236 255
223 236 255
223 236 255
223 236 255
223 236 255
223 236 255
223 236 255
223 236 255
223 236 255
223 236 255
223 236 255
223 237 255
223 237 255
223 237 255
223 237 255
223 237 255
223 237 255
223 237 255
223 237 255
223 237 255
224 237 255
224 237 255
224 237 255
224 237 255
224 237 255
224 237 255
224 237 255
225 237 255
187 202 226
65 100 155
64 99 153
63 98 151
62 97 148
63 98 154
62 97 150
62 97 145
61 96 141
62 97 144
61 96 144
63 98 150
61 96 144
62 98 149
60 95 136
61 96 143
60 96 141
61 96 141
59 94 134
62 97 150
62 97 150
60 95 139
61 97 145
60 95 142
61 96 139
60 96 142
60 95 130
59 94 130
61 96 137
60 94 128
61 97 145
60 96 135
61 95 144
60 95 131
60 95 134
60 95 130
60 95 142
60 95 135
60 96 136
61 96 147
61 96 143
60 95 143
61 96 143
61 96 139
60 95 135
60 95 135
59 94 133
61 96 153
61 96 152
60 94 131
59 94 131
60 95 139
60 95 141
58 92 139
61 96 149
61 97 148
59 93 126
60 95 150
59 94 134
60 95 136
60 95 139
61 95 146
61 96 146
60 95 136
60 94 137
59 94 135
60 94 142
60 94 147
60 95 139
61 96 145
60 95 141
60 95 135
59 94 135
59 94 133
60 95 136
59 93 127
60 95 138
59 92 136
59 93 135
60 93 138
60 94 139
59 93 134
60 93 139
58 91 127
59 93 136
59 93 133
57 89 124
57 89 121
60 94 143
60 94 137
57 89 126
58 91 132
56 88 117
58 90 132
56 87 124
58 90 128
55 87 123
56 86 127
55 85 113
55 83 115
54 83 110
52 80 113
50 77 106
85 89 74
70 70 45
62 64 40
59 60 37
53 56 38
48 52 37
59 63 45
56 61 43
69 74 53
61 67 47
61 67 50
63 67 47
79 83 56
68 74 48
79 83 56
75 80 58
84 89 59
84 88 59
98 101 68
106 106 66
108 109 68
114 114 71
113 115 71
119 120 74
111 112 70
113 113 69
130 128 74
117 118 72
122 122 78
138 135 78
130 128 80
134 133 79
139 136 78
137 136 81
135 133 78
145 142 80
149 145 86
142 139 85
146 143 80
145 142 85
157 152 86
149 146 82
146 143 81
151 148 84
151 147 86
161 156 83
154 150 82
153 149 83
152 149 84
152 148 87
164 159 91
161 156 90
154 150 78
161 156 87
166 161 94
162 157 87
162 158 86
165 160 85
164 158 86
171 165 92
164 159 85
170 165 93
171 165 93
169 163 91
169 163 87
166 160 84
168 162 87
169 163 89
173 166 90
171 165 90
170 163 87
171 164 96
171 165 93
167 162 86
170 163 86
172 165 93
164 159 84
169 164 93
168 162 85
168 162 90
171 164 85
168 162 85
173 166 93
170 164 92
172 165 91
169 163 87
170 164 87
168 162 88
170 164 89
168 163 85
171 164 92
172 165 90
173 166 91
166 160 85
166 160 83
174 167 93
166 160 86
170 163 90
168 162 87
167 161 91
169 161 88
170 163 90
164 159 85
165 159 82
165 159 82
167 161 92
169 162 87
168 161 85
162 156 80
167 161 90
172 166 93
167 162 88
169 163 86
169 163 87
164 158 85
165 159 79
160 153 80
167 160 85
167 160 91
158 153 83
167 161 90
164 159 84
159 153 82
166 159 83
166 159 92
170 163 87
159 153 80
161 155 80
168 160 88
162 156 87
165 158 86
165 158 84
162 156 84
163 156 87
158 152 75
161 154 82
156 151 79
156 150 78
152 147 74
159 153 80
164 157 84
160 153 76
155 149 80
157 151 79
158 151 80
156 150 81
163 156 90
160 154 80
162 156 87
222 236 255
222 236 255
222 236 255
222 236 255
222 236 255
222 236 255
222 236 255
222 236 255
222 236 255
222 236 255
222 236 255
222 236 255
222 236 255
222 236 255
222 236 255
222 236 255
222 236 255
222 236 255
222 236 255
222 236 255
222 236 255
222 236 255
222 236 255
222 236 255
222 236 255
222 236 255
222 236 255
222 236 255
222 236 255
222 236 255
222 236 255
222 236 255
222 236 255
222 236 255
222 236 255
222 236 255
222 236 255
222 236 255
222 236 255
222 236 255
222 236 255
222 236 255
222 236 255
222 236 255
222 236 255
222 236 255
222 236 255
222 236 255
222 236 255
222 236 255
222 236 255
222 236 255
222 236 255
222 236 255
222 236 255
222 236 255
222 236 255
222 236 255
222 236 255
222 236 255
222 236 255
222 236 255
222 236 255
222 236 255
222 236 255
222 236 255
222 236 255
222 236 255
222 236 255
222 236 255
222 236 255
222 236 255
222 236 255
222 236 255
222 236 255
222 236 255
222 236 255
222 236 255
222 236 255
222 236 255
222 236 255
222 236 255
222 236 255
222 236 255
222 236 255
222 236 255
222 236 255
222 236 255
222 236 255
222 236 255
222 236 255
222 236 255
222 236 255
222 236 255
222 236 255
222 236 255
222 236 255
222 236 255
222 236 255
222 236 255
222 236 255
222 236 255
222 236 255
222 236 255
222 236 255
222 236 255
222 236 255
222 236 255
222 236 255
222 236 255
222 236 255
222 236 255
222 236 255
222 236 255
222 236 255
222 236 255
222 236 255
222 236 255
222 236 255
222 236 255
222 236 255
222 236 255
222 236 255
222 236 255
222 236 255
222 236 255
222 236 255
222 236 255
223 236 255
223 236 255
223 236 255
223 236 255
223 236 255
223 236 255
223 236 255
223 236 255
223 236 255
223 236 255
223 237 255
223 237 255
223 237 255
223 237 255
223 237 255
223 237 255
223 237 255
224 237 255
224 237 255
224 237 255
173 189 214
65 100 154
63 98 154
64 100 157
62 98 150
62 97 147
61 96 149
61 96 140
62 98 151
62 97 148
61 96 140
61 96 145
62 97 154
60 95 145
61 96 149
60 94 135
60 94 129
60 94 134
61 96 143
62 97 145
61 96 144
62 97 143
61 96 142
61 96 148
60 95 135
60 95 140
60 95 136
61 96 143
60 95 142
60 95 139
60 95 145
60 95 135
61 96 140
60 94 133
61 96 145
59 94 135
61 97 145
61 96 137
59 94 126
61 96 149
61 95 134
60 95 134
60 95 143
59 93 135
60 94 134
59 93 126
61 95 142
60 95 137
59 94 136
58 92 134
60 95 136
61 96 144
59 94 134
61 95 135
62 97 148
61 95 142
61 95 143
60 95 136
61 96 144
60 94 133
61 95 140
59 94 135
61 95 142
60 95 137
59 93 133
60 95 136
60 95 138
60 94 143
60 94 141
59 94 132
59 94 131
57 90 123
60 95 141
61 95 142
58 91 123
60 94 139
60 93 132
61 95 139
60 94 139
60 93 131
60 93 140
58 91 137
59 92 132
58 92 127
60 93 140
58 91 129
59 92 130
58 90 120
60 92 137
58 91 130
56 88 121
56 87 122
58 91 131
58 91 131
55 85 111
55 86 113
56 86 123
55 86 118
55 86 120
53 81 115
53 81 119
51 76 94
48 73 103
80 83 59
74 73 43
75 74 46
51 54 35
52 55 33
44 50 37
53 59 40
47 55 43
64 68 49
56 61 44
63 70 53
79 83 52
80 84 58
85 88 59
94 97 65
88 92 57
91 94 58
86 91 59
94 96 62
95 97 62
105 107 68
114 114 69
111 111 70
108 110 69
114 114 63
122 121 76
124 123 74
122 122 75
120 120 74
132 129 76
131 130 68
131 130 75
130 129 80
132 131 75
137 136 78
137 135 77
147 144 84
149 146 88
148 145 89
147 144 83
147 144 85
157 153 79
147 144 81
148 146 82
151 148 84
157 154 83
160 155 88
156 152 83
155 151 82
160 155 87
158 153 87
163 157 89
161 157 89
159 154 82
164 159 90
163 158 80
161 157 87
170 163 89
160 155 83
164 158 82
167 162 91
161 157 85
165 160 87
166 161 91
170 165 88
167 162 90
165 160 85
171 164 91
170 165 90
170 164 91
167 161 88
169 164 87
168 161 91
169 163 90
172 166 92
174 167 93
172 165 90
171 163 87
170 163 84
173 166 87
170 164 87
168 161 84
168 162 84
171 165 93
174 167 94
168 162 88
173 167 92
170 164 86
175 168 95
170 163 90
171 164 90
172 164 92
169 162 87
168 162 84
168 162 91
170 163 87
169 163 88
172 164 93
172 165 93
165 158 87
170 162 92
169 163 86
167 161 85
171 164 86
169 162 87
162 157 84
166 159 86
165 159 84
169 161 87
169 162 85
166 160 86
171 163 90
162 156 84
163 158 84
169 163 88
163 157 84
161 155 80
157 151 78
166 160 87
164 158 92
167 160 85
156 151 78
160 154 81
160 155 78
161 155 84
162 156 80
160 153 86
166 159 91
162 156 79
167 161 90
166 160 87
156 151 80
162 156 77
165 158 87
160 154 82
156 150 75
157 152 87
164 157 83
157 151 80
164 157 84
153 148 76
158 152 80
161 155 84
166 159 89
160 152 84
161 154 82
157 150 80
155 149 78
159 153 83
222 236 255
222 236 255
222 236 255
222 236 255
222 236 255
222 236 255
222 236 255
222 236 255
222 236 255
222 236 255
222 236 255
222 236 255
222 236 255
222 236 255
222 236 255
222 236 255
222 236 255
222 236 255
222 236 255
222 236 255
222 236 255
222 236 255
222 236 255
222 236 255
222 236 255
222 236 255
222 236 255
222 236 255
222 236 255
222 236 255
222 236 255
222 236 255
222 236 255
222 236 255
222 236 255
222 236 255
222 236 255
222 236 255
222 236 255
222 236 255
222 236 255
222 236 255
222 236 255
222 236 255
222 236 255
222 236 255
222 236 255
222 236 255
222 236 255
222 236 255
222 236 255
222 236 255
222 236 255
222 236 255
222 236 255
222 236 255
222 236 255
222 236 255
222 236 255
222 236 255
222 236 255
222 236 255
222 236 255
222 236 255
222 236 255
222 236 255
222 236 255
222 236 255
222 236 255
222 236 255
222 236 255
222 236 255
222 236 255
222 236 255
222 236 255
222 236 255
222 236 255
222 236 255
222 236 255
222 236 255
222 236 255
222 236 255
222 236 255
222 236 255
222 236 255
222 236 255
222 236 255
222 236 255
222 236 255
222 236 255
222 236 255
222 236 255
222 236 255
222 236 255
222 236 255
222 236 255
222 236 255
222 236 255
222 236 255
222 236 255
222 236 255
222 236 255
222 236 255
222 236 255
222 236 255
222 236 255
222 236 255
222 236 255
222 236 255
222 236 255
222 236 255
222 236 255
222 236 255
222 236 255
222 236 255
222 236 255
222 236 255
222 236 255
222 236 255
222 236 255
222 236 255
222 236 255
222 236 255
222 236 255
222 236 255
222 236 255
222 236 255
222 236 255
222 236 255
222 236 255
222 236 255
222 236 255
222 236 255
222 236 255
222 236 255
222 236 255
222 236 255
222 236 255
223 236 255
223 236 255
223 236 255
223 236 255
223 236 255
223 236 255
223 236 255
223 237 255
223 237 255
223 237 255
165 182 210
63 98 150
64 99 153
63 97 150
62 97 147
62 98 148
61 96 150
61 96 147
62 97 150
63 98 144
62 97 150
62 98 150
61 95 137
60 95 144
59 94 134
61 95 142
60 95 139
62 97 149
60 95 140
60 95 139
61 96 140
61 96 147
61 95 131
62 97 145
62 97 147
61 96 140
61 97 144
61 96 137
61 96 145
62 97 145
60 94 131
59 94 129
60 95 133
60 95 142
60 95 140
61 96 144
60 95 134
61 96 144
59 94 130
60 95 139
59 93 131
61 96 139
60 95 142
61 96 148
61 96 147
61 96 144
60 95 143
61 95 142
60 96 141
58 93 125
60 94 139
61 97 145
60 94 130
61 95 134
59 94 133
62 97 149
60 95 141
59 93 129
58 92 122
61 95 135
60 95 139
61 96 141
60 94 135
60 95 133
61 96 148
60 95 144
60 95 137
61 95 145
59 93 130
58 92 126
60 95 145
60 94 141
60 93 141
58 92 130
60 94 140
60 95 132
60 94 139
59 94 145
60 94 141
58 90 131
59 92 133
59 92 131
60 93 134
58 92 129
59 93 133
57 90 123
58 89 126
59 92 134
56 88 117
59 92 133
58 91 133
57 89 129
58 91 135
58 90 128
56 87 126
56 86 120
56 87 125
55 85 123
55 85 117
55 84 118
53 82 118
51 78 114
51 77 103
76 84 81
67 65 36
58 59 34
44 46 30
59 61 40
33 40 29
46 52 37
49 56 41
60 65 46
69 73 47
57 64 45
56 62 45
76 79 52
75 79 49
86 90 58
89 92 59
92 95 63
89 93 63
101 104 67
109 109 67
98 101 64
104 105 62
110 112 68
118 118 71
111 111 68
121 121 74
114 115 66
120 120 73
133 131 78
130 129 77
125 124 75
143 140 81
125 124 74
144 140 80
137 135 76
136 135 77
135 133 71
152 148 88
144 140 75
151 147 82
143 140 78
145 142 75
150 146 78
152 148 81
150 147 81
158 154 87
154 150 86
162 156 88
155 151 78
160 155 88
159 155 84
160 155 86
164 159 89
168 162 95
163 158 81
157 153 86
175 168 94
169 163 93
163 158 87
164 158 82
163 158 86
163 158 85
170 164 89
164 159 85
171 164 88
168 163 86
167 162 83
169 163 88
167 161 84
166 161 85
166 160 90
173 166 94
171 164 91
169 162 86
173 166 89
166 160 84
167 161 84
170 163 86
170 164 87
169 163 92
172 166 90
170 164 91
172 166 90
169 164 85
169 163 87
175 168 94
169 163 85
171 164 87
169 163 89
169 163 86
171 164 87
169 162 86
169 163 87
170 164 88
172 165 89
171 164 87
167 161 86
171 164 89
168 162 86
161 156 80
170 164 90
168 161 89
166 159 84
165 159 86
169 163 87
167 161 90
171 164 87
162 157 81
168 161 87
171 165 94
168 161 86
168 161 84
166 160 86
170 163 87
171 164 90
163 157 80
163 157 84
167 161 85
166 160 88
166 158 83
160 155 80
160 153 84
167 160 83
162 157 84
162 155 77
163 157 84
158 152 78
161 155 79
167 161 83
165 158 81
161 155 81
164 158 84
165 158 85
159 154 78
164 157 85
162 156 84
162 155 83
166 159 88
163 157 85
164 156 87
162 156 84
160 153 83
163 156 84
154 148 75
156 149 81
161 155 77
162 155 83
155 149 78
156 149 83
222 236 255
222 236 255
222 236 255
222 236 255
222 236 255
222 236 255
222 236 255
222 236 255
222 236 255
222 236 255
222 236 255
222 236 255
222 236 255
222 236 255
222 236 255
222 236 255
222 236 255
222 236 255
222 236 255
222 236 255
222 236 255
222 236 255
222 236 255
222 236 255
222 236 255
222 236 255
222 236 255
222 236 255
222 236 255
222 236 255
222 236 255
222 236 255
222 236 255
222 236 255
222 236 255
222 236 255
222 236 255
222 236 255
222 236 255
222 236 255
222 236 255
222 236 255
222 236 255
222 236 255
222 236 255
222 236 255
222 236 255
222 236 255
222 236 255
222 236 255
222 236 255
222 236 255
222 236 255
222 236 255
222 236 255
222 236 255
222 236 255
222 236 255
222 236 255
222 236 255
222 236 255
222 236 255
222 236 255
222 236 255
222 236 255
222 236 255
222 236 255
222 236 255
222 236 255
222 236 255
222 236 255
222 236 255
222 236 255
222 236 255
222 236 255
222 236 255
222 236 255
222 236 255
222 236 255
222 236 255
222 236 255
222 236 255
222 236 255
222 236 255
222 236 255
222 236 255
222 236 255
222 236 255
222 236 255
222 236 255
222 236 255
222 236 255
222 236 255
222 236 255
222 236 255
222 236 255
222 236 255
222 236 255
222 236 255
222 236 255
222 236 255
222 236 255
222 236 255
222 236 255
222 236 255
222 236 255
222 236 255
222 236 255
222 236 255
222 236 255
222 236 255
222 236 255
222 236 255
222 236 255
222 236 255
222 236 255
222 236 255
222 236 255
222 236 255
222 236 255
222 236 255
222 236 255
222 236 255
222 236 255
222 236 255
222 236 255
222 236 255
222 236 255
222 236 255
222 236 255
222 236 255
222 236 255
222 236 255
222 236 255
222 236 255
222 236 255
222 236 255
222 236 255
222 236 255
222 236 255
222 236 255
222 236 255
222 236 255
222 236 255
222 236 255
222 236 255
222 236 255
223 236 255
156 174 206
65 100 156
63 98 155
62 98 154
63 98 151
62 97 144
62 97 145
61 96 142
62 96 145
61 96 142
61 96 144
60 95 135
62 97 141
61 96 141
62 97 144
61 97 148
61 96 140
61 95 136
61 95 134
61 96 143
60 95 139
59 93 128
60 95 131
60 95 131
61 96 135
60 95 130
61 96 140
60 95 137
61 95 142
59 93 135
60 94 139
61 96 139
61 96 141
60 94 134
61 97 140
60 94 135
61 96 137
61 96 145
59 93 128
61 95 136
59 94 137
60 95 136
59 93 118
60 95 141
59 94 135
59 94 126
60 95 134
59 94 131
58 92 124
60 95 142
61 96 139
60 94 137
60 95 136
60 94 129
60 94 136
60 95 137
62 97 145
59 93 135
59 94 136
62 97 148
59 94 141
61 96 137
59 94 131
61 96 143
61 96 142
60 95 139
60 95 141
60 94 142
57 91 123
60 94 132
57 91 123
61 96 142
59 93 125
60 94 134
59 93 143
59 93 133
60 94 134
60 93 135
58 91 121
59 93 140
60 94 133
60 94 135
59 92 130
59 92 140
60 94 143
59 92 139
57 88 127
58 91 132
60 94 148
56 88 115
59 92 140
58 90 135
58 90 127
58 91 129
55 85 121
58 89 130
55 85 116
58 90 135
56 86 121
54 83 114
55 85 118
50 77 109
50 74 98
67 77 79
57 59 33
52 53 33
40 44 28
50 52 32
47 54 39
53 56 37
54 58 41
51 57 38
54 61 41
53 60 42
73 77 50
80 83 54
81 84 49
84 87 56
81 84 51
92 95 60
89 91 56
83 88 56
90 91 54
96 98 58
99 101 66
104 105 62
114 115 73
119 119 74
111 112 67
118 118 70
127 125 71
123 123 75
136 134 83
134 131 78
141 138 82
138 135 76
141 138 81
134 133 77
137 135 72
142 140 70
147 142 79
143 140 77
139 137 75
146 144 79
144 142 79
146 143 84
153 149 73
149 144 78
155 151 85
150 147 81
157 152 86
158 153 83
161 156 84
158 154 87
164 158 92
153 148 79
155 151 80
163 157 89
161 155 85
163 158 86
154 150 77
159 155 83
165 159 86
163 158 83
165 160 88
168 163 89
164 158 84
170 163 90
166 160 84
172 166 96
169 163 92
169 163 95
164 159 83
173 166 91
167 162 82
168 162 86
165 160 85
169 162 83
169 162 85
168 161 83
168 162 86
171 164 86
169 163 80
168 161 83
170 164 89
170 163 87
172 165 87
168 162 81
169 163 87
167 162 89
166 159 81
171 163 86
167 162 85
168 162 86
170 163 84
171 165 87
169 163 81
171 163 85
169 162 87
166 160 82
162 157 82
168 161 84
163 158 80
166 161 88
160 154 81
168 161 87
167 161 86
168 162 83
171 164 87
168 161 83
163 157 78
166 158 88
162 157 81
165 159 81
169 163 84
167 161 80
165 158 83
169 162 86
166 160 87
170 163 87
168 162 89
164 158 81
165 159 87
158 152 80
160 155 80
161 155 79
158 152 86
167 160 87
165 158 85
165 158 82
165 159 86
159 154 83
162 156 82
167 160 90
164 159 88
165 159 88
163 157 79
170 163 90
162 156 80
157 152 81
160 154 80
160 154 81
161 155 82
154 148 81
159 153 80
160 153 80
161 155 79
160 153 87
158 151 82
162 156 86
152 146 71
154 149 77
221 236 255
221 236 255
221 236 255
221 236 255
221 236 255
221 236 255
221 236 255
221 236 255
221 236 255
221 236 255
221 236 255
221 236 255
221 236 255
221 236 255
221 236 255
221 236 255
221 236 255
221 236 255
221 236 255
221 236 255
221 236 255
221 236 255
221 236 255
221 236 255
221 236 255
221 236 255
221 236 255
221 236 255
221 236 255
221 236 255
221 236 255
221 236 255
221 236 255
221 236 255
221 236 255
221 236 255
221 236 255
221 236 255
221 236 255
221 236 255
221 236 255
221 236 255
221 236 255
221 236 255
221 236 255
221 236 255
221 236 255
221 236 255
221 236 255
221 236 255
221 236 255
221 236 255
221 236 255
221 236 255
221 236 255
221 236 255
221 236 255
221 236 255
221 236 255
221 236 255
221 236 255
221 236 255
221 236 255
221 236 255
221 236 255
221 236 255
221 236 255
221 236 255
221 236 255
221 236 255
221 236 255
221 236 255
221 236 255
221 236 255
221 236 255
221 236 255
221 236 255
221 236 255
221 236 255
221 236 255
221 236 255
221 236 255
221 236 255
221 236 255
221 236 255
221 236 255
221 236 255
221 236 255
221 236 255
221 236 255
221 236 255
221 236 255
221 236 255
221 236 255
221 236 255
221 236 255
221 236 255
221 236 255
221 236 255
221 236 255
221 236 255
221 236 255
221 236 255
221 236 255
221 236 255
221 236 255
221 236 255
221 236 255
221 236 255
221 236 255
221 236 255
221 236 255
221 236 255
221 236 255
221 236 255
221 236 255
221 236 255
221 236 255
221 236 255
221 236 255
221 236 255
221 236 255
221 236 255
222 236 255
222 236 255
222 236 255
222 236 255
222 236 255
222 236 255
222 236 255
222 236 255
222 236 255
222 236 255
222 236 255
222 236 255
222 236 255
222 236 255
222 236 255
222 236 255
222 236 255
222 236 255
222 236 255
222 236 255
222 236 255
222 236 255
222 236 255
222 236 255
222 236 255
155 173 204
64 98 148
63 98 150
64 99 154
63 98 149
62 97 145
61 95 137
61 96 135
61 96 141
62 96 140
59 93 124
61 97 141
60 95 135
62 97 147
60 95 134
61 96 145
61 96 142
60 95 136
60 95 141
61 95 137
60 95 139
61 96 142
61 96 140
61 95 145
60 95 144
61 95 135
61 96 140
61 96 137
60 95 140
62 98 150
61 96 140
61 96 139
61 95 142
62 97 144
61 95 135
61 96 136
60 94 134
61 96 136
62 96 144
61 96 141
60 93 131
60 94 130
62 97 145
60 96 141
61 96 140
60 95 136
59 93 135
60 95 133
59 93 131
59 94 136
60 95 129
59 94 131
59 94 129
62 97 152
61 96 131
61 96 140
61 95 131
60 95 137
60 95 135
61 96 139
61 96 141
60 94 132
61 96 140
60 95 137
60 95 139
59 93 126
60 95 137
59 94 131
59 93 134
62 96 140
60 95 137
60 95 141
59 93 135
60 94 129
60 94 141
59 93 142
58 91 125
59 93 130
58 92 121
59 94 136
58 91 122
58 91 125
58 91 127
57 91 129
59 92 134
59 93 130
58 90 142
59 91 130
57 89 137
57 89 132
58 91 124
58 90 128
57 87 130
56 87 114
54 83 112
56 88 121
55 85 104
56 87 125
56 87 125
52 80 111
53 81 103
50 76 96
51 79 113
67 75 72
68 68 35
65 66 39
58 60 39
32 36 21
48 51 33
34 42 29
55 60 40
54 58 40
48 55 39
50 56 38
69 74 50
67 72 49
68 74 48
83 86 55
86 89 50
76 81 50
88 93 56
106 108 69
97 99 62
100 102 59
102 104 61
115 115 67
114 115 70
111 111 64
114 115 66
117 116 65
121 120 66
131 128 78
122 121 66
127 126 70
131 130 71
138 135 75
130 128 68
139 136 78
139 138 74
139 136 78
137 135 77
149 146 84
140 137 72
141 138 74
152 148 85
147 143 79
148 145 81
151 146 83
154 151 83
151 148 85
152 148 82
158 153 80
153 148 81
161 155 89
153 150 81
158 154 77
162 156 84
159 154 82
163 158 78
161 156 87
162 157 84
158 154 81
167 161 89
166 160 86
163 158 82
163 158 82
167 161 89
164 158 84
168 163 85
166 160 85
169 163 88
169 163 84
170 164 90
166 160 85
167 161 84
169 163 92
168 162 86
167 161 84
166 161 81
169 163 83
171 165 87
168 162 84
172 164 86
172 164 85
166 159 84
174 166 90
175 168 91
167 162 81
169 162 82
172 165 87
172 164 88
166 161 75
170 163 80
169 163 84
171 164 86
170 163 83
170 163 88
171 165 87
167 160 86
169 162 85
168 162 84
167 161 88
166 159 82
169 162 84
166 160 84
164 159 79
168 162 85
169 163 82
167 161 84
170 163 85
165 159 81
166 159 79
167 161 88
165 159 85
168 162 87
166 160 88
165 158 85
165 159 83
171 163 86
163 156 82
159 154 77
168 161 84
161 154 81
167 160 86
159 154 78
161 155 81
165 157 80
169 161 82
166 158 83
167 160 85
162 156 79
168 161 88
164 158 80
158 151 80
164 157 83
157 151 76
159 153 78
159 154 84
160 154 78
160 154 83
162 155 82
153 147 75
164 157 84
153 148 74
151 145 72
163 157 88
159 152 75
160 153 81
157 151 75
149 143 68
157 151 75
160 154 75
221 236 255
221 236 255
221 236 255
221 236 255
221 236 255
221 236 255
221 236 255
221 236 255
221 236 255
221 236 255
221 236 255
221 236 255
221 236 255
221 236 255
221 236 255
221 236 255
221 236 255
221 236 255
221 236 255
221 236 255
221 236 255
221 236 255
221 236 255
221 236 255
221 236 255
221 236 255
221 236 255
221 236 255
221 236 255
221 236 255
221 236 255
221 236 255
221 236 255
221 236 255
221 236 255
221 236 255
221 236 255
221 236 255
221 236 255
221 236 255
221 236 255
221 236 255
221 236 255
221 236 255
221 236 255
221 236 255
221 236 255
221 236 255
221 236 255
221 236 255
221 236 255
221 236 255
221 236 255
221 236 255
221 236 255
221 236 255
221 236 255
221 236 255
221 236 255
221 236 255
221 236 255
221 236 255
221 236 255
221 236 255
221 236 255
221 236 255
221 236 255
221 236 255
221 236 255
221 236 255
221 236 255
221 236 255
221 236 255
221 236 255
221 236 255
221 236 255
221 236 255
221 236 255
221 236 255
221 236 255
221 236 255
221 236 255
221 236 255
221 236 255
221 236 255
221 236 255
221 236 255
221 236 255
221 236 255
221 236 255
221 236 255
221 236 255
221 236 255
221 236 255
221 236 255
221 236 255
221 236 255
221 236 255
221 236 255
221 236 255
221 236 255
221 236 255
221 236 255
221 236 255
221 236 255
221 236 255
221 236 255
221 236 255
221 236 255
221 236 255
221 236 255
221 236 255
221 236 255
221 236 255
221 236 255
221 236 255
221 236 255
221 236 255
221 236 255
221 236 255
221 236 255
221 236 255
221 236 255
221 236 255
221 236 255
221 236 255
221 236 255
221 236 255
221 236 255
221 236 255
221 236 255
221 236 255
221 236 255
221 236 255
221 236 255
221 236 255
221 236 255
221 236 255
221 236 255
221 236 255
221 236 255
221 236 255
221 236 255
221 236 255
221 236 255
221 236 255
221 236 255
221 236 255
160 178 213
65 100 158
63 98 153
62 96 145
62 97 145
62 97 144
63 98 149
62 97 142
61 95 135
62 96 136
60 94 134
61 96 147
61 95 139
60 95 137
61 96 142
61 97 145
62 97 149
60 95 139
60 95 133
60 94 140
62 96 139
60 95 141
61 96 147
60 95 139
61 96 147
62 97 147
60 95 143
60 95 137
59 93 128
61 96 139
60 95 136
61 95 136
60 95 136
58 93 125
60 95 134
61 96 137
59 93 126
59 94 139
60 94 129
60 95 131
60 95 133
61 95 144
61 96 142
60 94 140
60 95 143
59 93 125
58 92 129
61 95 140
61 96 143
60 95 137
60 95 142
60 94 135
60 95 143
61 95 145
61 96 135
60 94 128
60 94 133
59 93 126
60 94 133
59 93 120
59 93 131
60 94 145
59 94 134
60 95 137
59 94 129
60 95 131
60 95 138
60 94 126
60 94 133
60 94 132
60 94 140
59 93 126
60 94 134
60 94 140
60 94 139
60 94 134
59 92 133
58 91 129
60 95 138
58 91 132
59 93 130
58 92 131
58 91 128
60 94 133
58 91 134
59 92 140
57 90 124
59 91 125
58 90 127
57 90 132
59 92 130
57 89 127
58 90 125
59 92 128
57 88 129
55 86 116
55 85 117
56 86 127
54 83 114
52 81 110
51 78 106
50 77 100
47 72 93
61 72 81
69 70 35
65 64 36
49 51 28
52 54 35
46 51 33
49 54 30
39 47 30
40 48 35
35 42 28
43 50 29
54 59 34
66 71 46
68 72 43
82 86 56
72 76 51
80 84 50
86 90 58
87 90 53
99 101 65
91 92 51
116 116 65
102 104 65
116 115 63
104 106 57
118 117 65
120 120 68
112 112 58
121 121 66
131 130 77
126 126 70
130 129 73
131 130 72
128 127 65
131 129 71
133 131 67
140 137 75
133 132 68
148 144 76
148 145 79
149 147 78
142 139 64
149 146 73
157 152 84
150 146 76
142 140 74
157 152 83
149 146 79
151 148 81
149 145 75
158 153 80
155 150 81
155 150 80
152 148 82
157 153 78
164 157 84
163 157 87
158 153 80
161 155 80
158 153 81
164 159 87
167 161 91
168 162 83
166 160 82
163 157 84
165 159 82
163 158 79
163 158 85
166 160 81
175 167 95
170 164 87
163 157 80
168 162 85
165 160 79
167 161 85
167 161 86
164 158 79
167 160 89
164 158 78
166 160 81
171 164 86
173 167 87
170 163 85
170 164 86
169 162 85
170 163 85
167 161 81
170 163 86
170 163 87
170 164 82
167 161 82
170 163 86
172 164 84
171 164 87
167 161 78
165 159 80
165 158 82
168 162 87
168 161 87
162 156 80
167 160 82
172 164 87
169 162 85
166 160 82
171 165 88
165 159 83
166 159 84
170 162 83
171 164 87
168 161 84
164 157 82
161 155 76
164 158 80
161 155 77
166 160 80
165 159 82
166 159 79
158 152 75
165 158 88
164 157 80
166 159 83
166 160 82
161 156 80
164 158 78
160 155 80
157 152 75
160 154 80
160 154 79
164 157 80
159 153 79
164 157 80
164 157 84
160 154 79
158 152 74
162 157 85
163 156 81
156 150 77
151 146 77
161 155 82
162 156 80
161 154 82
164 158 83
161 155 81
150 145 79
153 148 75
160 154 80
160 154 81
157 150 80
156 149 73
221 235 255
221 235 255
221 235 255
221 235 255
221 235 255
221 235 255
221 235 255
221 235 255
221 235 255
221 235 255
221 235 255
221 235 255
221 235 255
221 235 255
221 235 255
221 235 255
221 235 255
221 235 255
221 235 255
221 235 255
221 235 255
221 235 255
221 235 255
221 235 255
221 235 255
221 235 255
221 235 255
221 235 255
221 235 255
221 235 255
221 235 255
221 235 255
221 235 255
221 235 255
221 235 255
221 235 255
221 235 255
221 235 255
221 235 255
221 235 255
221 235 255
221 235 255
221 235 255
221 235 255
221 235 255
221 235 255
221 235 255
221 235 255
221 235 255
221 235 255
221 235 255
221 235 255
221 235 255
221 235 255
221 235 255
221 235 255
221 235 255
221 235 255
221 235 255
221 235 255
221 235 255
221 235 255
221 235 255
221 235 255
221 235 255
221 235 255
221 235 255
221 235 255
221 235 255
221 235 255
221 235 255
221 235 255
221 235 255
221 235 255
221 235 255
221 235 255
221 235 255
221 235 255
221 235 255
221 235 255
221 235 255
221 235 255
221 235 255
221 235 255
221 235 255
221 235 255
221 235 255
221 235 255
221 235 255
221 235 255
221 235 255
221 235 255
221 235 255
221 235 255
221 235 255
221 235 255
221 235 255
221 235 255
221 235 255
221 235 255
221 235 255
221 235 255
221 235 255
221 235 255
221 235 255
221 235 255
221 235 255
221 235 255
221 235 255
221 235 255
221 235 255
221 235 255
221 235 255
221 235 255
221 235 255
221 235 255
221 235 255
221 235 255
221 235 255
221 235 255
221 235 255
221 235 255
221 235 255
221 235 255
221 235 255
221 235 255
221 235 255
221 235 255
221 235 255
221 235 255
221 235 255
221 235 255
221 235 255
221 235 255
221 235 255
221 235 255
221 235 255
221 235 255
221 235 255
221 235 255
221 235 255
221 235 255
221 235 255
221 235 255
221 235 255
221 235 255
221 235 255
221 235 255
147 166 201
64 99 158
63 99 153
63 98 151
61 95 133
63 98 149
61 95 139
63 98 149
62 97 141
62 96 147
61 95 135
62 97 149
61 96 142
59 94 133
61 96 139
60 95 134
62 97 143
59 94 136
61 96 141
60 94 134
60 94 130
60 94 131
61 96 143
61 96 141
58 92 134
59 94 124
60 94 137
58 92 125
60 95 137
60 95 139
60 95 134
61 96 140
61 96 140
61 95 144
60 95 141
60 94 137
60 94 133
61 96 141
60 95 134
60 95 133
60 95 144
60 94 125
61 95 134
60 94 135
61 95 133
60 95 135
60 95 141
61 95 137
61 96 144
60 94 136
60 94 129
60 94 140
59 93 131
59 93 121
60 95 140
61 95 143
59 93 130
62 96 146
60 94 140
60 95 141
61 96 139
61 96 136
59 93 133
60 95 135
59 92 129
59 92 133
60 95 134
59 93 133
60 93 138
58 91 133
59 93 131
59 92 137
59 92 136
59 93 129
59 92 133
60 93 133
59 93 129
57 90 118
60 94 128
59 93 136
57 90 126
58 92 128
60 93 135
58 92 134
57 89 126
59 93 139
57 89 122
59 92 134
56 89 119
59 92 131
58 90 135
56 87 125
56 88 115
57 89 133
56 86 118
55 85 107
55 85 108
55 86 118
56 86 119
51 78 104
53 82 109
51 78 104
50 76 104
66 73 66
72 69 37
46 47 26
50 53 26
42 45 26
42 46 28
40 47 29
44 51 35
49 56 38
52 57 33
64 68 41
54 62 45
56 61 37
91 93 52
68 73 40
78 82 51
89 90 51
100 101 61
101 102 60
88 91 51
91 92 53
105 105 60
119 119 69
111 111 66
115 114 74
116 115 63
118 118 61
118 117 64
122 122 70
131 130 68
136 133 78
128 126 65
136 133 71
140 136 74
144 141 78
144 141 76
136 135 75
138 136 74
144 140 78
139 135 72
148 143 78
142 139 75
155 151 83
149 144 69
157 152 76
150 145 74
159 154 84
151 148 80
164 158 83
155 150 77
154 149 80
154 150 83
160 154 80
159 154 85
157 151 77
161 156 79
159 155 81
159 154 81
164 158 79
163 158 82
160 155 82
162 157 79
160 155 77
165 159 79
165 159 83
167 160 84
160 155 82
166 160 85
163 158 75
165 160 81
166 160 81
167 161 79
168 162 84
170 163 84
169 162 88
170 163 83
167 161 84
167 161 84
167 161 81
168 162 84
167 161 79
172 165 87
171 164 86
169 163 82
172 165 90
168 162 83
168 162 81
166 160 84
170 163 84
169 162 83
165 159 80
169 162 86
167 160 84
169 162 82
167 161 82
171 163 85
164 158 87
161 155 80
168 161 82
168 161 84
171 164 80
169 161 83
169 162 89
169 163 89
167 160 80
169 163 89
169 161 84
164 157 76
168 161 85
163 158 79
168 162 83
163 156 83
164 158 81
161 155 81
163 157 77
167 161 83
164 159 75
158 152 77
164 157 79
163 155 83
165 159 79
161 154 80
162 156 77
167 160 84
162 157 83
167 161 90
162 156 81
163 156 81
158 152 80
155 149 74
158 152 80
163 156 81
160 154 77
161 154 75
167 159 87
157 150 75
157 151 74
163 156 78
157 152 75
156 150 75
152 146 75
154 148 76
152 146 75
157 151 77
159 152 78
150 144 76
155 149 81
160 153 81
150 144 70
221 235 255
221 235 255
221 235 255
221 235 255
221 235 255
221 235 255
221 235 255
221 235 255
221 235 255
221 235 255
221 235 255
221 235 255
221 235 255
221 235 255
221 235 255
221 235 255
221 235 255
221 235 255
221 235 255
221 235 255
221 235 255
221 235 255
221 235 255
221 235 255
221 235 255
221 235 255
221 235 255
221 235 255
221 235 255
221 235 255
221 235 255
221 235 255
221 235 255
221 235 255
221 235 255
221 235 255
221 235 255
221 235 255
221 235 255
221 235 255
221 235 255
221 235 255
221 235 255
221 235 255
221 235 255
221 235 255
221 235 255
221 235 255
221 235 255
221 235 255
221 235 255
221 235 255
221 235 255
221 235 255
221 235 255
221 235 255
221 235 255
221 235 255
221 235 255
221 235 255
221 235 255
221 235 255
221 235 255
221 235 255
221 235 255
221 235 255
221 235 255
221 235 255
221 235 255
221 235 255
221 235 255
221 235 255
221 235 255
221 235 255
221 235 255
221 235 255
221 235 255
221 235 255
221 235 255
221 235 255
221 235 255
221 235 255
221 235 255
221 235 255
221 235 255
221 235 255
221 235 255
221 235 255
221 235 255
221 235 255
221 235 255
221 235 255
221 235 255
221 235 255
221 235 255
221 235 255
221 235 255
221 235 255
221 235 255
221 235 255
221 235 255
221 235 255
221 235 255
221 235 255
221 235 255
221 235 255
221 235 255
221 235 255
221 235 255
221 235 255
221 235 255
221 235 255
221 235 255
221 235 255
221 235 255
221 235 255
221 235 255
221 235 255
221 235 255
221 235 255
221 235 255
221 235 255
221 235 255
221 235 255
221 235 255
221 235 255
221 235 255
221 235 255
221 235 255
221 235 255
220 235 255
220 235 255
220 235 255
220 235 255
220 235 255
220 235 255
220 235 255
220 235 255
220 235 255
220 235 255
220 235 255
220 235 255
220 235 255
220 235 255
220 235 255
220 235 255
220 235 255
220 235 255
159 178 211
65 99 157
63 98 152
63 98 151
62 96 144
62 96 140
62 97 141
62 97 148
62 97 144
62 97 141
60 95 137
62 97 148
61 96 141
62 97 145
63 98 152
60 95 135
62 97 144
61 96 145
61 95 136
60 94 124
60 95 125
58 92 122
61 96 141
60 94 134
59 94 135
61 96 145
59 92 130
60 95 134
61 96 139
60 95 136
60 95 136
60 95 134
61 95 135
61 95 128
61 95 140
60 94 134
59 93 131
58 91 129
60 95 135
59 93 129
60 94 140
60 95 142
62 97 144
60 94 135
60 95 135
60 94 135
59 94 133
60 94 135
59 93 134
59 94 136
60 94 130
61 96 137
59 93 133
59 94 125
61 96 139
59 93 129
58 92 130
60 95 131
59 93 129
61 96 136
58 92 125
59 93 133
60 95 138
59 93 131
61 96 137
60 94 140
59 93 126
59 92 122
60 94 139
58 93 125
59 94 133
61 95 137
61 95 135
60 94 132
59 92 138
58 92 123
58 91 134
59 92 128
59 91 131
59 93 130
61 95 144
58 90 126
58 91 127
59 92 125
58 91 124
58 90 123
58 90 125
58 91 124
58 91 125
57 89 129
57 89 121
58 90 121
58 90 121
57 89 122
55 86 114
54 83 109
55 85 111
56 85 122
54 85 120
52 80 101
52 80 118
47 71 87
47 73 95
62 73 70
67 66 34
65 65 35
52 54 27
41 46 27
32 35 21
49 54 28
31 39 26
39 47 30
47 53 23
63 67 40
61 67 46
68 73 48
68 73 45
74 77 45
77 82 50
83 86 45
82 85 47
82 86 49
84 88 47
103 105 64
115 114 61
110 110 58
107 108 62
118 117 64
124 122 70
110 110 60
117 117 65
128 127 73
133 131 70
136 134 71
126 125 66
137 134 67
127 126 67
147 144 81
134 131 73
144 141 70
143 140 77
138 136 72
152 148 84
143 140 68
151 148 78
153 148 78
146 142 76
154 151 80
146 142 75
152 147 78
153 149 78
151 147 76
159 155 80
154 149 80
159 154 85
152 148 74
162 156 86
163 158 89
153 149 76
161 156 83
162 157 78
164 159 81
166 160 82
162 157 81
167 161 84
160 156 73
161 156 81
162 157 79
165 158 83
166 160 80
164 159 82
166 160 80
165 159 85
162 156 78
169 163 83
165 160 85
163 157 78
167 160 85
168 161 80
168 161 84
164 158 77
165 159 78
169 162 80
166 160 81
168 161 82
170 163 81
165 159 78
171 164 87
172 165 87
164 158 76
164 159 76
173 166 86
169 162 86
169 163 88
161 154 72
168 161 81
167 160 81
170 162 84
168 162 80
167 161 81
165 160 80
166 160 84
166 160 82
169 162 81
162 155 74
165 158 74
167 162 85
167 160 80
167 161 80
168 161 79
169 161 87
169 163 87
165 158 88
169 162 89
164 157 78
162 156 82
159 154 75
164 158 80
163 156 76
160 154 73
163 157 82
167 161 80
164 157 75
160 154 79
162 156 85
161 155 77
161 155 81
164 158 78
164 158 80
159 152 76
160 153 75
162 156 80
166 160 82
158 153 76
159 153 71
159 153 84
157 152 75
161 155 78
160 154 79
165 158 84
159 152 81
158 152 80
154 148 79
159 153 78
149 143 74
157 152 80
155 149 82
159 154 73
158 151 76
160 155 78
144 140 60
153 148 73
221 235 255
221 235 255
221 235 255
221 235 255
221 235 255
221 235 255
221 235 255
221 235 255
221 235 255
221 235 255
221 235 255
221 235 255
221 235 255
221 235 255
221 235 255
221 235 255
221 235 255
221 235 255
221 235 255
221 235 255
221 235 255
221 235 255
221 235 255
221 235 255
221 235 255
221 235 255
221 235 255
221 235 255
221 235 255
221 235 255
221 235 255
221 235 255
221 235 255
221 235 255
221 235 255
221 235 255
221 235 255
221 235 255
221 235 255
221 235 255
221 235 255
221 235 255
221 235 255
221 235 255
221 235 255
221 235 255
221 235 255
221 235 255
221 235 255
221 235 255
221 235 255
221 235 255
221 235 255
221 235 255
221 235 255
221 235 255
221 235 255
221 235 255
221 235 255
221 235 255
221 235 255
221 235 255
221 235 255
221 235 255
221 235 255
221 235 255
221 235 255
221 235 255
221 235 255
221 235 255
221 235 255
221 235 255
221 235 255
221 235 255
221 235 255
221 235 255
221 235 255
221 235 255
221 235 255
221 235 255
221 235 255
221 235 255
221 235 255
221 235 255
221 235 255
221 235 255
221 235 255
221 235 255
221 235 255
221 235 255
221 235 255
221 235 255
221 235 255
221 235 255
221 235 255
221 235 255
221 235 255
221 235 255
221 235 255
221 235 255
221 235 255
221 235 255
221 235 255
221 235 255
221 235 255
220 235 255
221 235 255
220 235 255
220 235 255
220 235 255
220 235 255
220 235 255
220 235 255
220 235 255
220 235 255
220 235 255
220 235 255
220 235 255
220 235 255
220 235 255
220 235 255
220 235 255
220 235 255
220 235 255
220 235 255
220 235 255
220 235 255
220 235 255
220 235 255
220 235 255
220 235 255
220 235 255
220 235 255
220 235 255
220 235 255
220 235 255
220 235 255
220 235 255
220 235 255
220 235 255
220 235 255
220 235 255
220 235 255
220 235 255
220 235 255
219 235 255
219 234 255
219 234 255
159 178 216
63 98 152
62 97 147
63 98 150
63 98 149
61 95 135
63 98 150
60 95 139
62 97 151
60 94 130
62 97 144
61 96 140
61 96 139
59 94 129
61 96 142
62 97 144
62 96 139
60 94 135
60 95 137
61 97 144
59 93 129
59 93 130
59 93 124
61 96 136
60 95 134
59 93 126
61 96 143
60 95 139
61 95 134
60 94 130
60 95 129
60 95 139
59 93 124
60 95 134
59 93 133
60 95 135
60 94 135
59 94 130
57 91 126
59 94 130
59 94 129
60 95 130
59 92 124
60 94 129
59 93 130
59 94 130
58 92 130
60 95 136
60 94 141
60 94 137
59 94 131
58 92 125
59 93 134
61 96 141
61 96 145
60 94 135
60 94 135
59 93 135
60 95 135
60 94 136
60 94 130
61 95 142
58 92 130
58 91 124
59 94 130
61 96 144
61 95 141
60 94 140
59 92 125
60 94 124
59 93 138
61 95 141
59 93 131
59 93 133
59 93 131
59 93 131
59 94 133
58 92 131
59 93 124
60 93 137
58 91 127
59 92 126
58 91 126
57 88 124
59 92 130
58 90 121
56 88 115
57 89 126
58 91 127
59 92 126
57 88 118
57 89 117
55 87 112
56 88 128
54 85 121
56 87 119
58 89 123
55 84 114
55 83 110
54 84 109
51 78 108
50 76 95
50 75 98
73 78 61
79 77 41
56 56 24
49 49 23
44 47 25
45 50 31
43 48 25
50 55 31
40 47 29
35 42 22
55 62 40
57 63 33
64 67 32
64 69 39
77 80 45
84 87 50
69 74 39
86 88 52
94 95 53
96 97 53
101 102 59
112 112 69
110 110 60
101 103 56
114 114 61
114 115 66
120 120 58
126 125 65
129 128 72
111 111 51
127 124 66
128 127 73
126 125 69
133 132 70
140 137 69
132 130 61
142 138 76
139 136 69
128 127 62
153 148 79
143 140 78
145 141 73
150 147 81
156 150 73
156 151 77
148 143 73
153 149 81
151 147 72
154 149 72
153 148 75
159 154 78
154 149 71
160 155 77
158 153 81
159 153 82
162 155 80
162 156 79
162 155 79
158 153 77
159 154 78
156 151 75
161 155 79
164 159 81
163 157 75
163 158 80
168 161 80
159 155 76
163 158 78
172 165 86
167 160 80
160 155 72
168 162 81
170 163 83
161 157 73
167 160 79
166 161 79
171 164 90
167 161 79
168 162 80
169 162 83
168 162 84
168 161 82
169 162 84
167 160 84
171 164 79
163 157 77
165 159 77
170 163 87
163 158 70
160 155 70
166 160 75
163 157 77
168 162 81
165 160 79
168 161 84
166 160 77
165 159 79
166 160 83
169 161 88
166 160 87
171 165 87
170 163 84
162 155 75
168 162 86
167 161 84
170 163 84
162 156 82
166 160 82
167 161 86
166 160 78
165 157 81
162 158 76
165 159 76
163 157 73
165 159 83
164 157 82
161 155 76
165 159 84
157 150 68
163 158 72
159 154 77
163 157 79
161 155 72
161 156 82
167 160 86
164 158 79
157 152 78
158 153 69
158 153 71
163 157 80
156 150 73
158 152 77
160 154 76
161 155 80
155 148 78
163 157 73
160 154 75
160 153 75
159 152 82
162 155 82
156 150 76
151 146 72
156 149 76
157 151 75
159 154 77
158 151 75
156 150 72
159 153 79
154 148 72
220 235 255
220 235 255
220 235 255
220 235 255
220 235 255
220 235 255
220 235 255
220 235 255
220 235 255
220 235 255
220 235 255
220 235 255
220 235 255
220 235 255
220 235 255
220 235 255
220 235 255
220 235 255
220 235 255
220 235 255
220 235 255
220 235 255
220 235 255
220 235 255
220 235 255
220 235 255
220 235 255
220 235 255
220 235 255
220 235 255
220 235 255
220 235 255
220 235 255
220 235 255
220 235 255
220 235 255
220 235 255
220 235 255
220 235 255
220 235 255
220 235 255
220 235 255
220 235 255
220 235 255
220 235 255
220 235 255
220 235 255
220 235 255
220 235 255
220 235 255
220 235 255
220 235 255
220 235 255
220 235 255
220 235 255
220 235 255
220 235 255
220 235 255
220 235 255
220 235 255
220 235 255
220 235 255
220 235 255
220 235 255
220 235 255
220 235 255
220 235 255
220 235 255
220 235 255
220 235 255
220 235 255
220 235 255
220 235 255
220 235 255
220 235 255
220 235 255
220 235 255
220 235 255
220 235 255
220 235 255
220 235 255
220 235 255
220 235 255
220 235 255
220 235 255
220 235 255
220 235 255
220 235 255
220 235 255
220 235 255
220 235 255
220 235 255
220 235 255
220 235 255
220 235 255
220 235 255
220 235 255
220 235 255
220 235 255
220 235 255
220 235 255
220 235 255
220 235 255
220 235 255
220 235 255
220 235 255
220 235 255
220 235 255
220 235 255
220 235 255
220 235 255
220 235 255
220 235 255
220 235 255
220 235 255
220 235 255
220 235 255
220 235 255
220 235 255
220 235 255
220 235 255
220 235 255
220 235 255
220 235 255
220 235 255
220 235 255
220 235 255
220 235 255
220 235 255
220 235 255
220 235 255
220 235 255
220 235 255
220 235 255
220 235 255
220 235 255
220 235 255
220 235 255
219 235 255
219 235 255
219 234 255
219 234 255
219 234 255
219 234 255
219 234 255
219 234 255
219 234 255
218 234 255
179 196 223
65 100 159
64 99 155
62 97 144
63 97 147
61 95 136
61 96 139
62 98 145
62 98 148
62 96 147
61 96 135
61 95 137
61 95 133
60 94 134
60 94 130
60 95 131
60 95 130
61 96 137
60 95 141
60 95 135
61 96 145
61 96 141
62 97 141
60 95 131
60 94 135
61 96 140
60 94 135
60 94 134
61 95 139
61 96 134
60 95 134
60 94 129
61 96 143
59 93 129
59 94 129
59 93 122
61 96 144
60 94 133
58 92 129
60 94 139
59 93 124
59 93 131
59 93 124
61 96 136
61 96 139
58 93 126
59 94 136
61 96 143
60 94 128
59 93 134
59 93 129
61 95 139
59 93 126
60 94 128
60 94 129
60 94 137
61 96 134
59 93 137
58 92 128
60 94 138
60 94 129
60 93 128
59 94 126
61 95 133
60 94 137
59 93 129
60 94 131
60 94 138
59 92 124
59 93 130
59 92 134
61 95 142
59 93 135
59 94 134
58 90 123
58 91 123
59 93 131
58 91 131
59 93 129
59 93 125
58 92 129
59 93 131
57 90 130
57 88 115
60 93 132
57 90 110
59 92 131
59 93 138
57 90 123
56 87 118
58 89 126
58 91 134
56 87 116
57 90 122
55 84 110
55 86 115
57 88 125
54 83 112
54 84 113
54 83 118
51 80 106
49 75 100
46 70 92
75 82 62
70 69 34
60 61 28
58 59 29
32 36 13
43 49 26
41 49 30
40 46 26
36 44 33
52 58 28
57 62 35
61 67 39
63 69 42
64 68 34
63 69 44
86 87 45
72 78 45
92 93 53
81 86 51
98 99 58
86 89 46
100 102 62
112 111 58
112 113 64
105 107 57
125 123 59
111 109 58
124 123 65
128 126 71
130 129 69
126 125 69
133 130 70
123 122 63
136 133 61
141 138 76
134 132 72
135 132 75
129 128 62
134 131 72
144 141 69
144 141 73
147 144 72
134 132 63
144 140 71
148 144 76
151 147 80
143 139 67
153 148 79
158 152 83
151 146 76
156 152 73
155 149 79
157 152 76
154 150 78
155 151 78
160 155 80
161 156 78
163 157 81
161 155 80
162 156 78
162 156 83
157 152 78
162 157 78
156 151 73
164 157 81
163 156 77
166 160 81
163 157 80
169 162 80
170 163 89
167 161 86
169 163 86
169 163 83
166 160 85
164 158 78
169 163 79
166 160 80
158 154 71
170 163 87
162 156 78
168 161 88
167 161 82
166 159 74
172 165 84
164 157 75
164 158 75
167 159 80
168 162 78
161 156 73
163 157 76
170 163 80
168 161 84
164 159 77
170 164 83
165 158 78
161 155 76
169 163 82
165 158 80
164 158 77
169 162 82
167 160 83
160 155 70
163 156 75
166 160 79
162 156 78
165 158 78
160 154 75
166 160 82
160 154 75
166 160 78
166 159 84
164 158 75
166 159 84
163 158 80
164 158 82
162 156 72
161 156 78
157 151 76
161 154 76
163 157 80
165 159 83
159 153 75
162 155 75
154 149 69
161 155 74
165 159 78
157 151 73
161 155 82
162 156 81
163 157 79
155 149 69
160 153 80
155 149 75
162 156 77
155 149 71
163 157 79
156 150 73
164 157 87
158 151 78
165 159 79
154 148 66
156 149 78
155 149 79
157 151 76
156 150 73
156 149 72
158 151 79
155 150 75
153 147 74
220 235 255
220 235 255
220 235 255
220 235 255
220 235 255
220 235 255
220 235 255
220 235 255
220 235 255
220 235 255
220 235 255
220 235 255
220 235 255
220 235 255
220 235 255
220 235 255
220 235 255
220 235 255
220 235 255
220 235 255
220 235 255
220 235 255
220 235 255
220 235 255
220 235 255
220 235 255
220 235 255
220 235 255
220 235 255
220 235 255
220 235 255
220 235 255
220 235 255
220 235 255
220 235 255
220 235 255
220 235 255
220 235 255
220 235 255
220 235 255
220 235 255
220 235 255
220 235 255
220 235 255
220 235 255
220 235 255
220 235 255
220 235 255
220 235 255
220 235 255
220 235 255
220 235 255
220 235 255
220 235 255
220 235 255
220 235 255
220 235 255
220 235 255
220 235 255
220 235 255
220 235 255
220 235 255
220 235 255
220 235 255
220 235 255
220 235 255
220 235 255
220 235 255
220 235 255
220 235 255
220 235 255
220 235 255
220 235 255
220 235 255
220 235 255
220 235 255
220 235 255
220 235 255
220 235 255
220 235 255
220 235 255
220 235 255
220 235 255
220 235 255
220 235 255
220 235 255
220 235 255
220 235 255
220 235 255
220 235 255
220 235 255
220 235 255
220 235 255
220 235 255
220 235 255
220 235 255
220 235 255
220 235 255
220 235 255
220 235 255
220 235 255
220 235 255
220 235 255
220 235 255
220 235 255
220 235 255
220 235 255
220 235 255
220 235 255
220 235 255
220 235 255
220 235 255
220 235 255
220 235 255
220 235 255
220 235 255
220 235 255
220 235 255
220 235 255
220 235 255
220 235 255
220 235 255
220 235 255
220 235 255
220 235 255
220 235 255
220 235 255
220 235 255
220 235 255
219 235 255
219 235 255
219 235 255
219 234 255
219 234 255
219 234 255
219 234 255
219 234 255
219 234 255
219 234 255
219 234 255
219 234 255
219 234 255
219 234 255
218 234 255
218 234 255
218 234 255
218 234 255
218 234 255
186 203 228
64 98 153
63 98 145
62 96 142
62 97 147
61 96 143
61 96 136
62 97 153
60 94 126
62 96 140
61 95 142
61 96 142
62 97 142
63 98 151
59 93 120
59 93 122
62 97 135
61 95 137
61 95 141
59 94 124
60 94 134
59 94 131
59 94 125
61 95 139
59 93 133
58 92 121
60 94 131
60 95 135
60 95 134
58 92 125
58 92 125
60 94 134
58 92 120
61 95 133
58 93 125
61 95 143
60 95 134
58 92 121
60 94 128
58 92 122
60 94 134
59 93 130
60 94 139
60 95 137
59 93 122
61 96 136
60 93 131
59 93 125
60 94 130
59 94 134
59 94 131
61 95 141
60 94 137
58 92 115
60 94 134
59 93 121
59 93 133
60 95 134
61 96 139
57 91 134
58 92 132
61 96 148
59 93 126
59 93 125
60 95 142
60 95 137
59 94 133
57 90 124
61 95 142
60 94 131
58 91 115
59 92 121
59 93 137
60 93 126
59 92 135
58 91 124
57 89 116
60 94 130
59 92 128
57 90 122
59 91 120
59 93 135
58 90 126
58 92 126
58 90 129
55 86 116
56 88 123
58 90 117
58 91 127
58 91 133
59 91 133
57 89 124
55 87 110
55 87 108
55 86 123
53 84 116
56 86 119
53 82 110
55 84 114
53 83 111
54 82 108
50 77 101
47 71 92
72 75 51
72 71 28
64 62 27
51 52 23
45 48 20
42 47 25
47 52 25
43 49 25
45 49 27
49 54 28
42 50 26
68 72 34
63 68 40
49 57 34
62 69 38
66 73 42
93 95 48
78 82 40
90 92 55
99 99 54
100 101 50
110 110 54
102 104 57
108 108 59
106 106 55
108 108 62
106 108 54
117 117 57
113 113 60
125 122 64
122 121 60
127 125 63
126 125 63
138 135 67
133 130 66
138 134 71
132 130 69
141 138 69
136 134 65
135 132 69
134 131 71
144 141 68
140 137 65
155 150 79
152 148 74
141 139 65
146 143 71
147 142 73
150 145 75
157 152 76
151 147 71
152 147 75
155 149 72
155 151 76
159 153 82
156 151 79
160 155 76
163 157 82
164 158 80
155 149 69
165 158 83
161 155 72
165 159 78
163 157 78
157 151 72
162 156 81
159 154 74
163 157 81
164 158 73
164 158 78
167 161 82
169 162 82
168 161 81
165 159 80
166 159 85
168 162 80
167 160 80
167 161 82
164 158 78
160 154 69
171 164 80
166 160 79
166 160 81
158 153 78
168 162 84
167 160 81
170 163 84
166 161 78
169 162 80
168 161 80
166 158 83
167 160 78
167 161 80
170 163 84
164 158 75
165 157 79
168 162 85
164 158 78
168 161 79
165 158 80
170 163 86
165 159 70
165 160 71
163 156 72
164 157 78
165 158 78
163 157 75
162 156 75
167 160 89
161 155 75
161 155 75
162 157 73
162 155 76
161 155 76
157 151 76
166 159 87
169 163 83
164 157 79
160 154 80
159 154 75
168 160 85
164 157 79
164 157 82
161 155 78
162 155 81
162 156 72
160 155 73
162 155 77
161 153 77
160 154 79
161 156 75
155 148 68
167 160 83
159 153 73
162 155 76
161 154 75
158 152 70
160 152 78
158 152 76
153 147 74
156 150 71
159 152 80
160 153 82
155 148 75
164 157 76
160 153 82
161 155 77
159 153 75
155 148 75
220 235 255
220 235 255
220 235 255
220 235 255
220 235 255
220 235 255
220 235 255
220 235 255
220 235 255
220 235 255
220 235 255
220 235 255
220 235 255
220 235 255
220 235 255
220 235 255
220 235 255
220 235 255
220 235 255
220 235 255
220 235 255
220 235 255
220 235 255
220 235 255
220 235 255
220 235 255
220 235 255
220 235 255
220 235 255
220 235 255
220 235 255
220 235 255
220 235 255
220 235 255
220 235 255
220 235 255
220 235 255
220 235 255
220 235 255
220 235 255
220 235 255
220 235 255
220 235 255
220 235 255
220 235 255
220 235 255
220 235 255
220 235 255
220 235 255
220 235 255
220 235 255
220 235 255
220 235 255
220 235 255
220 235 255
220 235 255
220 235 255
220 235 255
220 235 255
220 235 255
220 235 255
220 235 255
220 235 255
220 235 255
220 235 255
220 235 255
220 235 255
220 235 255
220 235 255
220 235 255
220 235 255
220 235 255
220 235 255
220 235 255
220 235 255
220 235 255
220 235 255
220 235 255
220 235 255
220 235 255
220 235 255
220 235 255
220 235 255
220 235 255
220 235 255
220 235 255
220 235 255
220 235 255
220 235 255
220 235 255
220 235 255
220 235 255
220 235 255
220 235 255
220 235 255
220 235 255
220 235 255
220 235 255
220 235 255
220 235 255
220 235 255
220 235 255
220 235 255
220 235 255
220 235 255
220 235 255
220 235 255
220 235 255
220 235 255
220 235 255
220 235 255
220 235 255
220 235 255
220 235 255
220 235 255
220 235 255
220 235 255
220 235 255
220 235 255
220 235 255
219 235 255
219 235 255
219 235 255
219 234 255
219 234 255
219 234 255
219 234 255
219 234 255
219 234 255
219 234 255
219 234 255
219 234 255
219 234 255
219 234 255
219 234 255
219 234 255
219 234 255
219 234 255
219 234 255
218 234 255
218 234 255
218 234 255
218 234 255
218 234 255
218 234 255
218 233 255
217 233 255
217 233 255
199 216 240
63 98 154
63 97 149
63 98 151
62 97 147
62 96 139
61 95 144
61 96 141
60 94 131
61 96 139
62 97 147
61 96 137
60 94 130
59 94 126
59 93 135
61 95 137
59 94 126
61 95 136
59 94 124
60 94 135
60 95 141
59 94 129
59 94 134
59 93 128
59 94 131
59 94 125
61 95 133
60 94 130
58 92 122
59 93 124
60 95 134
59 93 131
60 95 135
59 94 129
59 94 131
62 97 147
58 92 121
61 96 135
59 94 133
60 94 133
60 94 140
59 94 129
59 94 129
59 94 126
59 93 135
60 94 130
61 95 134
59 93 122
59 94 130
61 95 135
61 96 141
59 93 126
60 94 126
61 95 137
60 94 130
60 94 128
59 93 120
61 95 140
60 94 133
60 94 135
59 93 129
59 92 133
60 94 135
58 91 125
60 94 136
59 93 122
58 92 130
58 92 125
60 95 136
59 93 129
58 92 123
59 92 125
60 94 139
59 92 129
59 93 129
58 90 127
60 93 132
60 94 129
60 94 135
56 89 116
58 91 128
57 89 121
58 90 121
57 89 120
57 89 115
55 87 113
57 89 125
59 92 133
56 88 117
56 86 114
56 88 120
54 86 112
57 88 127
55 86 120
55 85 116
55 85 107
54 84 114
52 80 98
54 84 115
53 81 110
50 78 101
48 73 90
45 68 83
96 100 76
71 71 40
63 63 23
59 60 24
61 62 28
50 54 16
38 43 18
41 47 22
50 55 27
47 54 33
59 63 30
52 58 36
58 64 35
71 74 37
45 54 35
71 75 42
79 83 49
74 77 37
99 101 48
94 96 48
96 98 52
97 98 52
100 101 53
104 104 46
119 118 59
113 113 60
122 120 62
116 116 55
105 105 53
121 119 57
123 121 61
126 124 70
123 121 59
125 123 63
132 129 68
132 129 64
130 129 58
130 129 64
138 135 71
139 136 73
145 141 76
140 137 71
146 142 69
140 138 65
143 139 71
155 151 76
151 145 76
150 145 74
154 150 74
156 150 81
151 146 76
155 150 76
154 149 73
157 150 69
150 146 70
155 151 70
154 150 74
156 150 74
154 149 77
161 156 78
163 158 78
157 152 76
163 156 79
164 159 79
165 158 82
164 158 71
163 158 76
158 152 75
160 155 76
158 153 71
166 159 77
161 156 78
167 160 80
165 159 78
167 160 80
160 155 72
162 156 76
161 156 75
167 161 84
165 159 75
168 161 83
166 160 78
166 159 76
168 161 81
169 162 78
169 162 78
172 164 83
165 159 82
168 162 78
166 159 78
163 158 80
163 156 76
168 160 78
162 155 75
163 157 81
170 162 84
163 157 71
159 153 75
170 162 84
165 158 77
167 160 84
168 161 81
167 160 78
162 156 80
159 154 75
160 153 74
166 160 80
163 156 82
164 158 75
161 155 78
162 155 74
163 156 84
166 160 80
162 156 82
162 155 75
161 155 77
164 156 85
154 149 67
166 160 81
160 154 75
163 157 80
162 155 78
158 151 78
160 152 76
161 155 77
164 157 83
164 157 80
162 155 78
159 153 71
161 155 74
159 152 76
159 154 73
158 152 80
159 152 75
161 155 75
160 154 78
158 152 73
156 149 72
147 141 69
154 148 71
160 154 77
156 149 75
161 155 75
157 151 70
162 156 77
151 146 72
156 150 73
146 140 62
159 152 83
220 235 255
220 235 255
220 235 255
220 235 255
220 235 255
220 235 255
220 235 255
220 235 255
220 235 255
220 235 255
220 235 255
220 235 255
220 235 255
220 235 255
220 235 255
220 235 255
220 235 255
220 235 255
220 235 255
220 235 255
220 235 255
220 235 255
220 235 255
220 235 255
220 235 255
220 235 255
220 235 255
220 235 255
220 235 255
220 235 255
220 235 255
220 235 255
220 235 255
220 235 255
220 235 255
220 235 255
220 235 255
220 235 255
220 235 255
220 235 255
220 235 255
220 235 255
220 235 255
220 235 255
220 235 255
220 235 255
220 235 255
220 235 255
220 235 255
220 235 255
220 235 255
220 235 255
220 235 255
220 235 255
220 235 255
220 235 255
220 235 255
220 235 255
220 235 255
220 235 255
220 235 255
220 235 255
220 235 255
220 235 255
220 235 255
220 235 255
220 235 255
220 235 255
220 235 255
220 235 255
220 235 255
220 235 255
220 235 255
220 235 255
220 235 255
220 235 255
220 235 255
220 235 255
220 235 255
220 235 255
220 235 255
220 235 255
220 235 255
220 235 255
220 235 255
220 235 255
220 235 255
220 235 255
220 235 255
220 235 255
220 235 255
220 235 255
220 235 255
220 235 255
220 235 255
220 235 255
220 235 255
220 235 255
220 235 255
220 235 255
220 235 255
220 235 255
220 235 255
220 235 255
220 235 255
220 235 255
220 235 255
220 235 255
219 235 255
219 235 255
219 235 255
219 235 255
219 235 255
219 234 255
219 234 255
219 234 255
219 234 255
219 234 255
219 234 255
219 234 255
219 234 255
219 234 255
219 234 255
219 234 255
219 234 255
219 234 255
219 234 255
219 234 255
219 234 255
219 234 255
219 234 255
219 234 255
219 234 255
219 234 255
218 234 255
218 234 255
218 234 255
218 234 255
218 234 255
218 234 255
218 234 255
218 234 255
218 233 255
217 233 255
217 233 255
217 233 255
217 233 255
216 233 255
209 225 248
64 99 154
63 98 153
61 96 143
62 96 136
62 97 145
62 96 140
62 97 141
61 95 137
60 94 128
61 95 140
60 95 141
60 94 133
60 94 128
60 95 128
60 94 136
60 95 136
61 95 137
61 95 129
59 93 122
59 94 125
59 94 128
60 95 134
59 94 126
59 94 122
60 95 134
60 94 139
60 95 136
59 94 133
59 94 121
58 92 124
59 94 126
59 92 133
61 95 136
60 94 139
59 94 133
59 94 122
60 95 131
60 95 126
59 93 129
59 93 128
59 92 128
58 92 124
59 94 133
59 93 136
60 94 129
59 94 131
61 96 140
59 94 126
60 95 135
59 94 133
59 93 129
56 89 114
60 94 133
59 93 129
60 95 136
61 95 130
60 94 131
60 94 130
59 94 129
61 95 140
58 92 126
61 96 143
57 91 122
59 92 130
59 92 125
58 92 120
59 93 129
58 92 128
61 96 144
59 92 128
58 91 120
58 91 123
59 93 128
59 92 131
61 95 136
59 92 137
60 93 132
56 88 101
59 92 128
59 92 120
59 92 129
57 89 120
57 89 124
57 88 113
58 91 129
57 89 116
58 90 135
57 89 120
56 87 115
58 91 127
57 89 117
60 92 130
56 88 123
55 86 118
52 81 98
55 84 103
51 79 102
47 73 89
53 81 101
50 76 95
47 73 87
48 72 89
137 143 141
75 76 35
63 63 27
51 52 20
49 49 10
40 42 10
43 45 16
49 51 20
51 55 18
49 53 28
66 70 35
61 65 37
66 70 29
57 63 37
61 67 39
60 64 31
99 99 47
79 83 43
82 84 46
91 93 50
86 89 53
98 100 52
107 107 59
103 104 49
108 108 47
109 109 57
108 106 56
114 113 59
124 122 57
118 117 56
117 117 55
131 127 63
127 126 64
128 125 65
124 123 66
138 136 66
142 139 63
132 130 65
137 134 75
144 140 66
145 142 71
141 138 65
148 143 73
144 139 68
151 146 68
136 132 62
144 140 71
148 144 63
150 146 66
150 146 67
151 146 69
160 153 83
156 151 79
157 152 78
156 150 74
153 149 68
153 149 67
161 155 84
153 149 73
155 151 75
157 152 75
160 153 79
155 150 67
157 152 71
157 151 71
162 156 77
157 151 63
164 159 75
166 160 81
159 153 74
168 161 81
161 156 71
164 158 73
167 161 76
163 157 78
167 160 81
164 158 75
169 163 81
163 156 74
163 157 74
165 159 80
163 157 80
167 160 81
164 158 75
166 160 82
170 162 85
164 158 80
168 162 78
161 155 70
169 162 84
166 160 76
168 160 80
164 158 71
167 160 81
164 157 80
169 161 80
167 160 81
166 160 80
164 157 76
168 161 82
161 155 82
157 151 65
167 160 77
165 160 79
163 157 79
166 159 79
163 157 75
161 156 72
162 155 77
167 161 80
164 158 73
157 152 74
164 156 79
161 155 72
154 147 71
165 158 84
160 153 76
155 149 71
165 159 78
164 158 80
161 156 71
161 156 73
166 159 80
160 154 69
155 150 67
157 152 76
162 156 71
169 163 84
165 158 79
160 154 75
157 151 66
165 159 80
164 158 84
160 154 78
159 153 76
158 151 78
157 151 74
155 150 71
164 156 80
159 153 74
157 151 77
161 155 78
154 148 75
159 153 77
156 150 73
152 146 75
154 147 72
146 140 66
160 153 78
219 234 255
219 234 255
219 234 255
219 234 255
219 234 255
219 235 255
219 235 255
219 235 255
219 235 255
219 235 255
219 235 255
219 235 255
219 235 255
219 235 255
219 235 255
219 235 255
219 235 255
219 235 255
219 235 255
219 235 255
219 235 255
220 235 255
220 235 255
220 235 255
220 235 255
220 235 255
220 235 255
220 235 255
220 235 255
220 235 255
220 235 255
220 235 255
220 235 255
220 235 255
220 235 255
220 235 255
220 235 255
220 235 255
220 235 255
220 235 255
220 235 255
220 235 255
220 235 255
220 235 255
220 235 255
220 235 255
220 235 255
220 235 255
220 235 255
220 235 255
220 235 255
220 235 255
220 235 255
220 235 255
220 235 255
220 235 255
220 235 255
220 235 255
220 235 255
220 235 255
220 235 255
220 235 255
220 235 255
220 235 255
220 235 255
220 235 255
220 235 255
220 235 255
220 235 255
220 235 255
220 235 255
220 235 255
220 235 255
220 235 255
220 235 255
220 235 255
220 235 255
220 235 255
220 235 255
220 235 255
220 235 255
220 235 255
220 235 255
220 235 255
220 235 255
220 235 255
220 235 255
220 235 255
220 235 255
220 235 255
220 235 255
220 235 255
219 235 255
219 235 255
219 235 255
219 235 255
219 235 255
219 235 255
219 235 255
219 235 255
219 234 255
219 234 255
219 234 255
219 234 255
219 234 255
219 234 255
219 234 255
219 234 255
219 234 255
219 234 255
219 234 255
219 234 255
219 234 255
219 234 255
219 234 255
219 234 255
219 234 255
219 234 255
219 234 255
219 234 255
219 234 255
219 234 255
219 234 255
219 234 255
219 234 255
219 234 255
219 234 255
219 234 255
219 234 255
218 234 255
218 234 255
218 234 255
218 234 255
218 234 255
218 234 255
218 234 255
218 234 255
218 234 255
218 234 255
217 233 255
217 233 255
217 233 255
217 233 255
217 233 255
217 233 255
216 233 255
216 233 255
215 232 255
220 235 255
69 102 149
62 96 144
63 98 153
62 97 149
61 96 134
60 94 129
61 95 144
61 96 135
61 96 142
60 94 122
61 96 134
61 95 137
61 96 137
61 96 135
62 97 147
60 94 135
61 96 133
60 95 140
60 95 131
60 95 135
58 92 121
61 96 142
59 94 131
60 94 131
60 94 131
59 93 122
60 95 136
60 95 133
61 96 137
60 95 139
60 94 122
60 95 140
59 93 122
61 95 139
61 95 131
60 94 133
60 95 139
61 96 139
59 93 130
60 94 130
61 95 134
59 93 125
59 93 121
59 93 126
58 92 113
61 95 135
59 93 126
59 93 129
60 94 130
58 92 120
59 93 122
60 94 134
59 92 130
59 93 126
60 93 131
59 93 129
60 95 131
58 92 126
59 93 129
58 91 126
60 94 129
60 94 132
59 93 128
59 92 127
59 93 130
60 94 133
59 93 129
59 93 130
59 92 120
58 91 113
59 93 130
58 91 126
58 91 124
57 90 116
61 95 139
58 91 123
56 88 114
57 91 117
58 91 123
58 91 121
59 92 123
58 91 125
58 91 125
60 93 130
56 88 118
55 85 105
57 89 119
57 89 123
57 88 115
55 85 108
58 90 123
55 85 116
56 86 115
53 83 106
56 86 109
55 85 108
51 79 94
51 78 103
52 79 94
53 80 99
47 71 81
66 83 83
187 196 205
56 57 23
59 61 28
50 52 25
47 49 15
55 58 21
42 48 27
52 55 25
38 44 21
51 56 22
47 55 27
60 64 23
54 59 29
61 67 39
73 75 43
70 74 36
80 83 48
82 83 44
95 97 51
87 89 43
96 96 50
94 95 44
104 104 54
99 100 52
107 108 56
118 116 54
110 110 52
110 111 57
115 113 57
125 123 64
123 121 65
118 116 57
124 121 60
131 126 63
137 134 64
129 127 65
138 134 71
125 123 58
139 135 66
126 125 59
130 128 61
134 131 62
152 148 72
139 136 68
137 134 68
153 148 73
147 142 64
161 155 80
144 141 70
150 146 76
150 146 72
146 143 74
153 149 60
152 148 68
158 153 75
152 147 66
157 151 73
155 150 74
149 145 71
167 161 81
153 149 71
166 159 80
152 147 68
162 156 78
155 151 67
160 155 73
170 162 80
167 159 77
165 159 81
165 159 75
158 153 71
165 158 76
165 158 75
160 155 73
161 155 71
164 158 71
161 155 78
164 157 77
165 159 73
160 154 68
163 158 75
163 157 78
163 157 71
165 159 77
165 159 79
168 161 79
170 162 82
166 160 79
165 158 74
165 159 78
165 159 78
165 158 79
166 159 76
164 157 72
159 154 74
165 158 78
169 162 83
158 152 65
161 156 74
163 156 77
167 159 80
162 155 77
166 160 78
157 152 65
164 157 72
165 158 80
158 152 71
161 154 75
163 157 77
161 155 74
163 157 76
161 155 75
163 156 77
166 159 80
157 150 63
160 154 75
153 148 64
164 157 79
164 157 81
157 151 72
162 155 75
147 143 68
159 153 75
157 151 74
158 151 75
161 155 75
165 158 80
163 156 80
152 147 70
157 150 75
154 149 70
156 150 67
161 154 71
156 148 72
159 152 75
159 152 75
159 152 77
159 154 73
150 145 73
161 155 86
158 151 75
149 143 69
152 146 72
158 151 75
151 146 67
156 150 73
157 151 75
149 143 71
152 145 75
219 234 255
219 234 255
219 234 255
219 234 255
219 234 255
219 234 255
219 234 255
219 234 255
219 234 255
219 234 255
219 234 255
219 234 255
219 234 255
219 234 255
219 234 255
219 234 255
219 234 255
219 234 255
219 234 255
219 234 255
219 234 255
219 234 255
219 234 255
219 234 255
219 234 255
219 234 255
219 234 255
219 234 255
219 234 255
219 234 255
219 234 255
219 234 255
219 234 255
219 234 255
219 234 255
219 234 255
219 234 255
219 234 255
219 234 255
219 234 255
219 235 255
219 235 255
219 234 255
219 234 255
219 235 255
219 234 255
219 235 255
219 235 255
219 235 255
219 235 255
219 235 255
219 235 255
219 235 255
219 235 255
219 235 255
219 235 255
219 235 255
219 235 255
219 235 255
219 235 255
219 235 255
219 235 255
219 235 255
219 235 255
219 235 255
219 235 255
219 235 255
219 235 255
219 235 255
219 235 255
219 235 255
219 235 255
219 235 255
219 234 255
219 235 255
219 235 255
219 234 255
219 234 255
219 234 255
219 234 255
219 234 255
219 234 255
219 234 255
219 234 255
219 234 255
219 234 255
219 234 255
219 234 255
219 234 255
219 234 255
219 234 255
219 234 255
219 234 255
219 234 255
219 234 255
219 234 255
219 234 255
219 234 255
219 234 255
219 234 255
219 234 255
219 234 255
219 234 255
219 234 255
219 234 255
219 234 255
219 234 255
219 234 255
219 234 255
219 234 255
219 234 255
219 234 255
219 234 255
219 234 255
219 234 255
219 234 255
219 234 255
219 234 255
219 234 255
219 234 255
219 234 255
219 234 255
218 234 255
218 234 255
218 234 255
218 234 255
218 234 255
218 234 255
218 234 255
218 234 255
218 234 255
218 234 255
218 234 255
218 234 255
218 234 255
218 233 255
217 233 255
217 233 255
217 233 255
217 233 255
217 233 255
217 233 255
216 233 255
216 233 255
216 233 255
216 232 255
215 232 255
215 232 255
222 236 255
129 150 189
63 97 148
60 94 134
62 97 145
61 96 142
62 97 149
61 95 136
61 96 142
60 94 135
61 96 137
61 96 144
61 95 137
61 96 140
59 93 125
61 95 137
60 95 140
60 94 126
61 95 135
60 95 129
60 95 131
60 94 125
59 93 131
60 95 131
59 94 124
59 93 130
59 93 125
61 96 141
61 95 134
59 93 125
60 95 129
59 93 129
60 95 128
60 94 130
59 93 125
57 91 113
60 95 125
60 94 133
60 95 126
58 92 120
59 94 121
59 93 125
59 93 122
60 94 134
60 94 133
60 94 134
60 94 137
59 94 126
60 93 130
60 94 135
58 91 125
60 94 132
59 93 126
60 94 130
59 93 134
59 94 122
57 90 110
60 94 134
59 93 126
60 95 129
60 94 137
57 90 119
60 94 134
58 91 124
59 93 135
60 94 126
57 90 108
58 91 123
59 92 124
60 94 134
57 90 120
58 90 113
58 92 128
58 90 116
59 93 124
58 92 128
59 93 131
57 91 118
57 90 120
58 90 116
58 92 126
57 89 124
57 89 119
58 92 129
60 93 124
56 88 120
59 91 127
55 86 118
58 91 125
56 88 114
55 85 114
58 90 124
57 88 120
57 88 114
54 85 111
54 85 112
53 82 107
55 85 108
53 82 102
55 83 110
52 79 106
47 72 90
101 115 129
204 215 227
80 78 27
73 73 32
55 56 17
69 69 23
43 45 16
57 59 20
43 47 19
48 52 18
42 49 24
50 56 25
65 67 26
66 69 26
71 73 29
78 81 32
78 78 36
70 75 31
81 85 43
91 92 36
90 92 37
98 97 44
84 86 45
96 98 53
102 102 48
108 107 54
112 112 53
111 110 51
118 117 52
113 112 51
121 119 57
118 116 56
118 117 54
125 124 60
124 123 65
118 117 60
129 127 66
131 129 56
130 128 62
137 134 68
147 142 67
133 130 64
140 136 67
141 137 62
144 140 68
155 150 80
145 141 65
139 135 67
148 143 64
149 143 67
145 140 68
155 150 71
153 148 68
153 148 78
160 154 78
154 150 58
159 152 75
163 157 75
156 151 78
154 149 73
158 152 67
156 150 71
160 154 80
158 153 68
156 151 77
158 152 66
163 157 74
160 154 68
164 157 74
158 153 66
162 156 74
164 158 78
161 156 72
160 155 74
160 154 69
161 156 75
164 157 72
167 161 84
167 161 76
164 158 74
168 161 84
165 158 73
166 160 81
160 154 69
161 155 76
167 161 77
160 154 70
166 159 75
164 158 67
169 162 77
165 159 74
166 159 83
156 150 69
163 157 74
164 158 76
164 158 80
170 163 84
164 158 75
165 159 77
165 159 75
167 160 75
162 155 68
163 157 77
161 155 67
164 158 80
164 158 69
163 157 75
164 158 75
166 160 77
164 157 78
160 153 71
160 154 69
168 161 82
161 155 71
167 160 83
167 160 81
164 156 80
160 153 74
162 156 74
159 152 67
158 152 69
164 157 79
162 155 75
161 154 73
167 160 79
163 156 82
161 154 73
155 149 70
155 149 66
156 149 71
160 153 76
156 149 75
157 151 76
158 152 73
158 151 70
162 155 75
159 152 69
146 141 64
152 145 64
157 151 75
157 151 73
153 147 73
152 146 74
153 147 65
158 152 70
155 149 75
150 144 66
149 143 69
151 145 75
160 153 74
219 234 255
219 234 255
219 234 255
219 234 255
219 234 255
219 234 255
219 234 255
219 234 255
219 234 255
219 234 255
219 234 255
219 234 255
219 234 255
219 234 255
219 234 255
219 234 255
219 234 255
219 234 255
219 234 255
219 234 255
219 234 255
219 234 255
219 234 255
219 234 255
219 234 255
219 234 255
219 234 255
219 234 255
219 234 255
219 234 255
219 234 255
219 234 255
219 234 255
219 234 255
219 234 255
219 234 255
219 234 255
219 234 255
219 234 255
219 234 255
219 234 255
219 234 255
219 234 255
219 234 255
219 234 255
219 234 255
219 234 255
219 234 255
219 234 255
219 234 255
219 234 255
219 234 255
219 234 255
219 234 255
219 234 255
219 234 255
219 234 255
219 234 255
219 234 255
219 234 255
219 234 255
219 234 255
219 234 255
219 234 255
219 234 255
219 234 255
219 234 255
219 234 255
219 234 255
219 234 255
219 234 255
219 234 255
219 234 255
219 234 255
219 234 255
219 234 255
219 234 255
219 234 255
219 234 255
219 234 255
219 234 255
219 234 255
219 234 255
219 234 255
219 234 255
219 234 255
219 234 255
219 234 255
219 234 255
219 234 255
219 234 255
219 234 255
219 234 255
219 234 255
219 234 255
219 234 255
219 234 255
219 234 255
219 234 255
219 234 255
219 234 255
219 234 255
219 234 255
219 234 255
219 234 255
219 234 255
219 234 255
219 234 255
219 234 255
219 234 255
219 234 255
219 234 255
219 234 255
219 234 255
219 234 255
218 234 255
218 234 255
218 234 255
218 234 255
218 234 255
218 234 255
218 234 255
218 234 255
218 234 255
218 234 255
218 234 255
218 234 255
218 234 255
218 234 255
218 234 255
218 234 255
217 233 255
217 233 255
217 233 255
217 233 255
217 233 255
217 233 255
217 233 255
217 233 255
216 233 255
216 233 255
216 233 255
216 232 255
216 232 255
215 232 255
215 232 255
214 232 255
214 231 255
224 237 255
167 183 208
62 96 142
61 96 140
60 94 141
62 97 143
61 95 140
60 95 135
62 96 140
60 94 137
60 94 133
62 97 148
60 94 134
60 94 130
59 94 129
61 96 137
59 94 125
59 94 118
59 93 117
59 93 122
60 94 129
60 94 136
59 94 130
60 94 124
60 94 131
58 92 117
60 95 137
60 94 136
58 92 125
57 91 120
58 92 125
58 92 131
60 95 137
60 94 134
59 93 135
59 93 128
60 94 135
59 94 126
58 93 125
59 94 126
59 93 117
60 94 128
59 93 126
59 93 129
60 94 131
58 93 118
59 93 130
59 93 128
59 93 124
60 94 133
59 93 124
58 92 129
60 93 130
59 94 128
59 93 126
59 93 121
58 92 118
58 92 126
58 92 126
60 94 141
56 89 108
59 94 133
59 93 121
59 93 135
59 92 122
58 91 121
59 93 124
59 93 131
58 91 121
59 93 128
59 92 128
58 92 123
60 94 135
58 91 113
59 93 126
59 93 132
57 90 108
59 92 132
60 94 131
57 90 123
57 90 119
57 88 123
58 92 132
59 92 133
59 93 127
57 88 119
56 88 116
56 88 116
57 89 121
56 88 119
57 89 121
54 84 117
55 85 114
54 84 109
56 87 118
55 86 110
54 84 111
53 81 100
53 82 107
49 74 90
49 75 87
50 76 101
156 169 183
215 227 245
88 86 41
75 73 29
70 68 17
63 63 13
53 54 19
47 50 24
57 57 15
46 49 12
58 61 23
51 55 24
57 63 30
58 62 25
50 56 27
74 77 35
66 68 29
79 81 39
77 80 38
89 91 41
84 87 41
91 92 41
95 97 44
90 90 27
104 104 47
100 100 46
113 112 48
104 106 45
124 122 54
109 109 55
119 119 56
123 121 53
124 122 56
121 119 52
132 129 67
117 117 59
137 134 63
139 135 64
142 138 59
134 132 63
145 141 69
133 131 58
131 129 56
145 140 61
148 142 68
147 144 73
149 144 68
140 137 61
143 139 63
142 138 62
156 150 71
152 147 71
151 146 72
156 150 72
155 149 68
156 150 72
156 151 67
154 148 62
159 154 73
156 151 67
154 150 67
157 152 66
164 158 76
162 156 72
163 157 80
159 153 74
159 154 63
158 152 69
160 155 68
159 154 69
162 156 76
160 153 75
159 153 65
162 156 73
160 155 74
162 156 73
163 157 78
168 161 79
165 158 80
163 157 74
161 155 70
160 154 67
160 154 68
160 154 75
163 156 72
164 158 74
157 151 70
160 154 68
168 162 76
168 161 75
159 154 72
164 157 67
161 154 75
159 153 65
165 158 75
165 159 80
166 159 79
160 154 74
159 153 67
166 160 80
158 152 71
167 160 77
165 159 74
162 155 72
164 157 72
160 154 65
163 157 75
161 154 75
164 157 73
164 157 80
160 154 73
159 153 68
160 154 73
164 158 79
156 150 68
159 153 74
165 158 76
162 156 76
158 153 67
163 157 77
162 156 76
164 157 81
159 153 72
155 149 74
164 157 80
157 151 75
159 152 74
162 156 80
161 154 75
151 145 65
157 151 72
156 149 74
161 154 75
162 155 80
150 144 67
155 149 64
154 148 71
165 158 83
159 153 77
156 149 72
154 148 71
151 145 64
146 142 62
160 153 75
151 146 64
148 143 66
154 148 70
152 146 63
154 148 78
159 152 79
219 234 255
219 234 255
219 234 255
219 234 255
219 234 255
219 234 255
219 234 255
219 234 255
219 234 255
219 234 255
219 234 255
219 234 255
219 234 255
219 234 255
219 234 255
219 234 255
219 234 255
219 234 255
219 234 255
219 234 255
219 234 255
219 234 255
219 234 255
219 234 255
219 234 255
219 234 255
219 234 255
219 234 255
219 234 255
219 234 255
219 234 255
219 234 255
219 234 255
219 234 255
219 234 255
219 234 255
219 234 255
219 234 255
219 234 255
219 234 255
219 234 255
219 234 255
219 234 255
219 234 255
219 234 255
219 234 255
219 234 255
219 234 255
219 234 255
219 234 255
219 234 255
219 234 255
219 234 255
219 234 255
219 234 255
219 234 255
219 234 255
219 234 255
219 234 255
219 234 255
219 234 255
219 234 255
219 234 255
219 234 255
219 234 255
219 234 255
219 234 255
219 234 255
219 234 255
219 234 255
219 234 255
219 234 255
219 234 255
219 234 255
219 234 255
219 234 255
219 234 255
219 234 255
219 234 255
219 234 255
219 234 255
219 234 255
219 234 255
219 234 255
219 234 255
219 234 255
219 234 255
219 234 255
219 234 255
219 234 255
219 234 255
219 234 255
219 234 255
219 234 255
219 234 255
219 234 255
219 234 255
219 234 255
219 234 255
219 234 255
219 234 255
219 234 255
219 234 255
219 234 255
219 234 255
219 234 255
219 234 255
218 234 255
218 234 255
218 234 255
218 234 255
218 234 255
218 234 255
218 234 255
218 234 255
218 234 255
218 234 255
218 234 255
218 234 255
218 234 255
218 234 255
218 234 255
218 234 255
218 234 255
218 234 255
218 234 255
218 233 255
217 233 255
217 233 255
217 233 255
217 233 255
217 233 255
217 233 255
217 233 255
217 233 255
217 233 255
216 233 255
216 233 255
216 233 255
216 233 255
216 232 255
215 232 255
215 232 255
215 232 255
215 232 255
214 232 255
214 231 255
213 230 249
219 232 237
175 192 194
62 96 145
62 97 147
62 97 145
61 96 141
61 96 141
61 96 129
59 93 126
60 94 131
61 96 136
60 94 128
61 96 142
60 94 133
59 94 129
60 94 133
61 95 136
59 94 134
60 94 129
57 90 118
59 93 125
60 94 126
60 95 136
59 93 133
59 93 126
58 92 120
60 94 136
60 94 130
60 94 133
60 95 134
60 94 128
58 92 129
60 94 126
59 93 129
60 94 136
60 95 133
58 91 113
59 93 124
58 92 120
58 93 125
60 95 140
59 94 130
59 93 125
59 93 131
58 92 120
59 93 118
59 93 124
58 92 125
60 94 135
58 92 114
59 93 126
59 93 124
59 93 130
59 93 122
57 90 111
58 92 124
58 92 124
57 90 111
58 92 127
58 92 120
59 93 122
59 93 133
59 93 125
60 94 131
58 92 124
59 93 132
58 91 121
58 92 121
58 91 130
60 93 133
57 90 120
59 92 125
58 91 120
59 92 131
59 92 125
59 92 127
57 90 128
59 93 121
59 93 129
59 92 123
58 90 120
59 93 131
56 89 112
57 89 118
57 89 112
58 90 119
57 88 112
59 91 120
55 86 101
55 87 118
58 89 122
57 88 121
54 84 101
57 87 113
55 86 110
57 88 114
54 84 117
54 83 104
53 81 93
51 79 94
51 79 94
46 69 74
172 186 177
215 229 226
130 135 113
72 72 24
78 78 28
63 62 19
59 60 17
48 50 7
58 58 13
51 53 17
59 62 25
69 69 23
55 57 14
63 67 22
64 66 27
59 63 30
74 76 31
79 80 36
79 81 30
92 93 40
90 92 39
94 96 40
102 103 47
104 103 43
90 91 44
100 102 45
97 99 49
113 112 55
117 114 55
114 113 54
109 110 56
127 124 61
127 125 69
132 129 60
125 122 54
128 126 58
125 123 55
120 119 60
138 135 63
138 135 66
140 136 64
133 131 59
139 136 64
137 134 62
146 142 66
132 130 64
148 143 69
136 132 56
151 146 64
142 138 58
148 143 65
150 145 69
142 137 58
154 149 70
156 150 67
157 151 70
149 145 56
156 151 69
167 160 78
158 152 75
157 152 71
154 149 71
157 151 74
160 154 71
159 153 71
154 148 70
154 149 60
153 148 66
158 153 65
160 154 71
161 156 69
164 156 75
152 149 62
162 155 76
163 156 75
162 156 74
165 159 75
161 155 75
159 154 70
166 160 73
157 152 73
164 158 74
163 156 74
162 156 75
162 156 69
156 150 59
161 155 70
165 158 80
164 157 77
167 160 67
161 155 70
170 162 79
162 156 75
161 155 63
158 151 71
159 152 68
158 152 70
165 159 74
168 161 85
163 157 69
159 154 65
165 158 77
167 160 79
163 156 75
165 157 77
165 158 76
159 153 75
164 157 80
161 155 72
162 155 73
165 159 75
163 157 71
164 157 76
162 155 76
163 156 75
157 150 69
164 157 74
165 158 78
157 151 70
157 150 76
158 152 74
159 152 76
158 152 73
161 154 76
156 150 69
157 150 69
156 151 75
153 147 68
161 154 72
162 156 74
158 152 71
161 155 75
158 152 74
155 150 70
155 149 68
147 142 62
153 147 63
158 151 78
154 148 77
159 152 74
158 153 72
150 145 69
142 136 68
154 148 66
156 149 73
152 144 69
148 142 65
156 150 71
161 154 76
151 144 69
218 234 255
218 234 255
218 234 255
218 234 255
218 234 255
218 234 255
218 234 255
218 234 255
218 234 255
218 234 255
219 234 255
219 234 255
219 234 255
219 234 255
219 234 255
219 234 255
219 234 255
219 234 255
219 234 255
219 234 255
219 234 255
219 234 255
219 234 255
219 234 255
219 234 255
219 234 255
219 234 255
219 234 255
219 234 255
219 234 255
219 234 255
219 234 255
219 234 255
219 234 255
219 234 255
219 234 255
219 234 255
219 234 255
219 234 255
219 234 255
219 234 255
219 234 255
219 234 255
219 234 255
219 234 255
219 234 255
219 234 255
219 234 255
219 234 255
219 234 255
219 234 255
219 234 255
219 234 255
219 234 255
219 234 255
219 234 255
219 234 255
219 234 255
219 234 255
219 234 255
219 234 255
219 234 255
219 234 255
219 234 255
219 234 255
219 234 255
219 234 255
219 234 255
219 234 255
219 234 255
219 234 255
219 234 255
219 234 255
219 234 255
219 234 255
219 234 255
219 234 255
219 234 255
219 234 255
219 234 255
219 234 255
219 234 255
219 234 255
219 234 255
219 234 255
219 234 255
219 234 255
219 234 255
219 234 255
219 234 255
219 234 255
219 234 255
219 234 255
219 234 255
219 234 255
219 234 255
219 234 255
218 234 255
218 234 255
218 234 255
218 234 255
218 234 255
218 234 255
218 234 255
218 234 255
218 234 255
218 234 255
218 234 255
218 234 255
218 234 255
218 234 255
218 234 255
218 234 255
218 234 255
218 234 255
218 234 255
218 234 255
218 234 255
218 234 255
218 234 255
218 234 255
218 233 255
218 233 255
217 233 255
217 233 255
217 233 255
217 233 255
217 233 255
217 233 255
217 233 255
217 233 255
217 233 255
217 233 255
216 233 255
216 233 255
216 233 255
216 233 255
216 232 255
216 232 255
215 232 255
215 232 255
215 232 255
215 232 255
214 232 255
214 231 255
213 231 255
213 231 255
199 219 201
174 198 0
162 185 70
64 99 151
60 94 134
61 95 139
61 96 137
62 97 150
61 96 140
61 96 139
59 93 122
60 94 128
60 94 128
60 94 129
59 92 129
60 94 130
59 93 121
59 93 125
58 92 122
60 94 135
60 94 134
59 93 115
60 94 136
61 95 135
61 95 142
60 95 128
59 94 124
59 93 124
61 96 139
59 93 115
59 94 129
59 94 129
59 93 122
59 93 126
58 92 129
59 94 130
58 92 124
60 95 133
59 93 124
59 93 126
60 95 125
60 94 129
60 94 135
59 93 121
59 93 131
58 92 124
60 94 130
59 92 128
60 94 124
57 90 122
60 95 134
58 92 115
59 94 125
61 95 136
58 92 125
59 92 129
59 92 130
60 94 126
60 94 134
58 92 123
60 94 130
58 92 114
58 92 117
59 93 122
60 94 131
60 94 125
59 92 124
58 91 120
56 88 104
57 91 111
58 91 121
60 94 129
58 92 133
58 91 120
59 93 121
57 90 119
58 91 123
57 89 121
58 92 119
58 92 128
58 91 127
57 90 125
58 90 122
59 92 131
58 90 125
59 92 129
55 86 118
56 88 121
56 88 113
55 86 112
55 86 103
58 90 114
55 86 114
56 87 128
56 85 112
55 85 109
54 84 106
54 83 112
54 82 99
54 82 105
48 74 85
50 76 92
44 66 77
161 183 19
174 198 0
135 148 31
85 83 32
81 79 30
65 63 25
59 60 16
64 64 20
63 64 21
54 57 15
61 63 21
60 63 24
62 65 26
58 62 25
67 70 25
74 76 30
67 71 25
70 74 32
85 87 38
95 95 47
70 72 26
89 89 34
87 87 41
85 86 37
96 96 45
96 97 42
108 107 36
113 112 54
96 98 44
114 114 46
121 119 49
110 110 49
114 113 53
122 120 51
128 126 60
130 127 53
139 136 63
130 127 56
127 124 58
140 135 65
140 137 60
140 136 63
131 129 49
145 140 68
136 132 62
147 143 66
136 133 52
143 138 59
145 140 70
150 145 75
146 142 66
147 142 66
147 143 65
141 138 62
146 142 57
151 146 64
163 156 80
156 150 73
157 151 66
160 154 65
159 153 72
159 153 74
154 149 66
159 154 76
158 152 71
161 155 74
154 148 67
154 149 61
150 145 65
161 155 70
159 154 59
166 159 75
159 154 67
161 155 73
161 155 71
158 152 72
163 156 72
162 156 71
160 155 70
160 154 71
161 155 66
164 157 71
165 158 73
163 156 74
160 154 63
158 154 64
165 159 78
164 158 75
158 153 70
162 156 65
166 160 75
166 159 79
162 155 74
156 151 63
166 158 67
160 154 72
159 154 64
161 155 68
168 161 81
167 160 74
160 155 67
166 160 75
161 154 66
159 153 71
162 156 70
162 155 75
158 152 66
160 154 72
164 158 75
157 151 66
158 153 65
166 159 76
163 156 74
159 153 62
164 157 75
153 148 63
157 150 72
159 153 74
163 156 77
155 149 72
163 156 77
158 152 69
162 154 76
158 152 71
161 154 75
158 152 73
157 150 71
158 151 73
156 150 75
156 151 67
157 151 71
157 152 75
154 147 65
163 156 79
157 150 72
150 144 65
157 149 65
158 152 73
146 141 57
159 153 70
153 147 70
154 147 75
151 145 67
156 150 73
152 144 71
153 148 67
150 143 73
158 150 72
156 149 69
152 146 66
218 234 255
218 234 255
218 234 255
218 234 255
218 234 255
218 234 255
218 234 255
218 234 255
218 234 255
218 234 255
218 234 255
218 234 255
218 234 255
218 234 255
218 234 255
218 234 255
218 234 255
218 234 255
218 234 255
218 234 255
218 234 255
218 234 255
218 234 255
218 234 255
218 234 255
218 234 255
218 234 255
218 234 255
218 234 255
218 234 255
218 234 255
218 234 255
218 234 255
218 234 255
218 234 255
218 234 255
219 234 255
219 234 255
219 234 255
219 234 255
219 234 255
219 234 255
219 234 255
219 234 255
219 234 255
219 234 255
219 234 255
219 234 255
219 234 255
219 234 255
219 234 255
219 234 255
219 234 255
219 234 255
219 234 255
219 234 255
219 234 255
219 234 255
219 234 255
219 234 255
219 234 255
219 234 255
219 234 255
219 234 255
219 234 255
219 234 255
219 234 255
219 234 255
219 234 255
219 234 255
219 234 255
219 234 255
219 234 255
219 234 255
219 234 255
219 234 255
219 234 255
219 234 255
219 234 255
219 234 255
218 234 255
218 234 255
218 234 255
218 234 255
218 234 255
218 234 255
218 234 255
218 234 255
218 234 255
218 234 255
218 234 255
218 234 255
218 234 255
218 234 255
218 234 255
218 234 255
218 234 255
218 234 255
218 234 255
218 234 255
218 234 255
218 234 255
218 234 255
218 234 255
218 234 255
218 234 255
218 234 255
218 234 255
218 234 255
218 234 255
218 234 255
218 234 255
218 234 255
218 234 255
218 234 255
218 234 255
218 233 255
217 233 255
217 233 255
217 233 255
217 233 255
217 233 255
217 233 255
217 233 255
217 233 255
217 233 255
217 233 255
217 233 255
217 233 255
217 233 255
216 233 255
216 233 255
216 233 255
216 233 255
216 232 255
216 232 255
215 232 255
215 232 255
215 232 255
215 232 255
215 232 255
214 232 255
214 231 255
213 231 255
213 231 255
212 231 255
212 230 255
179 202 95
175 198 0
175 198 0
85 115 134
62 97 148
61 95 140
61 95 141
58 92 121
60 95 130
60 95 137
60 95 131
60 95 135
60 95 134
58 92 122
60 94 125
58 91 114
60 94 135
59 93 120
60 95 131
60 94 130
59 93 120
59 93 122
60 94 125
59 92 126
59 93 131
60 94 121
59 92 128
59 94 115
57 90 115
59 94 130
60 94 129
60 94 131
59 93 129
58 92 128
60 94 130
61 95 129
58 92 120
59 92 117
59 93 129
59 93 120
61 96 137
60 95 126
60 94 125
59 93 125
58 91 120
59 94 124
60 94 133
58 92 126
59 93 129
59 93 121
57 91 118
58 92 125
58 92 115
60 94 137
58 92 126
61 95 131
58 92 120
58 92 118
57 90 105
58 91 120
60 94 129
58 92 122
58 91 120
59 92 131
58 92 117
57 91 118
60 94 126
57 90 105
59 93 114
58 91 129
58 91 120
59 92 131
57 90 123
57 90 123
57 90 110
57 90 110
57 90 110
59 92 132
59 92 128
55 88 114
55 87 116
58 91 121
59 92 124
58 91 125
55 87 116
58 90 115
56 88 118
57 89 123
56 87 116
55 85 103
57 89 117
55 85 109
55 85 110
54 84 105
55 86 115
55 85 115
50 77 92
55 86 111
51 78 95
53 80 96
50 76 81
51 77 98
66 86 80
175 198 0
175 198 0
153 170 16
96 93 37
78 76 18
70 69 23
56 57 23
59 59 12
54 55 19
54 56 19
32 38 19
64 67 20
61 60 23
56 60 23
66 70 24
64 69 34
74 76 23
71 73 29
63 68 33
90 92 44
89 90 35
82 83 35
104 104 46
103 102 44
105 105 48
92 92 40
98 98 50
105 106 49
109 108 43
113 112 51
114 112 52
114 112 51
124 121 45
134 131 58
126 123 57
124 122 59
120 119 55
133 129 58
143 139 66
133 129 57
140 137 61
135 132 58
134 131 57
135 132 63
137 133 55
137 133 57
143 139 64
144 139 66
149 145 67
145 141 62
150 145 66
148 143 65
149 145 63
143 140 55
158 152 69
148 143 61
143 140 60
151 146 68
153 149 66
148 144 61
147 141 64
153 147 63
155 150 70
154 149 65
153 147 74
159 153 68
159 152 77
157 150 68
156 150 66
159 153 68
158 151 64
161 155 68
163 158 66
162 155 70
161 154 71
162 156 74
159 153 69
153 147 64
162 156 67
163 156 68
159 153 66
159 154 70
163 156 71
166 159 72
163 156 73
164 157 75
161 154 68
165 158 74
163 156 72
160 152 68
158 153 69
161 154 73
159 153 67
161 154 67
169 162 75
166 160 75
162 157 67
159 152 61
161 154 66
164 156 74
163 157 74
157 151 68
161 155 69
161 156 73
167 159 78
160 154 70
166 160 74
163 157 72
160 154 73
166 158 77
166 159 78
161 155 70
162 155 74
156 150 63
163 156 70
160 153 75
159 153 70
166 159 75
159 152 68
161 154 73
166 158 77
166 159 78
162 155 73
154 148 64
164 157 69
159 152 70
157 150 69
163 155 79
162 154 73
159 152 66
153 146 68
159 153 72
160 153 75
161 155 72
156 150 65
158 151 77
149 144 65
156 150 71
160 153 80
152 145 70
154 148 67
151 146 61
154 147 70
134 129 57
152 145 69
152 146 65
152 147 68
159 152 74
147 142 63
146 141 60
218 234 255
218 234 255
218 234 255
218 234 255
218 234 255
218 234 255
218 234 255
218 234 255
218 234 255
218 234 255
218 234 255
218 234 255
218 234 255
218 234 255
218 234 255
218 234 255
218 234 255
218 234 255
218 234 255
218 234 255
218 234 255
218 234 255
218 234 255
218 234 255
218 234 255
218 234 255
218 234 255
218 234 255
218 234 255
218 234 255
218 234 255
218 234 255
218 234 255
218 234 255
218 234 255
218 234 255
218 234 255
218 234 255
218 234 255
218 234 255
218 234 255
218 234 255
218 234 255
218 234 255
218 234 255
218 234 255
218 234 255
218 234 255
218 234 255
218 234 255
218 234 255
218 234 255
218 234 255
218 234 255
218 234 255
218 234 255
218 234 255
218 234 255
218 234 255
218 234 255
218 234 255
218 234 255
218 234 255
218 234 255
218 234 255
218 234 255
218 234 255
218 234 255
218 234 255
218 234 255
218 234 255
218 234 255
218 234 255
218 234 255
218 234 255
218 234 255
218 234 255
218 234 255
218 234 255
218 234 255
218 234 255
218 234 255
218 234 255
218 234 255
218 234 255
218 234 255
218 234 255
218 234 255
218 234 255
218 234 255
218 234 255
218 234 255
218 234 255
218 234 255
218 234 255
218 234 255
218 234 255
218 234 255
218 234 255
218 234 255
218 234 255
218 234 255
218 234 255
218 234 255
218 234 255
218 234 255
218 234 255
218 234 255
218 234 255
218 234 255
218 233 255
218 233 255
217 233 255
217 233 255
217 233 255
217 233 255
217 233 255
217 233 255
217 233 255
217 233 255
217 233 255
217 233 255
217 233 255
217 233 255
217 233 255
217 233 255
216 233 255
216 233 255
216 233 255
216 233 255
216 233 255
216 233 255
216 232 255
216 232 255
215 232 255
215 232 255
215 232 255
215 232 255
214 232 255
214 232 255
214 231 255
214 231 255
213 231 255
213 231 255
212 230 255
211 230 255
205 225 233
174 198 0
175 198 0
174 198 0
111 138 118
59 92 129
60 95 136
61 95 133
61 95 136
59 93 126
60 94 133
61 96 142
61 95 137
58 91 122
58 92 121
61 96 136
60 95 136
59 93 122
59 93 118
59 93 124
60 95 129
59 92 125
59 93 129
59 93 129
59 94 124
59 93 120
58 91 118
60 94 126
60 95 135
60 94 131
58 91 105
59 93 124
59 93 121
59 93 120
60 94 136
57 91 114
57 90 120
59 93 126
58 92 122
59 93 117
60 94 125
60 94 126
59 92 122
59 93 128
56 89 107
58 92 126
60 93 130
58 92 120
58 91 128
59 93 120
57 90 118
58 91 114
59 93 120
58 92 121
56 89 111
58 92 121
59 93 125
59 93 128
58 92 126
61 96 142
59 93 131
56 89 113
60 94 138
60 94 136
59 93 136
59 93 132
59 93 128
59 93 126
55 87 116
58 92 133
58 92 124
60 94 133
58 91 125
58 92 117
58 91 124
57 90 124
59 92 121
57 90 118
57 89 117
58 92 120
58 91 117
56 89 119
59 93 124
56 88 104
55 87 113
57 90 126
57 89 111
55 87 107
55 86 111
56 87 109
57 89 119
56 87 107
56 88 107
58 90 125
55 85 121
53 81 95
56 87 113
52 81 99
51 80 100
48 74 79
49 75 82
49 75 84
48 72 91
108 128 54
174 197 0
175 198 0
173 197 0
107 109 40
68 67 34
69 68 5
66 66 22
70 70 24
65 65 20
62 65 16
57 59 20
62 63 22
65 67 18
64 66 22
74 74 17
80 80 30
72 74 21
86 85 27
85 86 37
78 79 30
68 74 30
88 91 43
91 89 37
95 96 41
100 100 44
101 102 42
108 107 46
109 108 52
108 108 53
116 115 53
111 110 43
113 113 53
117 116 41
116 115 52
119 116 53
129 126 57
133 131 60
124 122 52
131 128 57
130 128 55
135 131 56
136 133 53
136 133 58
140 136 63
138 134 60
133 131 52
141 137 65
142 136 56
143 139 59
134 131 56
151 147 67
145 141 64
150 145 63
145 140 60
150 145 60
154 149 69
152 147 65
150 144 61
144 140 60
158 152 69
151 146 65
154 149 58
150 145 59
159 152 69
151 146 63
156 150 66
158 152 60
164 157 70
162 155 75
157 151 62
154 149 62
154 149 63
156 151 63
161 154 65
160 153 70
158 152 71
158 152 60
160 154 62
160 153 75
159 152 64
165 158 75
158 152 70
158 152 72
159 152 62
154 149 58
164 158 67
161 155 74
157 150 67
161 154 77
162 155 68
165 159 73
162 154 72
158 152 63
160 154 64
158 151 72
162 156 61
160 153 72
162 157 75
158 152 74
160 154 70
158 152 71
163 155 71
160 154 69
158 152 70
159 153 72
162 157 67
157 151 62
160 153 72
160 153 74
157 151 64
162 154 73
163 156 76
164 156 79
155 148 66
164 157 77
159 152 72
159 152 71
159 154 62
155 149 73
158 152 70
162 155 77
161 155 70
163 157 74
154 147 67
161 155 74
156 150 69
161 154 79
159 152 70
165 158 76
153 147 69
155 149 66
159 152 75
156 149 73
158 150 76
152 146 69
157 151 68
151 145 63
160 153 74
156 149 68
151 145 63
146 140 66
162 154 67
146 141 69
148 142 64
149 143 67
156 149 78
144 138 58
147 141 68
153 147 67
160 153 72
218 234 255
218 234 255
218 234 255
218 234 255
218 234 255
218 234 255
218 234 255
218 234 255
218 234 255
218 234 255
218 234 255
218 234 255
218 234 255
218 234 255
218 234 255
218 234 255
218 234 255
218 234 255
218 234 255
218 234 255
218 234 255
218 234 255
218 234 255
218 234 255
218 234 255
218 234 255
218 234 255
218 234 255
218 234 255
218 234 255
218 234 255
218 234 255
218 234 255
218 234 255
218 234 255
218 234 255
218 234 255
218 234 255
218 234 255
218 234 255
218 234 255
218 234 255
218 234 255
218 234 255
218 234 255
218 234 255
218 234 255
218 234 255
218 234 255
218 234 255
218 234 255
218 234 255
218 234 255
218 234 255
218 234 255
218 234 255
218 234 255
218 234 255
218 234 255
218 234 255
218 234 255
218 234 255
218 234 255
218 234 255
218 234 255
218 234 255
218 234 255
218 234 255
218 234 255
218 234 255
218 234 255
218 234 255
218 234 255
218 234 255
218 234 255
218 234 255
218 234 255
218 234 255
218 234 255
218 234 255
218 234 255
218 234 255
218 234 255
218 234 255
218 234 255
218 234 255
218 234 255
218 234 255
218 234 255
218 234 255
218 234 255
218 234 255
218 234 255
218 234 255
218 234 255
218 234 255
218 234 255
218 234 255
218 234 255
218 234 255
218 234 255
218 234 255
218 233 255
218 233 255
218 233 255
217 233 255
217 233 255
217 233 255
217 233 255
217 233 255
217 233 255
217 233 255
217 233 255
217 233 255
217 233 255
217 233 255
217 233 255
217 233 255
217 233 255
217 233 255
217 233 255
217 233 255
216 233 255
216 233 255
216 233 255
216 233 255
216 233 255
216 233 255
216 233 255
216 232 255
216 232 255
215 232 255
215 232 255
215 232 255
215 232 255
215 232 255
214 232 255
214 232 255
214 231 255
214 231 255
213 231 255
213 231 255
212 231 255
212 230 255
211 230 255
210 230 255
193 214 182
174 198 0
172 196 0
175 198 0
144 168 84
62 96 147
61 95 142
60 94 131
61 95 135
61 95 134
60 94 131
59 93 128
59 93 125
60 95 125
62 96 145
58 92 108
61 96 139
61 95 135
60 94 131
59 93 125
61 95 137
58 91 124
58 92 124
59 93 122
60 94 128
59 93 126
60 95 130
59 92 122
59 92 125
59 93 122
58 93 114
59 93 129
57 91 111
58 92 121
59 93 122
57 91 118
59 93 124
59 93 129
58 91 110
58 92 118
60 94 133
57 90 113
58 91 121
58 92 115
57 91 114
60 94 128
58 92 126
59 92 126
58 91 121
56 89 115
59 92 120
58 91 117
58 91 121
60 94 133
59 93 114
59 93 129
58 91 122
58 92 126
57 90 114
58 91 118
58 92 130
58 92 128
59 93 122
59 93 126
59 93 117
58 91 116
58 92 121
58 91 124
57 91 118
57 90 116
59 93 133
59 92 121
57 90 121
57 90 121
59 93 125
57 90 117
56 89 117
55 86 107
58 92 125
55 86 109
57 90 116
58 91 125
57 89 110
57 89 114
56 89 117
55 85 110
58 91 121
57 89 115
57 88 115
54 84 107
56 88 115
55 86 105
56 87 117
55 86 110
56 87 107
53 83 99
52 79 104
53 84 101
49 75 80
51 79 94
50 78 92
48 75 92
47 72 76
149 171 34
175 198 0
174 198 0
174 197 0
143 154 35
82 81 29
82 80 22
82 80 25
67 68 22
55 55 12
69 70 8
59 62 15
65 67 19
62 64 15
64 66 17
69 72 26
64 65 25
83 84 28
73 75 31
91 92 27
77 79 30
90 90 35
99 99 39
91 92 33
93 94 43
107 106 49
98 98 43
98 97 36
112 112 46
112 111 45
117 115 46
106 106 44
113 113 47
121 119 47
97 99 45
126 124 48
135 133 54
130 128 61
134 129 54
121 118 46
128 125 59
136 132 55
142 137 64
131 130 53
130 127 51
142 138 59
144 139 59
131 128 57
146 141 65
147 143 65
141 137 59
152 146 66
135 132 51
134 131 45
152 148 66
147 143 59
144 140 58
151 146 60
145 141 57
153 149 60
153 148 62
151 146 56
152 147 66
154 149 65
161 155 68
149 145 56
157 151 69
152 146 66
156 150 69
153 147 65
156 150 57
162 156 63
162 155 72
161 155 71
151 146 59
163 156 67
162 154 65
165 158 72
161 154 69
154 149 64
159 153 67
158 153 67
160 154 69
158 153 63
162 154 71
153 148 58
162 156 68
168 161 75
163 156 69
166 159 64
162 156 70
157 151 64
157 151 67
164 157 72
155 150 67
157 151 62
163 157 70
158 151 71
162 155 71
161 154 73
159 153 60
155 151 60
156 150 72
157 151 66
164 157 73
157 151 69
166 160 74
157 151 68
155 149 67
162 156 68
158 151 69
160 153 72
160 154 73
163 156 75
164 158 72
157 151 72
164 157 79
160 154 75
157 152 71
151 146 58
158 152 67
159 151 74
161 154 64
163 157 75
152 147 65
160 154 78
161 154 80
155 149 63
160 153 73
154 147 66
163 156 77
152 146 67
159 153 65
155 148 67
160 154 66
152 146 65
156 149 70
154 148 67
155 150 65
148 142 67
154 146 67
157 150 69
162 156 76
153 147 76
159 153 76
152 145 68
151 146 72
157 150 76
148 143 60
152 146 69
157 150 73
217 233 255
217 233 255
217 233 255
217 233 255
217 233 255
217 233 255
217 233 255
218 233 255
218 233 255
218 233 255
218 233 255
218 233 255
218 233 255
218 233 255
218 233 255
218 234 255
218 234 255
218 234 255
218 234 255
218 234 255
218 234 255
218 234 255
218 234 255
218 234 255
218 234 255
218 234 255
218 234 255
218 234 255
218 234 255
218 234 255
218 234 255
218 234 255
218 234 255
218 234 255
218 234 255
218 234 255
218 234 255
218 234 255
218 234 255
218 234 255
218 234 255
218 234 255
218 234 255
218 234 255
218 234 255
218 234 255
218 234 255
218 234 255
218 234 255
218 234 255
218 234 255
218 234 255
218 234 255
218 234 255
218 234 255
218 234 255
218 234 255
218 234 255
218 234 255
218 234 255
218 234 255
218 234 255
218 234 255
218 234 255
218 234 255
218 234 255
218 234 255
218 234 255
218 234 255
218 234 255
218 234 255
218 234 255
218 234 255
218 234 255
218 234 255
218 234 255
218 234 255
218 234 255
218 234 255
218 234 255
218 234 255
218 234 255
218 234 255
218 234 255
218 234 255
218 234 255
218 234 255
218 234 255
218 234 255
218 234 255
218 234 255
218 234 255
218 233 255
218 233 255
218 233 255
218 233 255
217 233 255
217 233 255
217 233 255
217 233 255
217 233 255
217 233 255
217 233 255
217 233 255
217 233 255
217 233 255
217 233 255
217 233 255
217 233 255
217 233 255
217 233 255
217 233 255
217 233 255
217 233 255
217 233 255
217 233 255
217 233 255
217 233 255
216 233 255
216 233 255
216 233 255
216 233 255
216 233 255
216 233 255
216 233 255
216 232 255
216 232 255
216 232 255
215 232 255
215 232 255
215 232 255
215 232 255
215 232 255
215 232 255
214 232 255
214 232 255
214 231 255
214 231 255
213 231 255
213 231 255
213 231 255
212 230 255
212 230 255
211 230 255
210 229 255
209 229 255
181 204 117
173 196 0
174 197 0
174 198 0
169 192 31
65 98 131
62 96 143
60 94 130
61 96 140
61 96 142
60 93 135
58 92 128
60 94 135
58 92 118
59 93 118
58 92 121
59 93 126
59 94 133
59 93 120
59 92 124
60 94 128
58 92 125
59 93 122
60 94 124
58 91 118
59 92 121
59 93 118
59 92 122
58 92 124
60 94 137
59 93 117
57 91 118
57 90 111
58 91 121
60 94 131
60 94 134
60 94 126
60 95 128
59 93 125
60 94 128
59 93 126
60 94 131
58 91 124
60 94 130
58 92 117
57 90 113
57 91 113
58 91 126
57 90 115
57 91 110
58 92 122
59 93 125
59 93 128
58 92 128
58 91 113
58 91 120
60 94 122
58 92 124
59 93 128
58 92 120
57 90 115
58 92 118
59 93 124
59 93 125
59 93 129
58 91 124
59 93 133
58 92 116
56 89 113
57 90 111
58 91 122
59 92 126
59 92 123
56 88 118
58 91 125
58 92 130
56 88 120
57 90 110
57 89 104
58 90 111
56 88 110
55 87 116
56 89 116
58 90 124
57 89 120
57 89 121
56 87 110
58 90 119
56 86 95
55 86 108
56 87 115
54 84 113
54 84 105
53 82 100
54 83 103
57 88 102
53 81 96
51 80 93
51 79 96
48 73 83
50 75 92
50 76 88
47 70 71
168 191 26
174 198 0
174 198 0
174 197 0
163 182 23
102 98 39
61 61 16
69 69 21
75 73 17
70 70 20
72 72 27
68 69 14
72 73 14
61 65 21
65 69 27
61 63 19
68 71 26
85 84 25
74 76 33
91 90 19
86 87 27
86 88 34
86 87 37
95 95 35
94 94 29
101 101 39
107 106 47
110 109 42
103 104 43
98 98 34
114 113 55
106 104 46
115 113 43
109 108 33
117 116 49
123 120 57
118 116 46
116 113 48
123 122 54
135 132 55
131 128 56
128 125 48
133 130 52
133 130 58
132 130 61
141 136 64
137 133 51
140 137 52
140 135 63
139 136 50
140 135 56
144 139 54
147 142 56
145 140 56
150 144 61
149 144 60
147 143 57
150 145 57
153 148 64
158 152 58
157 150 69
147 143 58
154 147 69
156 150 66
155 149 59
151 146 62
153 147 61
160 154 70
158 151 65
158 152 71
161 155 66
159 153 65
157 152 61
160 154 67
158 152 65
160 153 66
160 154 67
164 156 74
160 155 63
161 155 59
152 146 52
159 152 64
159 152 68
156 150 65
161 155 77
162 155 69
161 154 67
159 153 62
163 157 66
163 156 68
156 150 63
160 153 66
157 152 68
162 155 65
158 151 72
157 151 71
162 156 67
156 151 53
160 154 70
165 157 75
156 149 69
165 158 75
156 151 65
154 148 68
160 153 65
158 152 66
155 149 59
162 156 72
165 158 67
160 153 67
155 149 60
158 152 64
163 156 72
155 148 68
156 150 65
160 154 67
157 150 67
156 149 70
154 148 70
153 148 64
156 150 67
163 157 80
152 145 61
154 149 66
156 150 71
157 151 72
160 153 68
157 150 65
151 146 62
153 147 68
158 153 65
156 150 72
154 149 64
153 146 66
157 151 68
153 148 66
152 146 65
150 145 63
154 147 64
154 148 67
152 145 56
143 137 60
152 146 72
150 144 74
152 147 62
162 155 75
153 146 65
154 148 72
148 143 65
150 143 62
149 142 67
217 233 255
217 233 255
217 233 255
217 233 255
217 233 255
217 233 255
217 233 255
217 233 255
217 233 255
217 233 255
217 233 255
217 233 255
217 233 255
217 233 255
217 233 255
217 233 255
217 233 255
217 233 255
217 233 255
217 233 255
217 233 255
217 233 255
217 233 255
217 233 255
217 233 255
218 233 255
218 233 255
218 233 255
218 233 255
218 233 255
218 233 255
218 233 255
218 233 255
218 233 255
218 233 255
218 233 255
218 234 255
218 234 255
218 234 255
218 234 255
218 234 255
218 234 255
218 234 255
218 234 255
218 234 255
218 234 255
218 234 255
218 234 255
218 234 255
218 234 255
218 234 255
218 234 255
218 234 255
218 234 255
218 234 255
218 234 255
218 234 255
218 234 255
218 234 255
218 234 255
218 234 255
218 234 255
218 234 255
218 234 255
218 234 255
218 234 255
218 234 255
218 234 255
218 234 255
218 234 255
218 234 255
218 234 255
218 234 255
218 234 255
218 234 255
218 234 255
218 234 255
218 234 255
218 233 255
218 233 255
218 233 255
218 233 255
218 233 255
218 233 255
218 233 255
217 233 255
217 233 255
217 233 255
217 233 255
217 233 255
217 233 255
217 233 255
217 233 255
217 233 255
217 233 255
217 233 255
217 233 255
217 233 255
217 233 255
217 233 255
217 233 255
217 233 255
217 233 255
217 233 255
217 233 255
217 233 255
217 233 255
217 233 255
217 233 255
217 233 255
217 233 255
217 233 255
217 233 255
216 233 255
216 233 255
216 233 255
216 233 255
216 233 255
216 233 255
216 233 255
216 233 255
216 233 255
216 232 255
216 232 255
215 232 255
215 232 255
215 232 255
215 232 255
215 232 255
215 232 255
215 232 255
214 232 255
214 232 255
214 231 255
214 231 255
213 231 255
213 231 255
213 231 255
213 231 255
212 230 255
212 230 255
211 230 255
211 230 255
210 229 255
209 229 255
200 221 220
174 197 0
175 198 0
172 196 0
173 197 0
175 198 0
97 125 122
61 96 140
60 95 134
59 94 130
58 92 117
61 95 136
59 92 131
60 94 128
60 94 136
59 92 117
60 94 128
62 96 142
58 91 121
58 91 121
60 94 134
58 91 117
58 91 125
60 94 122
56 89 110
59 93 126
58 91 121
60 94 133
59 93 120
58 93 118
58 92 124
57 90 115
58 91 115
57 91 114
58 92 124
58 92 118
58 92 124
59 93 115
59 93 118
58 92 113
59 93 128
58 91 120
59 93 121
58 91 113
60 94 135
59 92 118
59 93 121
59 93 117
59 93 117
59 93 120
60 94 125
57 90 118
58 92 117
58 91 126
57 90 108
58 91 121
59 92 124
59 93 124
59 93 125
60 94 134
59 93 122
57 91 117
58 90 121
58 91 118
56 89 110
59 93 131
55 87 115
58 92 116
59 92 130
59 93 128
58 91 130
55 86 105
58 91 133
58 90 119
57 90 116
56 88 108
56 88 108
57 89 111
58 91 124
57 89 112
57 89 117
58 90 127
56 89 121
55 86 107
57 90 113
54 85 104
55 87 113
56 88 114
57 89 118
57 89 119
54 84 105
51 80 100
55 86 111
55 85 100
55 84 96
56 86 110
55 84 108
52 80 93
49 77 95
52 81 111
51 80 100
50 77 94
49 74 83
109 128 47
176 198 0
175 198 0
175 198 0
174 197 0
174 197 0
127 137 32
82 79 36
87 84 34
67 66 18
85 83 23
67 68 7
57 60 14
69 66 10
74 74 16
59 61 20
77 77 21
67 70 14
81 82 15
79 80 29
80 81 19
94 93 20
79 81 28
91 91 29
88 87 33
79 80 30
97 97 46
98 97 29
97 98 36
96 94 33
99 99 33
93 93 38
125 123 46
116 114 45
109 108 40
110 110 42
121 119 50
125 123 46
131 127 59
112 112 44
128 125 56
136 132 56
124 122 52
125 123 47
128 124 46
128 126 49
133 130 53
137 134 51
140 135 52
137 133 58
141 137 55
138 134 54
142 138 57
145 140 56
146 141 62
146 141 65
148 142 62
147 142 53
147 142 58
148 143 62
150 144 61
148 143 63
152 147 63
140 136 54
150 145 59
154 148 69
153 146 68
151 146 66
155 149 63
146 141 56
155 147 63
155 150 58
156 149 73
163 156 68
156 150 64
157 151 61
162 156 64
157 150 61
162 155 75
164 157 71
155 150 60
159 151 66
160 154 68
158 151 68
151 147 59
158 152 64
158 152 66
168 160 76
160 152 68
159 153 59
160 153 60
160 153 69
160 154 62
161 155 68
153 146 58
162 154 74
157 150 56
158 151 66
155 148 63
157 151 64
160 153 67
152 147 66
155 149 67
148 144 58
161 156 67
162 156 68
159 152 65
163 155 70
161 153 71
158 152 68
157 152 61
156 151 63
161 155 68
158 152 66
154 148 64
163 156 75
155 150 66
156 149 66
152 147 61
151 145 63
155 148 63
157 150 65
159 153 69
154 150 60
159 153 66
155 148 71
150 144 66
152 146 68
158 151 70
162 155 74
158 151 74
164 156 70
152 146 67
155 148 62
152 146 68
154 148 64
150 145 68
147 141 66
153 147 67
153 147 70
152 146 71
157 151 73
158 151 65
142 136 62
144 138 67
149 144 66
155 149 60
148 142 62
161 154 71
152 146 65
160 154 75
150 144 68
217 233 255
217 233 255
217 233 255
217 233 255
217 233 255
217 233 255
217 233 255
217 233 255
217 233 255
217 233 255
217 233 255
217 233 255
217 233 255
217 233 255
217 233 255
217 233 255
217 233 255
217 233 255
217 233 255
217 233 255
217 233 255
217 233 255
217 233 255
217 233 255
217 233 255
217 233 255
217 233 255
217 233 255
217 233 255
217 233 255
217 233 255
217 233 255
217 233 255
217 233 255
217 233 255
217 233 255
217 233 255
217 233 255
217 233 255
217 233 255
217 233 255
217 233 255
217 233 255
217 233 255
217 233 255
217 233 255
217 233 255
217 233 255
217 233 255
217 233 255
217 233 255
217 233 255
217 233 255
217 233 255
217 233 255
217 233 255
217 233 255
217 233 255
217 233 255
217 233 255
217 233 255
217 233 255
217 233 255
217 233 255
217 233 255
217 233 255
217 233 255
217 233 255
217 233 255
217 233 255
217 233 255
217 233 255
217 233 255
217 233 255
217 233 255
217 233 255
217 233 255
217 233 255
217 233 255
217 233 255
217 233 255
217 233 255
217 233 255
217 233 255
217 233 255
217 233 255
217 233 255
217 233 255
217 233 255
217 233 255
217 233 255
217 233 255
217 233 255
217 233 255
217 233 255
217 233 255
217 233 255
217 233 255
217 233 255
217 233 255
217 233 255
217 233 255
217 233 255
217 233 255
217 233 255
217 233 255
217 233 255
217 233 255
216 233 255
216 233 255
216 233 255
216 233 255
216 233 255
216 233 255
216 233 255
216 233 255
216 233 255
216 233 255
216 232 255
216 232 255
216 232 255
215 232 255
215 232 255
215 232 255
215 232 255
215 232 255
215 232 255
215 232 255
214 232 255
214 232 255
214 232 255
214 231 255
214 231 255
213 231 255
213 231 255
213 231 255
213 231 255
212 231 255
212 230 255
211 230 255
211 230 255
210 230 255
210 229 255
209 229 255
208 228 255
183 206 135
176 199 0
176 199 0
175 198 0
174 198 0
171 196 0
150 174 76
60 93 135
59 94 134
60 95 136
60 95 137
58 92 122
60 94 125
58 92 133
58 92 118
60 95 130
60 95 131
60 94 126
59 92 121
57 90 108
58 92 120
59 92 121
59 92 121
58 92 128
56 89 113
61 96 135
58 92 115
59 93 129
58 92 117
58 91 118
60 94 124
58 92 124
59 92 117
59 94 124
58 92 114
58 91 115
59 92 122
60 94 130
59 92 128
59 93 124
59 94 124
58 92 124
58 92 121
60 94 128
57 91 117
59 93 129
56 89 107
61 95 139
57 91 115
59 93 129
57 91 118
58 91 118
58 92 128
59 92 124
59 92 122
57 91 110
59 93 120
59 92 122
58 91 124
57 90 115
59 92 128
59 93 125
56 88 108
59 93 120
59 93 130
58 91 115
56 89 116
56 89 111
59 93 117
55 87 105
59 93 125
56 88 110
58 90 122
57 90 117
57 89 118
57 90 117
58 90 120
56 89 109
58 91 124
56 89 108
57 91 117
57 89 118
55 86 108
57 89 115
58 90 125
57 89 122
56 87 117
57 89 117
56 88 107
56 87 105
55 87 103
55 86 110
53 83 103
55 85 111
54 84 104
51 80 87
55 85 111
54 83 107
52 80 84
50 76 77
50 76 80
50 76 89
45 68 76
145 165 30
173 196 0
173 197 0
175 198 0
175 198 0
173 196 0
156 174 24
78 77 25
84 82 32
76 76 18
69 69 14
66 68 12
68 70 11
67 66 6
72 72 11
66 67 12
64 64 15
67 69 22
71 72 23
73 76 21
80 81 26
90 91 24
80 81 30
86 87 31
86 87 27
98 97 30
93 94 26
104 101 39
107 106 39
103 103 30
105 104 35
108 107 40
111 110 39
114 112 37
118 115 34
118 116 44
110 110 41
127 124 49
119 117 45
120 118 47
130 126 53
123 120 50
127 124 50
138 134 48
131 128 55
142 138 57
139 135 53
139 135 59
134 129 47
140 136 55
137 133 56
139 134 53
133 129 53
141 137 53
141 137 53
150 145 67
143 138 48
143 139 50
150 146 62
148 144 63
143 137 60
140 136 53
153 147 63
151 146 60
150 145 65
151 145 62
147 142 53
151 146 62
157 151 67
154 148 59
151 146 61
151 145 62
148 143 49
157 151 70
161 154 66
158 152 66
153 148 62
153 148 63
157 151 63
163 157 69
154 147 65
150 146 47
159 153 65
154 149 59
156 150 60
152 146 54
151 146 59
158 153 63
161 155 64
159 153 62
160 154 64
155 148 63
156 150 60
162 154 62
160 153 67
159 151 67
160 152 69
151 145 60
156 150 63
157 150 65
163 157 68
156 150 58
157 152 54
155 149 70
155 149 54
158 152 64
155 149 65
156 150 66
154 147 66
155 149 62
154 148 63
161 155 75
153 148 59
158 152 66
159 152 66
161 154 66
154 148 59
161 154 70
158 152 67
151 145 61
155 149 67
158 152 68
153 147 65
150 145 65
151 145 62
158 151 64
152 146 58
156 149 64
155 148 66
155 147 66
155 149 69
154 147 67
152 146 67
153 147 69
153 146 67
145 138 59
146 140 63
154 148 68
156 150 70
162 155 70
150 144 63
154 148 66
156 150 73
149 142 63
144 139 56
157 151 71
153 146 72
141 136 57
146 139 62
152 145 62
148 142 59
149 144 66
217 233 255
217 233 255
217 233 255
217 233 255
217 233 255
217 233 255
217 233 255
217 233 255
217 233 255
217 233 255
217 233 255
217 233 255
217 233 255
217 233 255
217 233 255
217 233 255
217 233 255
217 233 255
217 233 255
217 233 255
217 233 255
217 233 255
217 233 255
217 233 255
217 233 255
217 233 255
217 233 255
217 233 255
217 233 255
217 233 255
217 233 255
217 233 255
217 233 255
217 233 255
217 233 255
217 233 255
217 233 255
217 233 255
217 233 255
217 233 255
217 233 255
217 233 255
217 233 255
217 233 255
217 233 255
217 233 255
217 233 255
217 233 255
217 233 255
217 233 255
217 233 255
217 233 255
217 233 255
217 233 255
217 233 255
217 233 255
217 233 255
217 233 255
217 233 255
217 233 255
217 233 255
217 233 255
217 233 255
217 233 255
217 233 255
217 233 255
217 233 255
217 233 255
217 233 255
217 233 255
217 233 255
217 233 255
217 233 255
217 233 255
217 233 255
217 233 255
217 233 255
217 233 255
217 233 255
217 233 255
217 233 255
217 233 255
217 233 255
217 233 255
217 233 255
217 233 255
217 233 255
217 233 255
217 233 255
217 233 255
217 233 255
217 233 255
217 233 255
217 233 255
217 233 255
217 233 255
217 233 255
217 233 255
217 233 255
217 233 255
217 233 255
217 233 255
216 233 255
216 233 255
216 233 255
216 233 255
216 233 255
216 233 255
216 233 255
216 233 255
216 233 255
216 233 255
216 233 255
216 232 255
216 232 255
216 232 255
216 232 255
215 232 255
215 232 255
215 232 255
215 232 255
215 232 255
215 232 255
215 232 255
215 232 255
215 232 255
214 232 255
214 232 255
214 231 255
214 231 255
214 231 255
213 231 255
213 231 255
213 231 255
213 231 255
212 231 255
212 230 255
212 230 255
211 230 255
211 230 255
210 229 255
210 229 255
209 229 255
208 228 255
204 225 244
175 198 0
173 197 0
173 197 0
173 197 0
175 198 0
173 197 0
175 197 18
81 112 129
61 95 139
60 94 134
59 93 124
60 94 131
60 94 131
57 91 118
59 93 121
59 93 130
59 93 121
60 94 137
59 93 126
57 90 102
58 92 113
58 91 115
59 93 124
56 89 122
58 91 113
60 94 134
58 92 121
58 92 118
58 92 122
58 92 115
59 94 134
58 92 115
58 91 115
58 91 107
58 91 114
59 92 126
57 91 111
57 90 115
57 90 114
59 93 128
60 93 129
58 92 120
57 91 110
57 91 108
59 93 125
58 91 118
57 90 105
57 90 110
59 92 121
58 92 122
58 91 115
56 88 113
58 92 117
58 91 108
57 91 122
58 92 120
59 93 130
57 90 110
55 88 107
58 92 120
58 91 115
58 91 118
60 94 128
56 89 107
58 91 118
57 90 117
58 92 111
56 88 107
58 91 121
58 90 123
58 91 110
58 91 120
57 90 122
59 93 123
57 90 113
56 89 108
58 92 124
57 90 118
59 93 117
58 91 119
57 90 118
55 87 102
56 88 116
54 85 103
58 90 118
55 86 99
56 89 108
55 87 110
54 85 108
54 85 109
55 87 105
56 88 123
56 87 113
54 84 111
55 85 110
54 84 105
53 82 96
52 82 105
49 76 89
51 78 92
49 75 91
46 71 84
68 88 58
168 192 0
174 196 0
172 197 0
173 197 0
174 197 0
172 194 0
175 198 11
107 111 31
90 87 33
55 56 10
81 82 28
67 67 16
84 81 12
66 67 18
74 72 14
78 78 17
70 70 15
85 82 16
74 74 20
61 64 23
87 87 27
81 81 20
87 88 25
90 88 30
95 95 33
93 93 27
107 106 37
80 80 25
100 98 30
109 108 49
105 105 29
110 107 48
110 108 41
108 108 37
116 112 45
106 106 40
112 111 41
116 113 47
121 118 41
116 113 44
119 116 48
128 124 51
129 125 41
136 133 42
136 132 45
125 122 47
126 122 46
133 128 48
144 139 59
133 129 53
137 133 53
147 143 50
140 136 56
142 137 60
142 138 51
140 135 57
135 131 56
143 139 59
140 135 56
152 148 56
147 143 64
147 142 56
149 145 64
156 150 72
155 150 65
150 144 56
154 148 63
147 142 53
152 147 64
154 147 65
150 145 56
160 153 64
157 150 63
154 149 59
160 153 63
154 148 63
155 149 59
158 151 65
163 157 65
159 152 64
156 150 61
157 152 56
163 156 71
160 154 65
163 156 75
161 154 69
155 150 59
154 148 62
156 150 64
158 152 75
155 148 60
154 148 60
160 154 67
159 153 58
160 153 58
152 146 58
154 147 73
153 146 60
161 155 74
154 148 61
156 152 61
151 145 59
150 145 60
161 154 69
157 150 69
160 153 67
161 155 72
168 161 77
166 159 75
157 151 61
157 150 66
160 153 71
158 151 66
156 150 69
156 150 63
157 151 64
157 151 70
156 150 63
153 147 63
159 152 65
158 152 66
155 150 60
159 153 71
157 150 68
162 155 72
154 148 59
154 148 59
156 150 69
149 144 58
153 147 64
152 146 62
151 146 64
152 145 58
157 151 69
157 150 64
154 148 59
154 147 63
146 139 62
155 150 61
158 152 69
150 145 63
149 143 65
149 143 65
151 145 66
152 146 61
147 141 61
153 147 63
157 149 71
159 152 75
154 147 72
147 140 68
153 147 68
216 233 255
216 233 255
216 233 255
216 233 255
216 233 255
216 233 255
216 233 255
216 233 255
216 233 255
217 233 255
217 233 255
217 233 255
217 233 255
217 233 255
217 233 255
217 233 255
217 233 255
217 233 255
217 233 255
217 233 255
217 233 255
217 233 255
217 233 255
217 233 255
217 233 255
217 233 255
217 233 255
217 233 255
217 233 255
217 233 255
217 233 255
217 233 255
217 233 255
217 233 255
217 233 255
217 233 255
217 233 255
217 233 255
217 233 255
217 233 255
217 233 255
217 233 255
217 233 255
217 233 255
217 233 255
217 233 255
217 233 255
217 233 255
217 233 255
217 233 255
217 233 255
217 233 255
217 233 255
217 233 255
217 233 255
217 233 255
217 233 255
217 233 255
217 233 255
217 233 255
217 233 255
217 233 255
217 233 255
217 233 255
217 233 255
217 233 255
217 233 255
217 233 255
217 233 255
217 233 255
217 233 255
217 233 255
217 233 255
217 233 255
217 233 255
217 233 255
217 233 255
217 233 255
217 233 255
217 233 255
217 233 255
217 233 255
217 233 255
217 233 255
217 233 255
217 233 255
217 233 255
217 233 255
217 233 255
217 233 255
217 233 255
217 233 255
217 233 255
217 233 255
216 233 255
216 233 255
216 233 255
216 233 255
216 233 255
216 233 255
216 233 255
216 233 255
216 233 255
216 233 255
216 233 255
216 233 255
216 233 255
216 233 255
216 233 255
216 232 255
216 232 255
216 232 255
216 232 255
215 232 255
215 232 255
215 232 255
215 232 255
215 232 255
215 232 255
215 232 255
215 232 255
215 232 255
214 232 255
214 232 255
214 232 255
214 232 255
214 231 255
214 231 255
214 231 255
213 231 255
213 231 255
213 231 255
213 231 255
212 231 255
212 230 255
212 230 255
211 230 255
211 230 255
210 230 255
210 229 255
209 229 255
209 229 255
208 228 255
207 227 255
186 208 149
173 197 0
175 198 0
174 198 0
173 196 0
174 197 0
172 195 0
175 198 0
127 152 92
59 93 120
60 94 124
57 91 111
58 91 122
57 89 110
60 94 130
59 93 124
58 92 118
58 92 113
59 93 129
58 92 114
58 91 126
59 94 129
58 92 121
57 89 114
58 92 124
58 92 122
59 93 122
58 92 126
59 93 122
59 92 125
58 91 115
58 92 120
59 94 122
58 92 118
58 91 125
58 92 114
60 94 130
59 93 124
59 93 124
57 90 120
58 92 125
58 91 115
59 93 120
58 92 118
58 91 129
58 92 118
59 93 117
59 93 118
58 91 117
57 90 118
59 93 120
57 91 115
59 93 133
58 91 122
57 90 115
58 91 121
58 92 121
58 91 124
58 92 118
58 91 121
56 88 114
57 90 118
58 91 117
58 92 118
60 94 124
57 90 113
58 92 117
58 91 118
59 92 120
57 90 118
58 91 119
56 88 111
57 89 111
58 91 128
57 90 116
55 86 107
55 88 107
55 88 103
56 88 107
55 87 111
55 87 121
56 88 105
58 89 120
56 88 108
56 88 114
58 91 130
55 87 103
56 87 114
55 86 109
53 84 100
56 87 118
55 86 110
56 87 110
53 83 103
56 87 105
54 83 90
54 84 100
53 82 96
51 80 86
54 83 96
52 80 99
48 74 76
45 70 75
114 134 39
173 197 0
173 196 0
172 195 0
174 197 0
173 197 0
172 196 0
173 196 0
139 152 24
88 86 26
77 76 26
69 69 20
77 75 20
78 78 27
72 73 20
61 64 12
66 66 4
79 78 16
63 64 18
68 70 14
74 75 19
77 79 21
88 89 26
82 82 24
81 82 20
84 84 28
94 95 27
90 90 27
104 103 33
87 86 38
106 105 34
115 114 41
108 105 33
108 108 34
107 106 30
111 109 42
105 105 35
116 112 45
128 124 51
121 119 45
118 115 39
125 123 47
124 121 46
126 123 39
137 133 56
129 125 54
128 125 47
130 126 52
136 133 44
131 127 51
143 139 61
133 131 45
139 135 54
139 134 46
145 139 57
145 140 55
147 142 51
148 143 51
141 137 51
147 142 59
142 137 49
150 145 61
150 145 58
145 140 60
159 151 70
140 135 49
157 150 67
155 148 59
151 145 58
149 144 61
157 151 60
145 139 62
151 145 58
155 149 56
151 146 60
157 151 57
153 147 63
154 148 57
155 149 61
151 145 57
156 150 54
149 142 54
150 145 58
155 150 53
154 147 66
152 145 64
153 148 58
158 152 63
160 154 65
156 151 60
159 152 60
156 150 63
156 150 63
156 151 60
161 154 63
161 154 70
155 149 59
160 154 63
156 149 61
153 148 61
155 148 57
155 148 64
158 151 70
161 154 65
157 150 65
156 150 62
156 149 59
159 153 65
156 150 62
152 147 63
158 153 65
152 146 64
166 159 74
166 159 73
156 150 65
156 149 70
155 150 65
150 145 51
159 153 68
155 150 60
147 141 61
153 147 62
156 149 63
152 145 62
154 147 60
154 147 72
161 155 71
159 153 66
155 148 69
149 143 61
160 154 70
148 142 62
152 146 63
155 148 65
151 145 68
146 141 49
153 148 62
148 142 62
153 147 60
143 139 57
147 142 60
149 144 61
151 144 67
152 146 66
155 148 67
149 144 61
151 145 64
154 148 66
152 145 65
152 146 66
149 143 65
152 145 63
155 148 71
216 233 255
216 233 255
216 233 255
216 233 255
216 233 255
216 233 255
216 233 255
216 233 255
216 233 255
216 233 255
216 233 255
216 233 255
216 233 255
216 233 255
216 233 255
216 233 255
216 233 255
216 233 255
216 233 255
216 233 255
216 233 255
216 233 255
216 233 255
217 233 255
217 233 255
217 233 255
217 233 255
217 233 255
217 233 255
217 233 255
217 233 255
217 233 255
217 233 255
217 233 255
217 233 255
217 233 255
217 233 255
217 233 255
217 233 255
217 233 255
217 233 255
217 233 255
217 233 255
217 233 255
217 233 255
217 233 255
217 233 255
217 233 255
217 233 255
217 233 255
217 233 255
217 233 255
217 233 255
217 233 255
217 233 255
217 233 255
217 233 255
217 233 255
217 233 255
217 233 255
217 233 255
217 233 255
217 233 255
217 233 255
217 233 255
217 233 255
217 233 255
217 233 255
217 233 255
217 233 255
217 233 255
217 233 255
217 233 255
217 233 255
217 233 255
217 233 255
217 233 255
217 233 255
217 233 255
217 233 255
217 233 255
217 233 255
217 233 255
217 233 255
216 233 255
216 233 255
216 233 255
216 233 255
216 233 255
216 233 255
216 233 255
216 233 255
216 233 255
216 233 255
216 233 255
216 233 255
216 233 255
216 233 255
216 233 255
216 233 255
216 233 255
216 233 255
216 233 255
216 232 255
216 232 255
216 232 255
216 232 255
216 232 255
215 232 255
215 232 255
215 232 255
215 232 255
215 232 255
215 232 255
215 232 255
215 232 255
215 232 255
215 232 255
215 232 255
214 232 255
214 232 255
214 232 255
214 232 255
214 231 255
214 231 255
214 231 255
213 231 255
213 231 255
213 231 255
213 231 255
212 231 255
212 231 255
212 230 255
212 230 255
211 230 255
211 230 255
211 230 255
210 229 255
210 229 255
209 229 255
208 228 255
208 228 255
207 227 255
201 223 236
174 197 25
171 195 0
174 197 0
171 195 0
173 196 0
174 197 0
173 197 0
173 196 0
162 186 36
66 98 128
58 92 117
59 92 129
59 94 124
58 92 122
58 92 122
58 91 126
59 93 122
58 91 118
60 94 128
59 92 117
58 91 114
58 91 118
57 91 117
59 93 128
58 91 118
58 92 121
57 90 120
58 92 121
59 92 122
57 91 115
59 93 118
56 89 105
56 90 103
59 93 131
58 91 117
58 91 114
57 91 105
59 93 125
59 93 125
59 92 115
58 91 120
57 90 108
58 91 120
59 94 125
57 91 110
60 94 124
56 88 110
58 92 111
59 93 125
58 91 115
58 91 120
58 91 114
59 93 122
58 91 121
58 92 124
57 90 115
59 93 125
58 92 121
58 92 124
58 92 122
57 91 114
59 92 124
58 91 125
57 90 118
60 95 136
58 91 116
58 91 120
56 88 110
57 90 111
56 89 97
56 89 107
56 89 122
58 91 124
55 87 99
57 90 102
56 88 118
58 90 101
56 88 111
57 89 106
57 90 123
58 91 123
56 89 102
55 86 101
54 86 101
55 86 105
56 88 113
56 87 104
55 85 106
56 87 103
54 84 97
56 87 106
55 85 99
54 84 102
54 84 102
56 86 110
49 76 78
52 80 89
53 81 94
55 84 111
51 79 91
51 78 89
50 77 80
60 82 89
161 183 31
173 196 0
174 197 0
173 197 0
174 197 0
174 197 0
172 194 0
174 197 0
167 190 0
112 118 34
84 82 11
74 74 21
82 80 28
62 62 18
74 72 5
77 76 12
67 68 8
65 68 14
62 65 24
80 78 15
78 77 16
76 77 17
63 66 15
89 89 30
83 84 21
90 89 25
80 82 23
101 101 34
96 95 28
92 91 32
109 107 35
96 97 37
113 111 28
107 106 36
120 117 38
121 118 43
106 105 38
118 116 40
118 114 38
119 116 37
120 118 40
115 113 42
130 126 44
128 126 44
123 121 43
128 125 46
130 126 40
132 129 40
133 130 52
140 135 55
138 134 53
140 135 50
131 129 49
142 137 52
132 130 42
137 132 47
139 135 46
140 135 48
144 138 54
145 140 53
141 137 53
144 140 53
153 147 60
155 150 54
147 142 54
149 144 64
152 146 57
149 143 58
151 147 56
149 143 51
154 148 60
150 145 53
153 148 56
151 146 56
159 153 64
154 149 60
155 149 54
160 152 64
156 150 64
149 143 60
155 149 62
163 155 65
158 152 65
150 144 53
160 153 69
160 153 65
161 154 68
160 153 61
159 153 64
160 154 67
157 150 56
149 142 54
154 148 65
154 148 59
158 152 62
155 149 64
155 148 60
155 147 64
157 150 70
155 149 59
154 148 58
151 145 54
154 147 59
159 153 61
156 150 61
158 150 69
155 149 60
158 152 56
162 156 74
155 148 67
163 156 75
161 155 71
160 155 58
160 153 70
159 152 67
157 151 64
150 143 62
152 147 57
142 138 54
156 150 63
161 155 68
151 147 62
157 150 68
160 153 69
157 151 65
149 144 61
158 151 65
151 145 64
153 147 54
155 147 66
152 147 64
153 146 65
145 140 54
147 141 58
146 141 56
150 142 56
147 142 65
157 149 65
153 146 68
147 142 59
157 151 72
153 148 59
150 145 63
151 145 66
153 146 64
148 142 57
149 144 56
155 149 68
145 139 54
150 144 64
150 143 68
147 141 58
141 134 61
216 232 255
216 232 255
216 232 255
216 233 255
216 233 255
216 233 255
216 233 255
216 233 255
216 233 255
216 233 255
216 233 255
216 233 255
216 233 255
216 233 255
216 233 255
216 233 255
216 233 255
216 233 255
216 233 255
216 233 255
216 233 255
216 233 255
216 233 255
216 233 255
216 233 255
216 233 255
216 233 255
216 233 255
216 233 255
216 233 255
216 233 255
216 233 255
216 233 255
216 233 255
216 233 255
216 233 255
216 233 255
216 233 255
216 233 255
216 233 255
216 233 255
216 233 255
216 233 255
216 233 255
216 233 255
216 233 255
216 233 255
216 233 255
216 233 255
216 233 255
216 233 255
216 233 255
217 233 255
217 233 255
217 233 255
217 233 255
217 233 255
216 233 255
217 233 255
217 233 255
217 233 255
217 233 255
216 233 255
216 233 255
216 233 255
216 233 255
216 233 255
216 233 255
216 233 255
216 233 255
216 233 255
216 233 255
216 233 255
216 233 255
216 233 255
216 233 255
216 233 255
216 233 255
216 233 255
216 233 255
216 233 255
216 233 255
216 233 255
216 233 255
216 233 255
216 233 255
216 233 255
216 233 255
216 233 255
216 233 255
216 233 255
216 233 255
216 233 255
216 233 255
216 233 255
216 233 255
216 233 255
216 232 255
216 232 255
216 232 255
216 232 255
216 232 255
216 232 255
215 232 255
215 232 255
215 232 255
215 232 255
215 232 255
215 232 255
215 232 255
215 232 255
215 232 255
215 232 255
215 232 255
215 232 255
214 232 255
214 232 255
214 232 255
214 232 255
214 232 255
214 231 255
214 231 255
214 231 255
213 231 255
213 231 255
213 231 255
213 231 255
213 231 255
212 231 255
212 230 255
212 230 255
212 230 255
211 230 255
211 230 255
211 230 255
210 229 255
210 229 255
209 229 255
209 229 255
208 228 255
207 228 255
206 227 255
205 227 255
184 207 159
173 196 0
173 196 0
171 195 0
175 198 0
173 197 0
169 193 0
172 195 0
173 197 0
175 198 0
125 149 97
59 92 130
59 94 125
59 93 129
57 91 121
58 91 121
58 91 115
58 91 115
57 90 118
57 90 114
58 91 117
57 91 111
59 93 122
59 93 122
57 90 117
55 88 99
59 93 122
59 93 133
59 93 118
58 92 113
57 90 108
59 93 125
58 91 120
59 93 124
54 87 103
59 92 122
59 92 124
58 92 121
59 92 121
58 91 117
58 92 121
59 93 122
56 88 105
59 92 118
57 90 108
55 88 100
58 91 121
58 92 110
57 90 111
58 91 118
59 93 125
58 92 111
57 90 111
59 93 125
58 92 118
58 91 111
58 92 114
57 90 115
58 91 129
57 90 117
58 91 113
58 92 114
55 87 108
57 89 113
57 90 115
58 90 114
58 92 121
56 88 115
55 87 113
56 88 105
56 88 110
57 90 117
56 88 118
57 90 107
57 89 120
56 89 113
56 89 117
57 90 111
57 89 110
56 88 110
58 91 126
58 91 113
56 88 116
56 88 107
55 87 99
57 89 114
57 89 128
55 86 112
55 86 104
53 84 96
54 84 99
55 85 109
56 88 114
58 89 115
53 83 87
52 81 91
52 81 90
50 79 93
52 80 101
51 79 92
49 77 93
49 75 89
48 73 84
110 130 60
174 197 0
172 196 0
173 196 0
173 196 0
173 196 0
171 195 0
174 197 0
175 198 0
172 195 0
145 160 19
92 90 32
85 82 30
83 81 20
70 70 14
75 74 14
69 70 14
78 79 23
76 76 23
77 75 23
75 77 15
85 87 19
79 80 20
86 86 20
85 86 28
79 81 25
84 87 24
97 96 31
97 97 29
90 90 32
110 108 36
95 94 34
104 102 31
104 102 31
108 106 35
101 100 35
104 103 34
103 101 33
105 104 41
116 114 36
124 121 34
123 119 32
118 116 44
124 121 42
129 125 44
126 123 47
125 121 45
129 126 45
113 111 31
127 123 49
133 131 46
133 130 50
135 130 52
138 134 50
144 139 49
137 133 44
137 133 50
138 134 45
147 142 55
137 133 45
144 139 56
141 137 51
145 139 57
145 141 53
141 137 58
143 138 56
146 141 51
148 143 51
159 152 64
150 144 54
148 142 53
142 137 51
155 149 63
151 145 58
156 150 58
151 146 51
156 150 61
152 146 57
156 149 62
147 142 53
155 148 54
154 148 57
154 148 60
153 148 54
155 149 66
152 147 57
158 152 53
160 154 62
156 149 64
150 145 53
153 147 56
160 153 64
155 149 66
151 145 56
160 154 56
154 148 51
154 148 58
158 153 62
159 152 70
161 155 69
154 146 61
158 150 67
152 146 60
153 146 60
155 149 58
157 151 63
160 153 62
154 147 59
149 144 60
150 143 57
146 140 48
154 148 56
148 143 58
152 146 59
154 148 53
161 155 61
160 154 62
154 149 54
157 150 62
152 146 61
160 153 66
156 149 63
153 147 63
158 151 62
151 144 61
152 146 56
143 137 54
156 148 67
147 142 59
149 143 56
158 152 69
158 152 66
144 138 54
152 148 61
159 152 67
154 147 61
150 143 62
158 151 70
151 143 67
150 143 67
148 141 62
153 147 60
152 145 71
149 143 61
143 137 54
151 146 66
152 146 66
154 147 70
152 146 63
149 143 59
145 139 58
150 145 66
148 143 65
147 141 56
215 232 255
216 232 255
216 232 255
216 232 255
216 232 255
216 232 255
216 232 255
216 232 255
216 232 255
216 232 255
216 232 255
216 232 255
216 232 255
216 232 255
216 232 255
216 233 255
216 233 255
216 233 255
216 233 255
216 233 255
216 233 255
216 233 255
216 233 255
216 233 255
216 233 255
216 233 255
216 233 255
216 233 255
216 233 255
216 233 255
216 233 255
216 233 255
216 233 255
216 233 255
216 233 255
216 233 255
216 233 255
216 233 255
216 233 255
216 233 255
216 233 255
216 233 255
216 233 255
216 233 255
216 233 255
216 233 255
216 233 255
216 233 255
216 233 255
216 233 255
216 233 255
216 233 255
216 233 255
216 233 255
216 233 255
216 233 255
216 233 255
216 233 255
216 233 255
216 233 255
216 233 255
216 233 255
216 233 255
216 233 255
216 233 255
216 233 255
216 233 255
216 233 255
216 233 255
216 233 255
216 233 255
216 233 255
216 233 255
216 233 255
216 233 255
216 233 255
216 233 255
216 233 255
216 233 255
216 233 255
216 233 255
216 233 255
216 233 255
216 233 255
216 233 255
216 233 255
216 233 255
216 233 255
216 233 255
216 232 255
216 232 255
216 232 255
216 232 255
216 232 255
216 232 255
216 232 255
216 232 255
215 232 255
215 232 255
215 232 255
215 232 255
215 232 255
215 232 255
215 232 255
215 232 255
215 232 255
215 232 255
215 232 255
215 232 255
215 232 255
215 232 255
215 232 255
214 232 255
214 232 255
214 232 255
214 232 255
214 231 255
214 231 255
214 231 255
214 231 255
213 231 255
213 231 255
213 231 255
213 231 255
213 231 255
213 231 255
212 231 255
212 230 255
212 230 255
212 230 255
211 230 255
211 230 255
211 230 255
210 229 255
210 229 255
210 229 255
209 229 255
208 228 255
208 228 255
207 228 255
206 227 255
205 227 255
198 220 231
170 193 0
171 195 0
175 198 0
171 195 0
172 194 0
171 194 0
173 197 0
172 195 0
172 195 0
170 193 0
160 183 60
57 91 124
60 95 129
58 91 110
58 91 115
57 90 118
57 90 117
57 91 122
59 93 122
58 92 118
58 91 118
57 90 120
57 91 113
59 93 124
60 94 120
58 91 124
57 90 111
58 91 128
56 89 113
58 91 118
57 89 122
59 92 118
58 91 117
59 93 126
57 90 110
57 90 111
59 93 120
58 92 115
58 92 117
57 90 107
57 90 100
58 92 120
58 91 122
59 93 115
58 90 110
56 89 105
58 91 114
57 91 110
57 90 107
56 88 105
57 91 114
57 90 108
58 91 114
58 91 113
57 90 118
57 90 108
56 89 103
57 90 121
55 88 110
55 87 105
58 92 120
58 91 118
57 90 115
57 90 117
57 89 113
57 90 118
60 94 132
57 89 118
58 92 113
57 91 116
56 88 109
56 89 99
56 90 111
57 90 110
57 90 117
55 86 109
56 88 117
57 89 116
57 90 118
54 85 99
56 87 103
56 89 118
56 88 108
56 87 104
56 88 103
56 87 103
55 87 104
54 83 103
53 83 94
56 87 106
56 88 111
54 85 101
55 86 101
56 87 121
53 83 96
53 83 102
50 77 93
52 81 95
53 82 104
48 75 78
50 77 89
46 71 71
44 67 66
159 181 33
170 194 0
171 196 0
172 195 0
171 195 0
172 196 0
172 195 0
171 194 0
170 194 0
171 194 0
172 194 0
119 124 33
95 91 34
78 75 17
84 83 18
89 87 18
76 75 18
75 73 8
80 80 21
76 75 16
72 73 8
81 81 23
76 76 14
76 76 20
79 80 18
89 87 12
85 84 20
95 94 29
90 88 18
97 94 29
94 94 32
107 105 33
100 98 24
106 106 42
107 105 23
111 109 30
110 108 41
109 106 22
114 111 38
108 107 32
123 119 42
125 121 45
106 105 39
115 113 32
116 114 38
131 126 42
128 125 41
127 123 42
124 122 47
132 128 47
140 136 47
136 133 41
134 129 43
136 132 46
134 130 47
132 128 48
132 128 43
137 132 44
141 137 60
148 141 51
137 133 39
136 131 49
144 139 51
141 137 48
138 134 51
143 138 47
151 144 63
146 141 46
147 143 56
144 140 51
147 142 51
148 143 51
155 148 63
153 147 59
150 146 51
150 146 49
145 140 54
152 146 56
155 149 62
151 145 49
156 149 58
154 148 57
157 151 61
153 148 56
157 150 63
153 147 60
152 145 62
152 147 54
155 149 63
154 147 57
153 147 63
151 146 58
157 151 59
155 148 62
146 141 52
155 148 58
155 149 62
150 145 53
153 147 56
156 150 56
150 145 52
151 145 59
153 147 60
160 153 67
155 149 53
157 151 61
160 154 65
153 147 57
157 150 69
160 153 62
154 148 57
155 149 56
156 149 62
151 146 58
148 141 54
161 154 65
151 145 56
154 148 58
151 145 54
157 151 54
160 153 71
155 149 66
152 147 60
151 144 56
149 144 59
149 143 52
154 147 60
158 151 70
153 147 66
153 147 66
147 142 49
151 145 62
150 143 59
150 144 57
156 149 70
142 137 59
152 145 67
152 145 62
152 145 61
160 153 66
149 143 58
151 145 60
148 142 64
150 143 60
154 148 63
148 143 65
141 137 51
147 141 62
149 143 62
151 145 60
152 146 64
154 146 64
152 146 70
144 137 54
215 232 255
215 232 255
215 232 255
215 232 255
215 232 255
215 232 255
215 232 255
215 232 255
215 232 255
215 232 255
215 232 255
215 232 255
216 232 255
216 232 255
216 232 255
216 232 255
216 232 255
216 232 255
216 232 255
216 232 255
216 232 255
216 232 255
216 232 255
216 232 255
216 232 255
216 232 255
216 232 255
216 232 255
216 232 255
216 232 255
216 233 255
216 233 255
216 233 255
216 233 255
216 233 255
216 233 255
216 233 255
216 233 255
216 233 255
216 233 255
216 233 255
216 233 255
216 233 255
216 233 255
216 233 255
216 233 255
216 233 255
216 233 255
216 233 255
216 233 255
216 233 255
216 233 255
216 233 255
216 233 255
216 233 255
216 233 255
216 233 255
216 233 255
216 233 255
216 233 255
216 233 255
216 233 255
216 233 255
216 233 255
216 233 255
216 233 255
216 233 255
216 233 255
216 233 255
216 233 255
216 233 255
216 233 255
216 233 255
216 233 255
216 233 255
216 233 255
216 233 255
216 233 255
216 232 255
216 232 255
216 232 255
216 232 255
216 232 255
216 232 255
216 232 255
216 232 255
216 232 255
216 232 255
216 232 255
216 232 255
215 232 255
215 232 255
215 232 255
215 232 255
215 232 255
215 232 255
215 232 255
215 232 255
215 232 255
215 232 255
215 232 255
215 232 255
215 232 255
215 232 255
215 232 255
215 232 255
215 232 255
215 232 255
214 232 255
214 232 255
214 232 255
214 232 255
214 232 255
214 231 255
214 231 255
214 231 255
214 231 255
213 231 255
213 231 255
213 231 255
213 231 255
213 231 255
213 231 255
212 231 255
212 231 255
212 230 255
212 230 255
212 230 255
211 230 255
211 230 255
211 230 255
210 229 255
210 229 255
210 229 255
209 229 255
209 229 255
208 228 255
207 228 255
207 228 255
206 227 255
205 226 255
203 225 254
181 204 125
172 195 0
170 193 0
174 197 0
172 195 0
175 198 0
171 195 0
170 194 0
173 196 0
172 196 0
171 194 0
170 193 0
120 145 82
58 92 125
56 89 118
58 91 111
58 90 125
58 92 118
56 89 103
57 90 108
58 91 120
57 91 110
57 90 113
58 92 113
57 91 113
57 90 117
57 90 117
55 87 92
57 90 117
58 92 115
59 93 125
58 92 121
57 91 114
56 89 113
59 92 115
57 91 115
59 92 130
56 89 107
57 91 115
57 90 105
59 92 115
57 90 107
57 91 114
58 91 117
58 92 114
58 91 110
57 90 100
56 89 107
57 90 111
56 88 107
58 91 117
57 90 115
57 90 113
58 92 110
58 91 117
58 91 117
56 89 108
57 90 108
59 94 125
57 90 108
57 90 115
58 92 120
57 90 107
59 92 122
58 91 111
59 93 133
56 89 107
56 89 108
54 86 101
58 91 121
58 91 125
56 88 113
56 89 103
56 88 94
57 90 118
55 86 111
55 86 114
54 86 111
56 89 118
55 87 108
56 89 118
57 89 108
55 86 109
54 85 110
56 88 109
56 88 116
55 86 94
55 87 95
55 85 104
55 86 95
54 84 101
54 85 101
54 84 95
53 83 99
54 85 101
53 83 100
51 79 83
53 83 103
52 81 89
52 80 93
49 77 88
51 77 86
46 70 69
106 127 54
172 195 0
169 191 0
170 195 0
174 197 0
169 191 0
171 194 0
168 191 0
170 194 0
172 195 0
171 194 0
171 194 0
159 179 0
90 87 33
86 85 24
83 81 25
83 81 24
78 75 15
80 80 20
81 79 18
82 80 26
85 84 16
77 76 11
76 74 14
89 87 11
83 80 22
93 91 16
80 81 22
92 90 29
100 98 27
93 93 27
91 90 18
99 98 27
100 97 21
104 102 32
101 100 33
112 109 32
107 104 32
109 105 29
117 114 38
118 113 41
119 114 35
120 118 35
118 115 39
125 122 40
129 125 42
124 120 36
113 110 34
121 117 38
115 112 46
132 128 53
126 122 43
129 124 42
137 133 47
129 125 31
133 131 41
135 131 47
132 129 42
142 137 53
135 131 45
134 130 47
142 137 52
150 143 56
139 135 42
142 136 44
138 133 51
145 139 51
138 134 37
147 141 55
137 133 42
143 136 44
144 139 47
153 146 56
150 143 54
144 139 44
152 146 52
146 140 55
150 144 53
147 142 52
152 145 55
147 142 50
149 143 54
153 148 47
158 151 59
151 146 60
156 150 51
150 145 52
157 150 58
150 144 51
161 154 65
154 148 54
151 145 56
154 148 54
159 153 61
152 146 59
154 148 57
150 144 60
159 153 64
153 147 60
150 145 58
152 146 58
149 142 51
159 153 71
160 154 65
157 151 62
149 144 57
151 145 56
153 147 51
151 145 59
154 148 54
148 142 53
154 149 57
149 143 49
150 143 53
154 148 54
159 152 63
150 144 54
156 149 66
159 153 66
151 145 60
153 146 61
158 150 65
159 153 69
155 149 62
147 140 62
153 147 63
153 147 60
152 146 57
153 147 59
154 147 57
150 144 61
153 147 61
153 147 60
146 140 56
150 143 64
151 145 64
156 151 67
146 139 60
146 140 63
147 141 56
156 150 69
153 147 61
155 149 64
148 143 56
155 149 58
152 145 64
150 144 63
144 139 56
152 146 61
145 140 62
146 141 57
148 141 64
146 140 60
133 128 51
150 143 63
215 232 255
215 232 255
215 232 255
215 232 255
215 232 255
215 232 255
215 232 255
215 232 255
215 232 255
215 232 255
215 232 255
215 232 255
215 232 255
215 232 255
215 232 255
215 232 255
215 232 255
215 232 255
215 232 255
215 232 255
215 232 255
215 232 255
215 232 255
215 232 255
215 232 255
215 232 255
215 232 255
216 232 255
216 232 255
216 232 255
216 232 255
216 232 255
216 232 255
216 232 255
216 232 255
216 232 255
216 232 255
216 232 255
216 232 255
216 232 255
216 232 255
216 232 255
216 232 255
216 232 255
216 232 255
216 232 255
216 232 255
216 232 255
216 232 255
216 232 255
216 232 255
216 232 255
216 232 255
216 232 255
216 232 255
216 232 255
216 232 255
216 232 255
216 232 255
216 232 255
216 232 255
216 232 255
216 232 255
216 232 255
216 232 255
216 232 255
216 232 255
216 232 255
216 232 255
216 232 255
216 232 255
216 232 255
216 232 255
216 232 255
216 232 255
216 232 255
216 232 255
216 232 255
216 232 255
215 232 255
215 232 255
215 232 255
215 232 255
215 232 255
215 232 255
215 232 255
215 232 255
215 232 255
215 232 255
215 232 255
215 232 255
215 232 255
215 232 255
215 232 255
215 232 255
215 232 255
215 232 255
215 232 255
215 232 255
215 232 255
215 232 255
215 232 255
215 232 255
214 232 255
214 232 255
214 232 255
214 232 255
214 232 255
214 232 255
214 231 255
214 231 255
214 231 255
214 231 255
214 231 255
213 231 255
213 231 255
213 231 255
213 231 255
213 231 255
213 231 255
212 231 255
212 231 255
212 230 255
212 230 255
212 230 255
211 230 255
211 230 255
211 230 255
211 230 255
210 229 255
210 229 255
210 229 255
209 229 255
209 229 255
208 228 255
208 228 255
207 228 255
206 227 255
206 227 255
205 226 255
203 226 255
187 210 182
172 195 0
175 198 0
174 197 0
172 195 0
172 196 0
169 193 0
174 197 0
171 195 0
169 193 0
174 198 0
171 194 0
173 196 0
166 190 40
60 92 124
58 91 117
57 91 117
58 91 120
58 91 122
59 93 125
57 89 105
59 92 125
57 90 120
59 92 121
57 91 118
58 91 108
57 90 113
56 89 105
58 92 114
57 90 111
57 90 108
58 91 122
58 92 115
56 89 108
56 89 111
57 90 110
59 93 117
57 90 115
59 93 120
58 92 115
58 92 121
58 92 122
58 91 117
58 92 122
58 91 107
58 91 120
57 91 114
57 89 113
57 91 108
57 90 105
57 90 115
57 90 114
59 92 128
57 90 115
58 92 113
55 88 110
58 91 110
57 90 110
56 89 105
56 89 99
57 90 115
57 90 111
58 91 115
57 89 110
55 87 111
56 88 118
57 90 113
54 87 100
57 89 105
59 92 114
57 90 121
58 92 118
56 89 100
58 92 122
55 86 97
56 88 114
57 89 110
55 87 107
57 89 118
58 91 107
57 89 113
55 86 104
56 88 103
55 87 119
56 88 110
55 87 114
54 86 104
56 87 110
56 88 110
53 84 96
53 83 100
56 86 112
51 79 81
56 87 113
55 86 103
52 82 89
53 83 91
54 84 103
52 80 101
50 77 78
50 78 93
50 77 88
48 73 79
57 80 64
149 169 23
168 190 0
167 191 0
167 189 0
170 193 0
173 196 0
171 193 0
169 192 0
169 192 0
172 195 0
171 193 0
173 195 0
170 193 0
142 151 34
87 86 28
75 74 22
84 83 23
93 91 20
81 78 18
70 70 17
82 80 14
66 66 12
82 81 16
88 87 8
79 79 9
79 80 20
81 81 24
93 90 16
80 82 11
88 89 16
97 96 21
95 94 21
101 100 22
105 103 20
114 111 31
111 108 31
104 103 33
108 105 32
111 108 30
110 109 31
103 102 33
115 112 23
114 113 34
115 113 34
124 121 36
117 114 38
118 115 38
120 119 26
129 126 41
128 126 45
127 123 49
136 132 45
133 128 51
130 127 32
130 126 35
137 133 49
132 128 39
133 130 43
139 134 51
139 135 51
136 130 42
139 135 36
140 134 42
143 137 47
142 138 46
148 142 58
139 134 48
147 142 49
146 140 49
152 145 58
142 136 51
147 142 54
144 140 44
145 139 42
146 140 51
155 148 59
147 142 55
149 143 53
148 142 57
144 140 45
154 148 58
148 142 52
152 147 48
155 149 64
152 146 57
153 147 56
150 144 53
145 139 51
148 143 51
156 151 57
160 153 62
154 147 54
159 151 61
152 145 60
149 142 52
155 149 54
148 142 56
156 149 49
154 147 59
150 145 47
151 145 54
160 153 60
153 146 62
151 145 51
148 142 48
155 149 57
160 153 63
149 143 54
148 143 60
157 149 62
149 142 56
155 149 61
152 145 60
150 145 57
159 152 70
163 155 70
144 139 54
153 146 60
152 145 59
156 148 63
150 142 58
149 143 52
147 142 51
152 147 59
146 142 52
159 152 62
143 138 58
146 140 60
152 147 48
146 141 58
156 150 63
150 144 65
147 141 53
149 143 62
150 143 54
153 147 58
159 152 64
146 141 59
151 145 64
147 140 61
154 147 61
156 148 66
144 139 53
155 148 67
162 153 78
147 142 62
147 141 57
151 144 63
144 137 59
150 144 67
147 142 60
150 145 62
140 134 56
142 138 54
149 142 61
215 232 255
215 232 255
215 232 255
215 232 255
215 232 255
215 232 255
215 232 255
215 232 255
215 232 255
215 232 255
215 232 255
215 232 255
215 232 255
215 232 255
215 232 255
215 232 255
215 232 255
215 232 255
215 232 255
215 232 255
215 232 255
215 232 255
215 232 255
215 232 255
215 232 255
215 232 255
215 232 255
215 232 255
215 232 255
215 232 255
215 232 255
215 232 255
215 232 255
215 232 255
215 232 255
215 232 255
215 232 255
215 232 255
215 232 255
215 232 255
215 232 255
215 232 255
215 232 255
215 232 255
215 232 255
215 232 255
215 232 255
215 232 255
215 232 255
215 232 255
215 232 255
215 232 255
215 232 255
215 232 255
215 232 255
215 232 255
215 232 255
215 232 255
215 232 255
215 232 255
215 232 255
215 232 255
215 232 255
215 232 255
215 232 255
215 232 255
215 232 255
215 232 255
215 232 255
215 232 255
215 232 255
215 232 255
215 232 255
215 232 255
215 232 255
215 232 255
215 232 255
215 232 255
215 232 255
215 232 255
215 232 255
215 232 255
215 232 255
215 232 255
215 232 255
215 232 255
215 232 255
215 232 255
215 232 255
215 232 255
215 232 255
215 232 255
215 232 255
215 232 255
215 232 255
215 232 255
215 232 255
214 232 255
214 232 255
214 232 255
214 232 255
214 232 255
214 232 255
214 232 255
214 231 255
214 231 255
214 231 255
214 231 255
214 231 255
214 231 255
213 231 255
213 231 255
213 231 255
213 231 255
213 231 255
213 231 255
213 231 255
213 231 255
212 231 255
212 230 255
212 230 255
212 230 255
212 230 255
211 230 255
211 230 255
211 230 255
211 230 255
210 229 255
210 229 255
210 229 255
209 229 255
209 229 255
208 228 255
208 228 255
207 228 255
207 228 255
206 227 255
205 227 255
204 226 255
203 226 255
196 219 231
175 197 57
172 195 0
172 196 0
171 195 0
168 192 0
173 196 0
171 195 0
171 194 0
166 190 0
169 192 0
172 195 0
172 196 0
171 194 0
173 196 0
119 144 99
56 89 115
57 90 108
58 91 120
58 92 118
58 91 114
58 91 114
57 90 108
56 89 113
58 92 111
58 91 115
56 89 110
59 93 131
57 90 102
58 92 120
56 89 108
57 90 105
57 90 107
59 93 118
60 94 128
57 91 111
58 92 117
58 92 114
58 90 107
57 90 111
58 91 113
57 90 118
55 88 95
57 90 110
58 91 105
57 89 114
56 89 99
58 92 118
57 90 110
55 87 108
58 91 118
58 90 117
56 88 103
57 90 110
55 87 115
57 90 94
58 92 114
56 89 102
56 89 108
57 90 113
57 90 105
57 90 111
58 91 115
56 89 114
56 89 111
57 90 103
57 90 117
56 89 103
56 89 102
57 89 118
58 90 114
56 88 115
57 89 114
56 88 111
58 91 118
55 87 99
55 87 105
57 89 113
53 84 105
56 88 105
57 89 111
55 86 107
57 90 109
54 84 103
53 83 103
54 84 106
56 88 105
55 86 106
55 86 103
54 85 101
54 84 103
53 84 99
54 85 98
53 83 103
57 89 109
54 84 103
52 81 89
52 80 90
55 85 108
53 82 88
49 76 71
50 77 85
46 71 69
47 72 73
115 134 56
166 189 0
168 190 0
168 191 0
167 189 0
169 191 0
164 186 0
168 192 0
169 191 0
168 190 0
168 191 0
168 189 0
167 189 0
170 192 0
168 190 0
114 118 30
92 90 24
82 80 28
83 82 18
75 74 18
75 74 14
79 78 16
83 81 21
82 80 18
76 76 16
78 78 5
84 84 16
92 91 16
93 90 15
89 89 18
94 92 32
94 93 21
107 104 30
102 102 15
91 90 18
106 103 26
109 108 27
103 103 26
107 106 26
118 114 31
107 105 32
118 114 33
112 110 20
115 114 33
117 112 28
120 117 28
118 115 34
125 122 35
132 128 49
125 122 35
125 121 29
122 119 36
129 125 39
125 123 34
131 126 45
136 131 40
133 128 48
138 133 42
145 140 52
129 126 37
137 133 42
134 130 42
150 144 56
144 139 51
141 135 50
127 123 32
127 124 37
142 137 50
143 137 50
138 134 34
144 139 50
147 142 45
140 135 39
149 144 51
147 141 57
147 141 45
147 142 51
150 143 48
145 140 47
149 143 54
151 146 51
151 145 56
148 142 54
152 146 47
152 146 54
150 145 48
156 149 57
153 147 53
156 150 57
149 143 48
150 144 52
149 143 49
151 146 52
146 141 49
151 145 54
153 146 52
153 147 53
150 145 53
154 148 58
152 146 49
150 144 54
155 149 57
151 144 54
155 148 58
156 149 59
152 145 57
145 139 51
148 144 48
155 148 54
155 150 61
143 139 49
154 147 65
147 141 52
154 147 61
152 146 58
151 146 59
147 141 53
156 150 67
151 144 61
150 144 57
157 152 60
160 152 65
153 146 66
155 148 60
157 152 63
156 149 60
148 142 60
151 146 56
150 144 61
153 147 49
148 142 56
148 142 56
154 147 60
148 141 59
152 146 62
153 147 63
152 145 61
153 147 53
150 143 58
149 143 57
151 144 61
154 148 64
150 144 63
147 141 53
144 139 56
145 140 53
157 150 67
156 149 66
154 148 62
145 139 56
144 138 51
147 141 58
147 141 62
146 139 59
139 133 52
149 143 60
214 232 255
214 232 255
214 232 255
214 232 255
214 232 255
214 232 255
214 232 255
214 232 255
215 232 255
215 232 255
215 232 255
215 232 255
215 232 255
215 232 255
215 232 255
215 232 255
215 232 255
215 232 255
215 232 255
215 232 255
215 232 255
215 232 255
215 232 255
215 232 255
215 232 255
215 232 255
215 232 255
215 232 255
215 232 255
215 232 255
215 232 255
215 232 255
215 232 255
215 232 255
215 232 255
215 232 255
215 232 255
215 232 255
215 232 255
215 232 255
215 232 255
215 232 255
215 232 255
215 232 255
215 232 255
215 232 255
215 232 255
215 232 255
215 232 255
215 232 255
215 232 255
215 232 255
215 232 255
215 232 255
215 232 255
215 232 255
215 232 255
215 232 255
215 232 255
215 232 255
215 232 255
215 232 255
215 232 255
215 232 255
215 232 255
215 232 255
215 232 255
215 232 255
215 232 255
215 232 255
215 232 255
215 232 255
215 232 255
215 232 255
215 232 255
215 232 255
215 232 255
215 232 255
215 232 255
215 232 255
215 232 255
215 232 255
215 232 255
215 232 255
215 232 255
215 232 255
215 232 255
215 232 255
215 232 255
215 232 255
215 232 255
214 232 255
214 232 255
214 232 255
214 232 255
214 232 255
214 232 255
214 232 255
214 232 255
214 231 255
214 231 255
214 231 255
214 231 255
214 231 255
214 231 255
214 231 255
213 231 255
213 231 255
213 231 255
213 231 255
213 231 255
213 231 255
213 231 255
213 231 255
213 231 255
212 231 255
212 230 255
212 230 255
212 230 255
212 230 255
211 230 255
211 230 255
211 230 255
211 230 255
211 230 255
210 229 255
210 229 255
210 229 255
209 229 255
209 229 255
209 228 255
208 228 255
208 228 255
207 228 255
206 227 255
206 227 255
205 227 255
204 226 255
203 225 255
200 224 250
179 203 125
173 196 0
170 194 0
171 195 0
172 196 0
173 196 0
170 193 0
172 195 0
169 192 0
168 192 0
169 192 0
168 191 0
168 191 0
170 194 0
171 194 0
166 190 25
80 108 110
58 92 124
56 89 110
58 91 114
57 91 111
55 87 97
56 89 103
56 89 105
58 91 107
57 90 110
56 89 111
56 89 108
56 89 110
57 91 102
56 88 105
55 87 108
56 89 108
57 90 117
59 92 126
58 91 120
55 87 108
56 89 107
59 93 125
56 88 113
58 91 121
57 91 100
58 92 115
58 91 114
57 90 115
58 91 115
57 90 111
55 87 113
55 88 105
57 89 111
57 90 120
57 90 107
58 92 118
55 87 107
57 90 110
56 89 110
57 89 113
56 89 105
58 91 122
56 89 120
58 91 123
56 89 105
57 90 110
56 89 110
55 87 108
58 92 113
56 89 103
57 90 115
57 89 108
56 89 117
58 91 103
57 91 113
55 87 110
57 90 115
56 89 121
55 86 107
56 89 108
56 88 115
58 91 117
55 86 105
56 88 113
54 85 107
55 87 100
53 84 99
55 86 111
56 88 117
55 86 96
55 85 108
56 87 104
54 84 89
53 83 97
50 78 90
55 85 110
50 79 93
52 81 103
52 81 93
51 79 91
50 78 93
51 80 87
52 81 93
47 74 76
46 72 72
45 68 72
73 94 65
164 188 19
165 187 0
167 190 0
170 194 0
168 191 0
167 190 0
170 194 0
168 191 0
169 193 0
170 193 0
169 192 0
172 195 0
166 187 0
168 189 0
166 190 0
158 175 22
94 89 38
81 79 30
87 84 18
84 82 22
71 69 5
89 87 19
81 79 2
85 84 26
82 81 8
82 81 9
82 82 16
79 78 3
71 72 5
81 78 16
92 90 16
89 88 12
100 98 24
90 87 3
95 95 22
97 97 27
104 102 24
101 100 14
118 115 31
121 116 37
114 110 28
113 111 15
115 112 35
114 112 30
117 114 34
124 119 35
115 112 30
122 119 34
115 112 30
133 129 37
135 131 44
136 131 43
125 121 33
124 120 29
130 126 31
133 129 40
125 123 38
130 126 38
137 132 42
134 129 45
129 126 39
135 130 42
141 135 52
138 133 49
144 138 41
128 124 43
139 134 52
144 139 47
139 134 47
151 145 55
147 142 53
140 136 46
144 138 47
145 139 52
149 144 53
144 139 44
134 130 46
144 139 51
148 141 52
152 145 54
150 145 47
141 136 43
157 150 58
149 144 52
149 144 41
148 142 52
151 145 53
149 142 54
144 139 44
151 145 53
155 150 58
153 148 53
145 139 45
152 145 60
148 141 51
149 143 49
157 149 61
150 144 52
149 144 57
151 144 53
157 151 61
149 143 53
147 140 47
155 149 60
154 147 57
147 141 49
156 149 62
152 147 52
150 144 52
152 145 54
145 139 57
153 146 54
147 143 49
148 142 56
149 143 53
147 142 52
153 146 57
152 146 47
151 144 56
150 144 54
151 145 53
145 139 51
150 144 56
151 146 56
142 137 52
149 143 54
144 137 52
156 148 65
148 142 60
154 147 61
145 139 54
151 146 57
147 141 57
155 148 66
145 139 51
149 143 60
147 142 57
155 148 62
154 147 65
145 139 53
145 138 57
146 139 54
152 146 65
155 147 68
146 140 60
150 143 59
143 136 62
145 139 57
144 139 49
137 131 51
146 140 53
143 138 58
148 143 61
138 133 54
142 136 59
148 142 63
214 231 255
214 231 255
214 232 255
214 232 255
214 232 255
214 232 255
214 232 255
214 232 255
214 232 255
214 232 255
214 232 255
214 232 255
214 232 255
214 232 255
214 232 255
214 232 255
214 232 255
214 232 255
214 232 255
214 232 255
215 232 255
215 232 255
215 232 255
215 232 255
215 232 255
215 232 255
215 232 255
215 232 255
215 232 255
215 232 255
215 232 255
215 232 255
215 232 255
215 232 255
215 232 255
215 232 255
215 232 255
215 232 255
215 232 255
215 232 255
215 232 255
215 232 255
215 232 255
215 232 255
215 232 255
215 232 255
215 232 255
215 232 255
215 232 255
215 232 255
215 232 255
215 232 255
215 232 255
215 232 255
215 232 255
215 232 255
215 232 255
215 232 255
215 232 255
215 232 255
215 232 255
215 232 255
215 232 255
215 232 255
215 232 255
215 232 255
215 232 255
215 232 255
215 232 255
215 232 255
215 232 255
215 232 255
215 232 255
215 232 255
215 232 255
215 232 255
215 232 255
215 232 255
215 232 255
215 232 255
215 232 255
215 232 255
214 232 255
214 232 255
214 232 255
214 232 255
214 232 255
214 232 255
214 232 255
214 232 255
214 232 255
214 232 255
214 232 255
214 231 255
214 231 255
214 231 255
214 231 255
214 231 255
214 231 255
214 231 255
214 231 255
213 231 255
213 231 255
213 231 255
213 231 255
213 231 255
213 231 255
213 231 255
213 231 255
213 231 255
213 231 255
212 231 255
212 231 255
212 230 255
212 230 255
212 230 255
212 230 255
211 230 255
211 230 255
211 230 255
211 230 255
211 230 255
210 230 255
210 229 255
210 229 255
210 229 255
209 229 255
209 229 255
209 229 255
208 228 255
208 228 255
207 228 255
207 227 255
206 227 255
205 227 255
205 226 255
204 226 255
203 225 255
201 225 255
189 213 193
168 191 0
174 197 0
171 195 0
170 193 0
171 195 0
172 196 0
171 194 0
172 194 0
170 193 0
173 196 0
171 195 0
172 196 0
170 193 0
173 195 0
169 191 0
172 195 0
146 170 57
56 89 120
57 90 113
56 89 107
58 92 117
55 88 102
55 88 97
57 89 115
55 88 103
57 90 105
55 88 103
57 90 103
56 89 108
56 88 102
56 90 100
55 88 99
58 91 107
57 90 105
57 90 105
58 91 120
57 89 113
57 91 110
58 91 118
56 89 103
57 90 108
56 88 111
58 91 111
56 89 102
53 85 86
55 87 103
58 91 115
56 88 107
57 90 113
55 88 97
55 87 94
57 90 110
57 90 103
56 88 95
58 92 111
57 89 110
57 91 110
57 91 110
57 91 114
57 90 114
57 90 114
57 90 103
58 91 117
57 90 105
58 91 115
55 87 95
57 89 103
57 90 114
54 85 95
57 89 113
56 87 107
57 89 114
56 88 107
56 88 110
57 88 110
56 88 113
56 88 95
55 88 105
54 85 100
58 91 120
56 89 104
56 88 97
55 87 99
58 91 107
53 83 101
54 85 97
54 85 105
54 84 98
52 82 79
58 91 125
54 84 99
51 79 84
55 85 112
50 78 91
52 81 91
51 80 95
52 80 96
51 79 105
50 77 84
50 77 93
50 77 93
47 72 72
45 69 67
135 157 37
164 187 0
166 189 0
168 189 0
168 190 0
167 189 0
163 185 0
166 188 0
162 184 0
166 189 0
167 188 0
166 189 0
169 191 0
171 192 0
171 193 0
166 189 0
168 189 0
136 149 14
90 86 20
85 82 33
78 76 11
88 85 23
79 76 23
85 83 17
76 75 11
87 85 11
77 76 12
86 84 14
82 81 16
85 84 15
90 90 22
83 83 8
92 92 14
94 92 11
90 89 20
96 93 29
105 102 16
96 96 14
108 105 29
112 108 35
105 102 25
105 101 26
112 109 25
111 108 18
108 106 23
117 114 27
120 116 29
108 105 26
112 110 24
119 115 39
116 114 28
122 117 35
125 121 38
124 120 35
120 117 32
135 131 37
130 124 34
130 124 44
123 119 34
137 132 45
133 127 42
138 133 47
133 128 44
138 134 39
144 139 57
145 138 49
138 133 38
140 134 49
142 136 45
143 136 47
135 131 42
144 139 45
140 135 45
145 140 45
143 138 42
147 141 52
145 139 37
148 142 52
149 143 49
146 141 45
152 147 49
143 138 45
151 143 50
151 145 54
147 141 37
146 140 48
142 138 39
146 140 48
150 144 53
154 147 51
157 150 64
148 142 47
154 147 51
146 141 51
150 144 57
154 148 54
153 147 54
153 146 56
153 146 57
143 138 44
145 139 45
152 145 59
154 146 57
148 142 47
152 145 58
149 143 51
150 143 60
146 142 42
150 144 56
153 146 53
151 146 53
152 145 52
145 140 49
147 140 49
154 147 58
149 144 48
155 148 59
157 149 56
151 144 51
155 149 63
149 143 54
154 147 58
149 143 58
153 148 47
148 143 54
145 140 51
152 145 58
150 144 52
142 137 52
143 137 53
147 141 54
144 138 53
148 142 58
144 139 57
156 149 58
150 144 61
151 146 59
145 138 49
151 144 60
154 147 62
144 139 56
149 143 53
143 137 54
150 143 62
138 132 44
153 146 61
149 143 61
141 136 51
144 136 58
146 140 59
142 137 49
150 143 57
149 142 54
152 146 60
142 135 63
144 138 60
140 136 53
214 231 255
214 231 255
214 231 255
214 231 255
214 231 255
214 231 255
214 231 255
214 231 255
214 231 255
214 231 255
214 231 255
214 231 255
214 232 255
214 232 255
214 232 255
214 232 255
214 232 255
214 232 255
214 232 255
214 232 255
214 232 255
214 232 255
214 232 255
214 232 255
214 232 255
214 232 255
214 232 255
214 232 255
214 232 255
214 232 255
214 232 255
214 232 255
214 232 255
214 232 255
214 232 255
215 232 255
215 232 255
215 232 255
215 232 255
215 232 255
215 232 255
215 232 255
215 232 255
215 232 255
215 232 255
215 232 255
215 232 255
215 232 255
215 232 255
215 232 255
215 232 255
215 232 255
215 232 255
215 232 255
215 232 255
215 232 255
215 232 255
215 232 255
215 232 255
215 232 255
215 232 255
215 232 255
215 232 255
215 232 255
215 232 255
215 232 255
215 232 255
215 232 255
214 232 255
214 232 255
214 232 255
214 232 255
214 232 255
214 232 255
214 232 255
214 232 255
214 232 255
214 232 255
214 232 255
214 232 255
214 232 255
214 232 255
214 232 255
214 232 255
214 232 255
214 232 255
214 231 255
214 231 255
214 231 255
214 231 255
214 231 255
214 231 255
214 231 255
214 231 255
214 231 255
214 231 255
213 231 255
213 231 255
213 231 255
213 231 255
213 231 255
213 231 255
213 231 255
213 231 255
213 231 255
213 231 255
213 231 255
212 231 255
212 231 255
212 231 255
212 230 255
212 230 255
212 230 255
212 230 255
211 230 255
211 230 255
211 230 255
211 230 255
211 230 255
211 230 255
210 229 255
210 229 255
210 229 255
210 229 255
209 229 255
209 229 255
209 228 255
208 228 255
208 228 255
207 228 255
207 228 255
206 227 255
206 227 255
205 227 255
204 226 255
203 226 255
202 225 255
201 224 255
192 216 224
175 198 25
172 196 0
170 193 0
170 194 0
170 194 0
167 190 0
169 191 0
172 195 0
171 195 0
172 194 0
168 191 0
170 194 0
172 196 0
169 192 0
167 190 0
169 193 0
173 196 0
168 191 0
109 134 90
55 87 108
57 90 114
58 92 118
56 89 102
55 88 105
58 91 111
56 89 107
56 89 114
57 90 113
58 91 110
58 91 121
56 89 100
57 90 120
56 89 102
58 91 113
59 93 118
56 88 99
58 91 120
56 89 118
56 88 111
58 92 113
56 89 102
56 89 111
58 92 100
55 87 105
57 89 110
56 87 108
57 89 113
56 89 111
57 90 105
59 92 118
57 90 117
57 91 115
56 88 108
54 85 88
57 90 115
55 87 97
55 88 97
56 88 113
55 86 103
58 91 118
57 89 110
56 88 110
56 88 107
59 92 121
56 88 105
59 92 128
56 88 110
57 90 116
57 89 110
57 90 105
54 85 82
55 88 100
57 89 111
55 87 97
55 87 100
56 88 102
56 89 115
56 89 101
56 89 114
55 87 102
54 85 97
55 87 110
53 84 103
55 85 111
54 85 99
54 84 97
55 86 110
55 86 97
55 87 102
52 81 95
54 84 100
53 84 100
53 83 102
53 83 95
53 83 95
52 81 99
51 80 82
51 80 85
50 78 79
50 78 87
48 75 82
50 77 84
47 72 71
106 126 57
168 192 0
161 183 0
160 180 0
166 189 0
163 186 0
164 186 0
165 184 0
163 184 0
165 186 0
158 180 0
166 187 0
163 185 0
163 184 0
164 185 0
169 190 0
167 189 0
165 187 0
166 188 0
125 130 32
90 86 23
87 83 16
89 85 19
81 80 30
81 79 16
75 75 8
68 66 14
85 82 3
77 76 8
80 77 11
79 79 9
85 83 11
81 79 16
94 93 15
81 78 18
95 94 19
86 83 8
96 95 19
100 98 24
99 98 29
102 99 22
102 100 27
109 106 20
107 105 23
115 112 28
115 113 26
119 117 24
111 108 30
115 111 28
115 111 24
115 114 35
124 121 27
110 108 25
129 125 44
130 126 32
130 125 37
124 120 31
133 130 49
128 125 47
134 129 42
133 130 43
134 128 37
127 124 41
138 133 47
136 132 39
123 120 42
141 136 47
148 143 42
132 128 40
147 140 50
142 136 34
142 137 44
143 137 39
143 138 41
143 137 41
145 140 44
145 140 44
142 137 47
147 142 46
143 139 42
144 139 42
143 138 41
148 142 50
144 139 45
138 133 39
145 140 45
148 141 54
149 143 48
144 138 53
144 138 52
144 139 45
156 150 57
137 133 41
151 146 44
149 142 54
148 143 44
147 141 44
145 140 45
152 147 54
151 145 49
149 144 52
148 143 53
155 147 62
144 140 42
151 144 52
146 140 48
145 139 48
146 139 42
148 141 54
152 146 58
152 146 54
151 144 52
150 144 58
153 146 57
142 137 44
152 146 57
145 139 54
148 143 52
142 137 51
154 147 56
157 151 52
147 141 53
151 145 52
161 154 63
150 144 59
151 145 60
151 143 56
145 139 53
148 142 59
144 138 56
143 136 51
141 136 52
151 145 51
147 142 54
143 137 51
149 142 60
152 145 68
159 153 57
147 141 52
144 139 53
149 143 59
150 145 60
148 142 54
150 144 60
150 143 58
149 142 58
154 147 65
151 143 52
148 141 65
147 141 52
151 145 57
141 135 51
144 138 54
139 133 56
150 144 61
156 151 66
148 142 61
147 141 62
213 231 255
213 231 255
213 231 255
213 231 255
213 231 255
213 231 255
214 231 255
214 231 255
214 231 255
214 231 255
214 231 255
214 231 255
214 231 255
214 231 255
214 231 255
214 231 255
214 231 255
214 231 255
214 231 255
214 231 255
214 231 255
214 231 255
214 231 255
214 231 255
214 231 255
214 232 255
214 232 255
214 232 255
214 232 255
214 232 255
214 232 255
214 232 255
214 232 255
214 232 255
214 232 255
214 232 255
214 232 255
214 232 255
214 232 255
214 232 255
214 232 255
214 232 255
214 232 255
214 232 255
214 232 255
214 232 255
214 232 255
214 232 255
214 232 255
214 232 255
214 232 255
214 232 255
214 232 255
214 232 255
214 232 255
214 232 255
214 232 255
214 232 255
214 232 255
214 232 255
214 232 255
214 232 255
214 232 255
214 232 255
214 232 255
214 232 255
214 232 255
214 232 255
214 232 255
214 232 255
214 232 255
214 232 255
214 232 255
214 232 255
214 232 255
214 232 255
214 232 255
214 231 255
214 231 255
214 231 255
214 231 255
214 231 255
214 231 255
214 231 255
214 231 255
214 231 255
214 231 255
214 231 255
214 231 255
214 231 255
213 231 255
213 231 255
213 231 255
213 231 255
213 231 255
213 231 255
213 231 255
213 231 255
213 231 255
213 231 255
213 231 255
213 231 255
213 231 255
212 231 255
212 231 255
212 231 255
212 230 255
212 230 255
212 230 255
212 230 255
212 230 255
211 230 255
211 230 255
211 230 255
211 230 255
211 230 255
211 230 255
210 229 255
210 229 255
210 229 255
210 229 255
209 229 255
209 229 255
209 229 255
208 228 255
208 228 255
208 228 255
207 228 255
207 228 255
206 227 255
206 227 255
205 227 255
205 226 255
204 226 255
203 225 255
202 225 255
201 224 255
196 220 240
172 195 80
168 191 0
168 191 0
166 189 0
168 190 0
167 191 0
169 192 0
171 194 0
172 195 0
170 193 0
170 193 0
164 187 0
167 191 0
165 188 0
170 192 0
168 191 0
167 190 0
167 191 0
170 193 0
167 190 18
75 103 102
56 90 108
57 90 122
57 90 110
57 90 102
57 89 113
57 90 105
56 89 111
57 90 103
57 89 111
56 89 105
57 90 108
54 86 84
57 90 110
55 87 94
57 90 100
56 89 110
55 87 103
57 89 102
56 88 105
56 89 100
58 92 113
57 90 115
55 87 102
56 88 99
57 90 105
54 87 99
56 89 113
56 88 105
57 90 111
58 91 118
56 89 99
57 90 115
54 86 100
56 88 100
56 89 107
57 90 108
56 88 108
58 91 124
56 88 108
57 90 111
56 89 105
56 88 96
55 86 95
57 89 113
57 90 104
57 89 107
56 88 115
55 87 100
56 88 113
56 89 103
56 89 108
57 90 104
57 89 107
55 87 95
55 87 94
56 88 114
56 88 108
56 88 105
57 90 110
53 84 89
55 86 108
55 86 103
55 86 99
55 87 99
55 86 100
55 86 99
54 86 102
54 86 104
53 83 92
50 78 89
54 85 102
56 88 110
56 87 93
53 82 95
53 83 95
52 82 89
51 80 83
52 81 80
51 79 77
50 78 84
49 75 71
48 75 78
62 85 58
155 176 25
160 181 0
160 182 0
156 177 0
163 184 0
154 174 0
160 180 0
162 182 0
163 184 0
160 182 0
157 178 0
162 182 0
167 188 0
164 185 0
162 185 0
165 188 0
162 183 0
163 185 0
165 186 0
154 173 0
115 114 41
84 82 25
89 85 21
93 89 31
72 71 11
91 86 14
83 80 17
88 86 0
77 74 14
96 92 16
80 79 8
84 83 18
101 97 14
90 86 12
100 96 0
95 92 16
90 88 25
99 96 16
95 93 18
107 101 22
108 105 19
105 103 19
117 113 28
119 115 32
111 107 16
109 107 19
104 101 29
119 114 37
113 110 26
115 111 24
123 118 38
125 122 33
119 116 29
123 120 33
124 120 35
120 115 29
115 111 29
125 122 30
121 118 31
121 117 34
129 125 33
134 131 30
135 132 39
139 134 43
134 129 30
134 129 36
133 129 37
129 123 39
132 128 34
145 137 42
135 130 34
134 130 37
142 137 39
138 133 37
138 134 42
140 135 37
146 139 45
141 137 39
142 136 46
146 140 47
147 141 40
145 139 44
148 141 49
142 136 42
151 146 42
147 141 42
147 141 52
140 134 40
144 139 44
150 144 54
147 142 51
149 142 47
143 137 45
146 139 51
153 146 56
148 143 45
145 139 39
146 141 42
143 137 48
158 151 59
140 135 36
147 141 47
147 140 54
148 142 49
154 148 54
144 138 49
149 143 48
147 141 51
150 143 57
153 146 57
148 142 53
154 148 58
150 144 54
147 142 49
151 145 52
153 148 52
144 138 48
146 139 53
151 145 57
150 145 56
154 148 57
152 146 57
148 140 58
149 143 47
147 140 58
153 146 60
148 142 56
154 147 57
144 140 42
145 139 45
143 137 42
151 144 53
145 140 51
150 143 52
149 144 51
142 136 44
149 142 58
145 138 51
148 140 52
142 136 53
146 140 60
138 132 47
147 141 61
144 137 54
142 135 53
139 132 51
143 137 57
145 139 45
152 147 59
156 148 67
143 138 56
142 135 56
142 136 54
143 136 54
138 132 51
143 136 57
138 132 52
144 137 56
213 231 255
213 231 255
213 231 255
213 231 255
213 231 255
213 231 255
213 231 255
213 231 255
213 231 255
213 231 255
213 231 255
213 231 255
213 231 255
213 231 255
213 231 255
213 231 255
213 231 255
214 231 255
214 231 255
214 231 255
214 231 255
214 231 255
214 231 255
214 231 255
214 231 255
214 231 255
214 231 255
214 231 255
214 231 255
214 231 255
214 231 255
214 231 255
214 231 255
214 231 255
214 231 255
214 231 255
214 231 255
214 231 255
214 231 255
214 231 255
214 231 255
214 231 255
214 231 255
214 231 255
214 231 255
214 231 255
214 231 255
214 231 255
214 231 255
214 231 255
214 231 255
214 231 255
214 231 255
214 231 255
214 232 255
214 231 255
214 231 255
214 231 255
214 231 255
214 231 255
214 231 255
214 231 255
214 231 255
214 231 255
214 231 255
214 231 255
214 231 255
214 231 255
214 231 255
214 231 255
214 231 255
214 231 255
214 231 255
214 231 255
214 231 255
214 231 255
214 231 255
214 231 255
214 231 255
214 231 255
214 231 255
214 231 255
213 231 255
213 231 255
213 231 255
213 231 255
213 231 255
213 231 255
213 231 255
213 231 255
213 231 255
213 231 255
213 231 255
213 231 255
213 231 255
213 231 255
213 231 255
213 231 255
213 231 255
212 231 255
212 231 255
212 231 255
212 230 255
212 230 255
212 230 255
212 230 255
212 230 255
212 230 255
211 230 255
211 230 255
211 230 255
211 230 255
211 230 255
211 230 255
210 230 255
210 229 255
210 229 255
210 229 255
210 229 255
209 229 255
209 229 255
209 229 255
208 228 255
208 228 255
208 228 255
207 228 255
207 228 255
206 227 255
206 227 255
205 227 255
205 226 255
204 226 255
203 226 255
203 225 255
202 225 255
200 224 255
197 222 250
180 203 125
170 193 0
173 196 0
170 192 0
171 194 0
167 190 0
167 190 0
172 195 0
171 194 0
162 186 0
164 187 0
169 192 0
169 192 0
170 193 0
169 192 0
162 185 0
168 191 0
167 191 0
165 189 0
163 186 0
167 189 0
146 168 57
61 92 99
57 89 110
56 89 102
57 90 118
55 88 100
56 89 108
56 89 107
56 89 105
54 86 97
56 88 114
56 89 103
56 89 97
55 87 105
56 89 111
56 89 102
55 87 90
56 88 100
57 90 120
57 91 108
57 90 111
57 90 107
56 89 108
57 90 118
56 88 97
56 89 110
55 87 107
57 89 111
55 88 99
57 90 102
55 87 103
55 87 105
56 88 97
56 89 103
56 89 103
56 89 107
57 90 108
56 89 105
53 84 102
57 89 95
57 89 113
54 86 97
56 89 107
56 89 108
55 88 100
55 86 102
57 90 103
55 88 100
55 88 99
55 87 108
55 88 102
56 88 103
56 88 102
56 89 108
54 86 94
54 85 99
51 82 96
54 85 89
54 85 102
54 85 105
56 89 107
54 85 105
57 89 116
54 85 95
55 86 96
55 86 104
53 84 95
55 86 97
54 85 104
55 86 99
55 86 109
53 84 86
52 81 96
51 80 101
52 81 89
54 84 95
51 79 89
52 82 94
50 78 86
47 73 69
51 79 84
48 73 77
51 77 76
150 172 31
163 185 0
155 176 0
161 181 0
159 181 0
160 181 0
165 186 0
165 187 0
157 177 0
158 179 0
160 181 0
157 179 0
162 182 0
166 187 0
161 180 0
163 183 0
164 184 0
161 181 0
165 186 0
160 181 0
161 183 0
144 159 16
97 94 25
84 81 19
89 85 16
88 82 18
86 84 19
77 74 20
93 89 11
84 82 16
86 85 19
84 82 11
85 83 16
93 89 23
95 93 14
89 86 21
91 90 22
104 100 19
97 95 8
97 94 20
103 100 11
98 96 11
109 106 22
97 96 21
113 110 24
112 108 25
121 117 28
102 100 18
111 109 27
109 106 26
115 110 23
115 112 32
122 118 30
130 125 36
122 119 24
129 124 33
122 119 32
131 126 21
123 120 24
117 114 25
125 121 35
133 128 38
124 119 33
129 126 38
138 134 48
133 129 38
140 134 45
134 129 38
138 133 42
131 125 37
138 134 36
133 128 34
137 133 37
146 141 45
139 133 43
144 140 47
135 130 37
141 135 41
137 131 42
143 137 45
151 145 52
141 136 45
138 132 42
148 142 45
143 138 36
143 138 45
135 130 34
147 141 48
149 141 52
149 143 48
145 138 44
149 143 42
146 139 45
140 135 42
148 142 44
148 141 47
155 148 51
146 140 48
147 141 47
140 134 41
148 143 41
149 141 47
150 144 42
149 143 52
147 141 47
144 137 47
142 137 49
147 141 52
147 141 54
146 141 45
143 137 42
149 143 54
156 149 59
153 147 56
144 138 41
149 143 47
151 145 53
149 143 48
146 140 51
154 148 53
142 136 37
146 140 51
150 145 52
150 144 52
150 143 53
150 144 56
143 137 47
145 139 45
143 137 52
151 146 58
144 139 52
148 143 49
144 138 54
144 139 47
145 140 58
146 140 52
151 144 48
147 140 54
146 141 57
150 143 59
144 139 52
144 137 54
140 134 47
143 137 49
135 130 52
144 138 48
146 140 57
145 138 61
146 140 56
144 138 52
144 138 49
143 136 57
142 136 54
140 134 56
145 140 56
142 136 57
148 143 58
141 135 58
143 137 48
213 231 255
213 231 255
213 231 255
213 231 255
213 231 255
213 231 255
213 231 255
213 231 255
213 231 255
213 231 255
213 231 255
213 231 255
213 231 255
213 231 255
213 231 255
213 231 255
213 231 255
213 231 255
213 231 255
213 231 255
213 231 255
213 231 255
213 231 255
213 231 255
213 231 255
213 231 255
213 231 255
213 231 255
213 231 255
213 231 255
213 231 255
214 231 255
214 231 255
214 231 255
214 231 255
214 231 255
214 231 255
214 231 255
214 231 255
214 231 255
214 231 255
214 231 255
214 231 255
214 231 255
214 231 255
214 231 255
214 231 255
214 231 255
214 231 255
214 231 255
214 231 255
214 231 255
214 231 255
214 231 255
214 231 255
214 231 255
214 231 255
214 231 255
214 231 255
214 231 255
214 231 255
214 231 255
214 231 255
214 231 255
214 231 255
214 231 255
214 231 255
214 231 255
214 231 255
214 231 255
214 231 255
213 231 255
213 231 255
213 231 255
213 231 255
213 231 255
213 231 255
213 231 255
213 231 255
213 231 255
213 231 255
213 231 255
213 231 255
213 231 255
213 231 255
213 231 255
213 231 255
213 231 255
213 231 255
213 231 255
213 231 255
213 231 255
213 231 255
213 231 255
212 231 255
212 231 255
212 231 255
212 230 255
212 230 255
212 230 255
212 230 255
212 230 255
212 230 255
212 230 255
211 230 255
211 230 255
211 230 255
211 230 255
211 230 255
211 230 255
211 230 255
210 230 255
210 229 255
210 229 255
210 229 255
210 229 255
209 229 255
209 229 255
209 229 255
209 229 255
208 228 255
208 228 255
208 228 255
207 228 255
207 228 255
206 227 255
206 227 255
206 227 255
205 227 255
204 226 255
204 226 255
203 225 255
202 225 255
201 224 255
200 224 255
198 223 255
179 203 155
175 198 0
171 194 0
173 195 0
171 194 0
170 192 0
169 193 0
167 190 0
167 190 0
167 189 0
170 194 0
168 191 0
165 189 0
164 187 0
164 188 0
165 188 0
170 192 0
162 186 0
166 189 0
169 192 0
169 192 0
168 190 0
162 184 0
136 159 60
54 86 105
56 89 102
57 90 118
57 90 117
56 89 113
54 86 84
57 89 114
55 87 95
55 88 103
54 86 103
55 87 100
56 89 97
55 87 108
56 89 105
55 88 100
56 88 103
55 88 100
55 88 103
58 91 118
56 88 95
56 89 105
58 92 107
57 91 102
56 88 107
58 91 110
56 89 114
56 89 97
55 87 107
57 90 111
54 86 99
57 90 111
56 89 107
57 91 107
55 87 100
57 90 103
57 90 105
56 88 111
55 87 95
56 88 107
55 86 100
54 86 102
54 86 94
58 91 115
54 87 92
57 90 111
54 85 90
54 86 95
55 87 108
56 88 105
56 87 99
56 88 97
55 86 96
55 86 100
56 88 102
53 83 95
54 86 99
54 86 101
54 85 102
55 87 98
54 85 90
53 84 108
52 83 97
56 88 102
53 83 101
51 81 89
56 87 104
55 86 108
51 81 90
53 83 101
52 81 83
52 81 91
54 84 103
52 81 81
53 83 87
52 81 83
50 78 85
49 76 73
46 71 63
50 78 77
48 75 75
125 145 42
160 181 0
153 174 0
160 183 0
161 183 0
154 175 0
156 178 0
156 176 0
154 175 0
156 175 0
157 176 0
164 185 0
160 180 0
159 179 0
162 182 0
157 177 0
165 186 0
164 185 0
160 180 0
163 181 0
163 183 0
166 187 0
157 175 0
137 149 16
91 86 23
84 80 19
90 86 21
92 89 21
80 78 14
77 75 18
84 81 11
90 90 5
87 82 12
81 77 3
94 92 14
93 90 16
90 87 14
97 94 16
88 87 12
91 89 16
100 96 16
96 95 21
102 99 14
104 100 22
105 102 16
107 105 16
109 106 20
105 101 20
119 114 29
115 112 21
99 97 14
120 116 22
110 108 14
110 109 26
110 108 30
125 120 21
121 117 32
123 119 26
121 118 35
122 118 16
117 112 25
128 124 26
124 120 28
131 127 37
138 133 40
131 127 38
134 129 37
133 129 29
134 129 44
131 127 30
135 130 36
136 131 40
132 127 30
137 131 39
142 135 41
143 138 41
139 133 40
139 134 38
137 132 32
144 139 44
143 136 40
138 132 42
138 132 39
138 133 44
136 131 36
143 137 39
146 141 41
144 137 47
141 137 39
140 135 43
149 141 48
142 137 45
146 140 48
153 147 54
146 140 45
141 136 37
154 148 52
142 137 37
140 134 39
154 147 56
145 139 42
151 145 49
149 142 48
152 146 52
144 138 39
145 139 49
145 139 37
150 145 42
154 149 49
150 145 44
147 142 47
149 144 45
154 148 53
145 139 47
145 140 44
155 148 60
146 141 53
150 143 56
144 140 44
142 137 44
152 145 58
142 136 48
141 137 44
150 143 53
149 142 52
151 144 59
142 137 45
149 143 49
148 141 54
136 131 37
146 141 44
149 143 53
142 136 54
141 135 52
144 138 42
146 140 54
147 141 49
147 141 54
149 143 57
148 141 57
138 132 49
146 140 53
145 140 53
138 134 52
146 141 51
142 137 56
135 129 49
149 143 54
145 139 53
148 142 52
145 139 47
143 137 58
142 135 59
146 141 52
145 138 60
138 132 45
141 134 56
146 139 63
138 130 42
140 134 57
212 231 255
212 231 255
212 231 255
212 231 255
212 231 255
212 231 255
212 231 255
213 231 255
213 231 255
213 231 255
213 231 255
213 231 255
213 231 255
213 231 255
213 231 255
213 231 255
213 231 255
213 231 255
213 231 255
213 231 255
213 231 255
213 231 255
213 231 255
213 231 255
213 231 255
213 231 255
213 231 255
213 231 255
213 231 255
213 231 255
213 231 255
213 231 255
213 231 255
213 231 255
213 231 255
213 231 255
213 231 255
213 231 255
213 231 255
213 231 255
213 231 255
213 231 255
213 231 255
213 231 255
213 231 255
213 231 255
213 231 255
213 231 255
213 231 255
213 231 255
213 231 255
213 231 255
213 231 255
213 231 255
213 231 255
213 231 255
213 231 255
213 231 255
213 231 255
213 231 255
213 231 255
213 231 255
213 231 255
213 231 255
213 231 255
213 231 255
213 231 255
213 231 255
213 231 255
213 231 255
213 231 255
213 231 255
213 231 255
213 231 255
213 231 255
213 231 255
213 231 255
213 231 255
213 231 255
213 231 255
213 231 255
213 231 255
213 231 255
213 231 255
213 231 255
213 231 255
213 231 255
212 231 255
212 231 255
212 231 255
212 231 255
212 231 255
212 230 255
212 230 255
212 230 255
212 230 255
212 230 255
212 230 255
212 230 255
212 230 255
211 230 255
211 230 255
211 230 255
211 230 255
211 230 255
211 230 255
211 230 255
211 230 255
210 229 255
210 229 255
210 229 255
210 229 255
210 229 255
209 229 255
209 229 255
209 229 255
209 229 255
208 228 255
208 228 255
208 228 255
208 228 255
207 228 255
207 228 255
206 227 255
206 227 255
206 227 255
205 227 255
205 226 255
204 226 255
203 226 255
203 225 255
202 225 255
201 224 255
199 224 255
198 223 255
180 205 171
170 193 0
169 193 0
167 190 0
170 194 0
167 190 0
167 191 0
171 194 0
166 189 0
169 191 0
167 189 0
165 187 0
168 191 0
166 189 0
165 188 0
169 191 0
169 192 0
168 191 0
167 189 0
162 185 0
163 187 0
161 184 0
166 190 0
162 185 0
160 182 0
113 136 82
54 85 97
55 88 99
55 87 99
56 89 110
56 88 113
55 87 100
56 89 97
54 86 100
55 87 99
55 87 94
56 88 117
56 88 99
55 87 100
57 90 113
57 90 102
55 87 97
56 88 105
56 89 103
56 89 103
55 88 102
54 86 97
56 89 102
57 91 108
55 86 99
54 87 100
54 86 82
56 89 107
56 89 107
56 88 103
58 91 108
57 90 114
55 86 102
55 88 103
54 86 102
55 88 100
54 85 103
55 87 96
56 89 110
56 88 122
56 89 105
55 88 103
57 90 115
56 88 107
54 86 95
56 88 97
55 87 102
57 89 113
55 87 110
54 86 92
55 87 103
53 85 88
53 83 86
54 85 105
55 86 100
52 82 100
55 86 107
53 84 96
54 86 105
54 84 98
58 90 111
54 85 89
55 86 95
54 85 104
50 79 88
54 84 96
52 82 92
52 82 84
49 77 77
54 84 102
53 82 87
50 78 88
51 80 89
51 79 93
51 78 89
50 78 75
50 78 88
49 75 85
45 71 72
110 128 48
158 179 0
150 170 0
150 170 0
159 180 0
157 177 0
156 175 0
160 181 0
159 178 0
154 175 0
150 171 0
157 176 0
156 176 0
151 170 0
159 180 0
161 180 0
157 177 0
157 176 0
157 176 0
157 176 0
154 173 0
156 176 0
156 175 0
162 181 0
160 181 0
142 154 16
88 85 19
96 91 34
81 79 11
83 81 0
89 85 16
72 70 0
90 87 2
88 85 14
79 76 7
84 82 12
89 87 14
95 91 0
89 86 8
92 91 14
96 93 11
93 90 16
105 102 3
93 90 0
105 102 8
101 99 16
98 96 21
113 110 2
114 109 11
115 112 22
113 110 28
116 112 34
115 112 29
115 112 24
111 108 26
114 110 21
127 122 22
121 118 24
126 122 34
113 109 29
126 120 41
121 117 33
117 113 34
133 129 32
127 122 31
130 125 24
121 115 29
133 129 34
133 129 35
132 128 33
137 131 35
129 125 28
132 129 41
144 138 37
125 119 25
137 132 32
138 132 34
144 138 36
136 131 37
141 136 41
139 134 37
136 131 39
139 135 36
139 135 32
146 140 47
148 141 45
142 137 37
145 140 32
141 136 34
141 134 42
152 145 42
141 138 36
145 140 42
144 137 45
145 138 44
144 139 37
143 138 44
134 129 36
144 138 41
143 139 37
146 140 44
144 139 42
149 144 41
148 141 48
148 141 48
142 137 51
149 142 47
147 140 54
146 140 47
154 147 48
143 138 47
143 137 47
146 141 51
145 139 49
152 145 48
145 139 53
147 140 45
142 136 37
144 138 49
148 141 47
142 136 41
148 143 54
141 135 49
146 139 45
140 134 51
144 138 49
138 132 41
149 142 58
152 146 54
142 136 42
146 141 45
143 136 51
148 141 51
146 139 53
155 148 57
153 146 59
151 145 52
147 141 49
150 143 53
137 132 41
146 139 49
143 137 49
140 134 42
155 149 56
144 138 52
143 137 52
150 143 59
145 140 51
143 136 59
143 138 54
142 135 53
152 145 60
145 139 54
149 143 59
135 129 44
139 132 54
149 141 58
146 140 58
148 143 57
141 135 49
146 140 51
212 230 255
212 230 255
212 230 255
212 230 255
212 230 255
212 230 255
212 230 255
212 230 255
212 231 255
212 231 255
212 231 255
212 231 255
212 231 255
212 231 255
212 231 255
212 231 255
212 231 255
212 231 255
213 231 255
213 231 255
213 231 255
213 231 255
213 231 255
213 231 255
213 231 255
213 231 255
213 231 255
213 231 255
213 231 255
213 231 255
213 231 255
213 231 255
213 231 255
213 231 255
213 231 255
213 231 255
213 231 255
213 231 255
213 231 255
213 231 255
213 231 255
213 231 255
213 231 255
213 231 255
213 231 255
213 231 255
213 231 255
213 231 255
213 231 255
213 231 255
213 231 255
213 231 255
213 231 255
213 231 255
213 231 255
213 231 255
213 231 255
213 231 255
213 231 255
213 231 255
213 231 255
213 231 255
213 231 255
213 231 255
213 231 255
213 231 255
213 231 255
213 231 255
213 231 255
213 231 255
213 231 255
213 231 255
213 231 255
213 231 255
213 231 255
213 231 255
213 231 255
213 231 255
213 231 255
212 231 255
212 231 255
212 231 255
212 231 255
212 231 255
212 231 255
212 230 255
212 230 255
212 230 255
212 230 255
212 230 255
212 230 255
212 230 255
212 230 255
212 230 255
212 230 255
211 230 255
211 230 255
211 230 255
211 230 255
211 230 255
211 230 255
211 230 255
211 230 255
211 230 255
210 230 255
210 229 255
210 229 255
210 229 255
210 229 255
210 229 255
209 229 255
209 229 255
209 229 255
209 229 255
209 229 255
208 228 255
208 228 255
208 228 255
207 228 255
207 228 255
207 228 255
206 227 255
206 227 255
206 227 255
205 227 255
205 226 255
204 226 255
203 226 255
203 225 255
202 225 255
201 224 255
200 224 255
199 223 255
197 222 255
185 210 182
170 192 0
167 189 0
171 194 0
168 191 0
171 194 0
170 193 0
171 193 0
169 192 0
168 192 0
170 193 0
168 191 0
168 191 0
165 189 0
164 187 0
169 192 0
165 188 0
169 192 0
165 188 0
168 189 0
161 184 0
161 185 0
162 185 0
159 182 0
167 189 0
162 185 0
163 185 18
90 116 86
55 87 102
56 88 103
53 84 92
57 90 114
57 90 113
55 87 99
57 90 121
53 85 92
53 85 102
55 88 107
57 89 107
55 87 107
55 87 99
56 89 102
55 87 111
55 88 103
55 88 100
56 89 99
54 86 102
56 88 105
57 90 113
56 89 100
54 87 100
53 84 94
54 86 94
56 88 100
53 85 103
55 86 99
57 91 97
55 86 111
55 88 99
54 86 86
55 87 105
57 90 110
55 88 110
54 86 99
54 87 107
56 89 107
55 87 100
57 89 107
55 87 94
57 91 111
57 89 107
55 86 107
54 85 102
56 88 105
56 88 107
55 87 102
54 84 100
55 87 113
55 87 88
56 88 103
54 85 104
56 88 99
52 83 90
54 86 90
55 87 102
51 79 87
54 85 105
54 84 107
53 84 87
49 78 76
57 88 110
52 81 99
53 82 102
51 81 85
51 80 90
51 80 95
53 82 98
51 81 86
51 80 78
50 78 69
51 79 87
48 75 82
49 77 82
47 73 68
78 98 57
146 166 0
155 175 0
151 170 0
152 170 0
157 178 0
157 177 0
147 167 0
156 175 0
152 172 0
155 173 0
155 176 0
153 172 0
158 178 0
153 173 0
160 180 0
158 176 0
154 171 0
158 177 0
156 174 0
158 176 0
156 174 0
156 178 0
155 172 0
159 179 0
160 178 0
165 184 0
136 146 25
94 90 29
98 92 30
87 84 0
92 88 11
79 79 11
85 79 12
85 83 8
95 91 3
81 78 12
88 86 16
97 94 0
99 95 0
85 81 0
92 90 11
97 93 11
96 92 8
100 97 18
98 96 11
100 96 16
95 92 8
110 106 18
107 104 19
107 103 16
110 106 24
108 104 24
108 104 21
117 112 16
115 113 29
123 120 11
119 115 26
117 113 29
122 117 35
120 116 25
126 121 30
130 125 29
125 120 29
127 123 32
123 119 21
131 125 36
131 127 30
118 112 22
138 133 36
131 125 30
142 136 42
130 125 35
134 128 37
128 124 25
134 127 34
137 131 34
134 129 22
141 136 36
136 131 37
132 127 30
147 140 51
142 136 37
146 140 44
143 138 41
140 134 41
136 129 33
140 135 36
143 138 45
144 138 41
146 140 47
145 140 44
138 130 41
144 139 45
138 133 39
134 130 16
143 138 41
143 138 45
142 136 41
143 137 44
153 147 44
147 142 42
148 142 42
150 144 53
149 143 49
146 141 44
144 138 36
142 138 39
142 136 42
143 137 37
150 144 47
142 136 42
148 142 48
142 137 45
145 140 52
146 141 37
147 140 48
146 138 48
148 141 48
147 142 53
153 148 59
144 138 47
148 140 52
137 130 48
141 135 49
141 135 52
141 136 45
145 138 47
147 140 44
144 139 44
145 139 51
142 138 39
144 137 47
150 142 54
143 138 44
142 135 48
147 140 59
142 135 54
148 141 57
138 132 49
146 142 57
149 143 53
146 140 53
134 127 45
137 132 42
137 131 51
143 137 52
150 143 59
148 141 58
140 135 48
147 142 54
138 132 49
145 137 61
135 130 48
143 136 59
142 136 48
144 138 52
142 137 44
143 137 60
144 138 58
147 140 56
141 135 57
211 230 255
212 230 255
212 230 255
212 230 255
212 230 255
212 230 255
212 230 255
212 230 255
212 230 255
212 230 255
212 230 255
212 230 255
212 230 255
212 230 255
212 230 255
212 230 255
212 230 255
212 230 255
212 230 255
212 231 255
212 231 255
212 231 255
212 231 255
212 231 255
212 231 255
212 231 255
212 231 255
212 231 255
212 231 255
212 231 255
212 231 255
213 231 255
213 231 255
213 231 255
213 231 255
213 231 255
213 231 255
213 231 255
213 231 255
213 231 255
213 231 255
213 231 255
213 231 255
213 231 255
213 231 255
213 231 255
213 231 255
213 231 255
213 231 255
213 231 255
213 231 255
213 231 255
213 231 255
213 231 255
213 231 255
213 231 255
213 231 255
213 231 255
213 231 255
213 231 255
213 231 255
213 231 255
213 231 255
213 231 255
213 231 255
213 231 255
213 231 255
213 231 255
212 231 255
212 231 255
212 231 255
212 231 255
212 231 255
212 231 255
212 231 255
212 231 255
212 231 255
212 230 255
212 230 255
212 230 255
212 230 255
212 230 255
212 230 255
212 230 255
212 230 255
212 230 255
212 230 255
212 230 255
212 230 255
212 230 255
211 230 255
211 230 255
211 230 255
211 230 255
211 230 255
211 230 255
211 230 255
211 230 255
211 230 255
211 230 255
210 230 255
210 229 255
210 229 255
210 229 255
210 229 255
210 229 255
210 229 255
209 229 255
209 229 255
209 229 255
209 229 255
209 229 255
208 228 255
208 228 255
208 228 255
208 228 255
207 228 255
207 228 255
207 227 255
206 227 255
206 227 255
206 227 255
205 227 255
205 226 255
204 226 255
204 226 255
203 225 255
202 225 255
201 225 255
201 224 255
200 224 255
198 223 255
197 222 255
182 207 196
172 194 0
171 194 0
170 193 0
165 188 0
168 191 0
166 190 0
162 184 0
162 184 0
167 190 0
168 190 0
164 188 0
163 186 0
164 186 0
166 189 0
169 191 0
166 189 0
161 184 0
160 182 0
160 182 0
157 180 0
168 191 0
160 183 0
163 185 0
161 184 0
159 181 0
159 182 0
155 177 0
159 181 0
75 101 82
52 83 86
53 84 82
55 88 100
53 84 90
54 85 92
56 88 111
54 86 97
53 84 92
55 87 88
56 89 114
54 86 97
53 84 92
55 88 95
55 87 107
55 87 95
57 90 105
56 88 94
56 90 100
56 88 95
56 89 113
57 89 113
54 86 92
55 87 100
57 89 105
53 85 94
58 91 111
57 90 111
55 87 99
56 89 99
55 87 103
56 89 95
53 85 95
55 87 94
54 85 86
56 88 99
54 86 99
56 89 113
53 84 94
55 86 100
54 86 94
56 88 102
53 84 92
54 86 88
53 84 97
54 86 84
54 85 94
54 85 88
51 81 88
54 86 89
54 84 95
54 85 100
54 86 94
52 82 89
56 88 94
55 87 103
55 86 92
54 85 97
54 84 96
53 83 99
53 84 96
54 84 114
54 85 103
53 84 98
51 81 89
52 81 91
52 81 87
51 80 88
51 79 91
51 80 87
48 75 85
54 82 98
49 76 75
46 72 68
49 76 61
78 97 54
141 161 0
144 163 0
144 164 0
152 172 0
155 175 0
145 163 0
147 165 0
154 173 0
151 170 0
153 172 0
150 168 0
146 165 0
148 166 0
151 171 0
160 178 0
152 171 0
157 177 0
154 173 0
151 170 0
154 169 0
158 176 0
152 170 0
158 175 0
161 179 0
160 178 0
159 178 0
159 177 0
162 182 0
110 117 11
79 75 8
95 90 24
78 76 8
86 84 28
85 83 14
85 83 11
79 76 11
83 81 0
84 82 11
87 81 8
80 77 11
93 88 15
95 92 8
101 95 8
98 95 14
97 95 3
101 98 0
104 101 16
106 102 0
109 105 21
102 100 18
106 103 19
100 98 22
114 110 29
108 104 19
118 114 16
114 111 18
115 110 16
111 107 22
118 114 21
124 121 16
115 110 14
129 125 35
123 119 26
128 124 28
122 116 25
122 117 31
121 115 28
126 121 30
126 120 34
119 114 28
127 123 16
139 133 42
127 121 25
123 120 21
139 135 37
126 121 22
129 124 28
126 121 19
131 125 25
139 133 36
135 131 31
126 121 25
129 124 30
130 125 29
130 126 25
140 135 44
136 131 39
134 128 37
138 132 32
137 132 41
135 130 37
136 129 33
139 134 34
144 139 34
143 137 30
143 138 36
137 131 44
142 136 34
140 134 34
139 133 39
143 137 32
144 137 49
146 141 45
140 133 37
141 134 37
143 137 44
139 133 37
137 132 39
145 139 48
146 140 47
145 140 42
146 140 48
144 138 39
142 137 39
142 136 47
147 141 52
146 141 49
141 135 42
150 144 47
139 133 44
146 140 44
149 141 49
144 139 52
141 136 42
145 138 48
148 143 48
150 144 48
151 142 58
144 138 48
147 140 51
141 135 41
141 135 41
149 143 47
141 135 47
152 145 56
142 136 52
146 140 53
150 144 52
148 142 49
144 139 48
147 141 54
147 142 52
145 140 47
146 139 54
147 141 48
147 140 48
138 131 48
140 135 48
150 142 59
139 133 47
148 141 60
147 141 52
143 137 51
145 140 52
136 131 49
141 135 51
137 132 47
138 131 56
135 130 48
141 134 58
149 143 61
139 133 47
211 230 255
211 230 255
211 230 255
211 230 255
211 230 255
211 230 255
211 230 255
211 230 255
211 230 255
211 230 255
212 230 255
212 230 255
212 230 255
212 230 255
212 230 255
212 230 255
212 230 255
212 230 255
212 230 255
212 230 255
212 230 255
212 230 255
212 230 255
212 230 255
212 230 255
212 230 255
212 230 255
212 230 255
212 230 255
212 230 255
212 230 255
212 230 255
212 230 255
212 230 255
212 230 255
212 231 255
212 231 255
212 231 255
212 231 255
212 231 255
212 231 255
212 231 255
212 231 255
212 231 255
212 231 255
212 231 255
212 231 255
212 231 255
212 231 255
212 231 255
212 231 255
212 231 255
212 231 255
212 231 255
212 231 255
212 231 255
212 231 255
212 231 255
212 231 255
212 231 255
212 231 255
212 231 255
212 231 255
212 230 255
212 230 255
212 230 255
212 230 255
212 230 255
212 230 255
212 230 255
212 230 255
212 230 255
212 230 255
212 230 255
212 230 255
212 230 255
212 230 255
212 230 255
212 230 255
212 230 255
212 230 255
212 230 255
212 230 255
211 230 255
211 230 255
211 230 255
211 230 255
211 230 255
211 230 255
211 230 255
211 230 255
211 230 255
211 230 255
211 230 255
211 230 255
210 230 255
210 230 255
210 229 255
210 229 255
210 229 255
210 229 255
210 229 255
210 229 255
210 229 255
209 229 255
209 229 255
209 229 255
209 229 255
209 229 255
208 228 255
208 228 255
208 228 255
208 228 255
207 228 255
207 228 255
207 228 255
207 227 255
206 227 255
206 227 255
205 227 255
205 227 255
205 226 255
204 226 255
204 226 255
203 226 255
202 225 255
202 225 255
201 224 255
200 224 255
199 223 255
198 223 255
196 222 255
183 208 193
169 192 0
166 189 0
169 192 0
170 193 0
166 189 0
169 192 0
167 190 0
168 191 0
167 190 0
167 191 0
164 187 0
162 186 0
166 189 0
170 193 0
166 189 0
162 185 0
169 192 0
162 185 0
168 191 0
157 179 0
162 184 0
164 186 0
155 177 0
158 180 0
158 180 0
156 178 0
159 181 0
147 169 0
158 180 0
146 168 18
75 101 84
52 82 94
56 89 100
54 85 86
54 86 94
56 88 100
54 87 97
53 85 88
54 86 94
54 86 94
54 86 86
55 87 100
53 84 92
56 89 110
56 90 108
55 88 99
57 90 100
53 85 82
55 88 102
53 85 82
55 88 102
53 85 92
56 88 100
54 85 76
54 86 99
53 84 88
56 88 107
57 89 111
54 85 92
56 88 103
52 83 94
55 88 95
54 85 90
55 87 97
53 85 100
53 84 88
54 86 95
55 87 99
55 87 94
53 84 88
54 86 102
51 81 75
54 85 88
52 83 90
51 81 74
55 86 92
54 87 85
54 86 90
52 83 97
55 87 99
53 84 92
53 83 87
54 86 94
53 84 96
53 84 92
55 87 101
53 84 90
53 84 99
54 86 97
52 82 100
53 84 100
54 85 100
54 85 87
51 81 94
49 77 79
49 78 87
49 77 87
48 75 77
49 77 67
48 75 71
48 75 77
48 73 72
45 69 61
77 98 66
145 164 26
147 165 0
137 155 0
143 163 0
142 161 0
145 164 0
142 161 0
149 168 0
139 158 0
146 164 0
144 164 0
139 156 0
148 167 0
151 167 0
152 168 0
149 168 0
154 172 0
153 171 0
152 167 0
149 168 0
152 169 0
151 171 0
151 171 0
155 173 0
155 172 0
155 171 0
153 170 0
155 174 0
152 167 0
156 173 0
128 137 19
99 95 24
87 83 19
88 84 19
88 84 16
85 81 11
87 84 11
88 84 14
85 84 8
93 89 11
91 84 11
93 88 8
99 95 14
97 93 0
96 92 11
90 87 16
99 97 3
101 97 0
99 96 8
111 106 16
96 94 18
112 107 0
111 107 3
116 112 16
104 102 0
96 92 16
109 105 18
107 104 12
117 112 18
115 111 8
110 105 21
114 110 22
115 109 11
119 113 28
116 112 21
122 118 34
119 114 23
125 119 31
122 117 28
122 117 35
130 124 30
124 119 0
136 132 30
127 122 30
132 127 39
136 130 37
129 123 30
131 127 30
132 128 30
131 125 25
133 128 32
138 132 31
133 128 28
129 123 30
133 127 28
143 135 41
131 126 37
144 139 32
136 131 30
141 134 41
139 133 39
138 131 34
131 125 28
145 139 34
142 135 47
142 137 37
132 127 34
142 137 37
141 135 34
143 138 32
140 134 44
147 140 42
141 136 39
145 138 54
140 134 36
140 134 34
144 139 45
137 131 36
144 138 45
150 144 48
143 137 47
146 140 45
143 136 37
141 135 45
143 137 44
140 134 42
140 134 45
141 135 42
140 135 37
142 136 41
147 141 45
139 134 34
143 137 48
147 142 39
145 139 54
145 140 42
137 132 42
138 133 44
148 142 53
142 137 48
138 133 39
135 130 39
142 137 45
144 137 45
139 133 47
145 140 49
138 132 39
141 134 47
147 141 47
140 132 51
143 138 52
148 143 60
146 140 54
132 126 45
138 133 37
147 140 58
141 136 47
146 139 49
133 129 41
138 131 53
141 135 48
136 131 42
147 140 57
142 136 48
146 140 59
144 138 49
144 140 47
141 135 53
142 137 52
143 137 54
136 129 49
135 129 44
144 138 53
211 230 255
211 230 255
211 230 255
211 230 255
211 230 255
211 230 255
211 230 255
211 230 255
211 230 255
211 230 255
211 230 255
211 230 255
211 230 255
211 230 255
211 230 255
211 230 255
211 230 255
211 230 255
211 230 255
211 230 255
212 230 255
212 230 255
212 230 255
212 230 255
212 230 255
212 230 255
212 230 255
212 230 255
212 230 255
212 230 255
212 230 255
212 230 255
212 230 255
212 230 255
212 230 255
212 230 255
212 230 255
212 230 255
212 230 255
212 230 255
212 230 255
212 230 255
212 230 255
212 230 255
212 230 255
212 230 255
212 230 255
212 230 255
212 230 255
212 230 255
212 230 255
212 230 255
212 230 255
212 230 255
212 230 255
212 230 255
212 230 255
212 230 255
212 230 255
212 230 255
212 230 255
212 230 255
212 230 255
212 230 255
212 230 255
212 230 255
212 230 255
212 230 255
212 230 255
212 230 255
212 230 255
212 230 255
212 230 255
212 230 255
211 230 255
211 230 255
211 230 255
211 230 255
211 230 255
211 230 255
211 230 255
211 230 255
211 230 255
211 230 255
211 230 255
211 230 255
211 230 255
211 230 255
211 230 255
211 230 255
211 230 255
210 230 255
210 229 255
210 229 255
210 229 255
210 229 255
210 229 255
210 229 255
210 229 255
209 229 255
209 229 255
209 229 255
209 229 255
209 229 255
209 229 255
209 228 255
208 228 255
208 228 255
208 228 255
208 228 255
207 228 255
207 228 255
207 228 255
207 227 255
206 227 255
206 227 255
206 227 255
205 227 255
205 227 255
205 226 255
204 226 255
204 226 255
203 225 255
202 225 255
202 225 255
201 224 255
200 224 255
199 224 255
198 223 255
197 222 255
195 221 255
182 207 181
171 194 0
169 193 0
164 187 0
170 193 0
164 186 0
162 185 0
163 186 0
162 185 0
162 186 0
167 189 0
162 185 0
166 189 0
163 186 0
166 189 0
166 188 0
164 186 0
166 189 0
157 181 0
160 182 0
156 179 0
160 182 0
162 184 0
157 179 0
160 183 0
152 175 0
151 174 0
150 173 0
155 177 0
156 177 0
156 179 0
148 169 0
153 175 0
84 109 88
53 84 78
53 85 80
53 85 86
54 86 102
53 84 100
54 87 90
53 84 80
52 84 92
54 85 99
55 88 111
53 84 84
54 85 86
49 79 72
55 87 105
54 86 95
56 88 102
49 79 82
54 86 99
54 85 100
55 87 94
55 87 99
52 83 76
55 87 95
53 84 80
54 86 90
53 84 80
54 86 92
55 86 92
52 82 84
54 85 100
57 90 102
54 85 97
56 88 95
56 88 105
53 84 94
54 85 88
53 85 84
53 84 95
53 83 92
55 87 99
52 82 88
55 87 111
53 83 94
54 85 90
54 86 101
56 88 113
52 83 79
54 85 81
52 82 82
52 82 92
54 85 97
52 82 99
53 84 95
52 82 96
49 77 79
52 81 86
54 86 103
54 84 99
51 80 80
51 80 82
51 81 91
49 78 81
50 78 81
50 78 87
47 74 75
50 78 85
51 79 75
50 78 79
44 69 63
45 70 61
70 90 63
139 156 25
148 168 0
142 160 0
141 159 0
142 162 0
141 157 0
149 168 0
145 163 0
142 159 0
141 160 0
150 166 0
139 157 0
141 159 0
152 169 0
147 164 0
148 166 0
141 157 0
147 164 0
153 171 0
147 164 0
152 168 0
149 168 0
148 165 0
146 163 0
152 168 0
150 167 0
154 172 0
153 171 0
152 169 0
157 173 0
150 165 0
159 176 0
123 133 16
89 86 22
80 76 24
82 77 18
86 82 8
83 79 11
85 83 12
92 89 0
88 86 18
100 96 11
87 83 8
100 97 8
94 89 11
95 93 8
103 99 14
98 94 8
93 90 14
101 97 11
97 93 14
100 96 12
113 109 18
98 93 14
105 101 22
121 116 21
109 104 16
111 107 21
115 110 14
112 107 11
120 115 25
110 105 28
115 110 21
125 120 22
126 122 24
125 119 11
120 116 22
117 113 28
117 112 28
131 126 22
125 119 22
122 117 18
127 123 33
122 117 21
120 115 22
124 122 19
126 121 25
129 124 26
131 125 30
134 129 36
131 125 28
135 130 34
130 126 30
138 133 30
132 127 36
136 130 30
127 122 32
140 134 34
140 134 39
136 131 25
139 134 42
129 125 25
137 133 32
139 134 39
138 131 32
139 133 37
138 133 37
140 135 37
144 137 42
141 136 34
143 137 42
143 137 36
138 132 32
133 127 22
146 140 42
140 132 28
136 131 37
143 136 47
138 132 41
144 139 44
143 138 41
139 132 44
143 137 42
145 139 42
133 128 28
140 135 39
137 131 48
151 144 48
147 141 47
146 140 34
145 138 49
138 132 37
147 141 45
146 140 44
139 135 37
143 137 41
141 137 39
139 132 48
134 128 45
137 132 39
142 136 45
141 135 48
145 138 49
144 137 53
140 133 44
144 139 39
139 132 42
135 129 48
141 135 44
143 136 51
140 134 45
147 140 54
145 138 51
140 134 32
143 137 53
143 136 47
145 140 51
142 137 53
142 136 56
143 137 47
127 122 49
137 132 49
138 132 52
137 131 48
134 127 39
133 128 39
142 135 56
141 135 51
137 131 47
144 138 44
142 135 62
143 136 56
140 133 52
141 135 45
210 229 255
210 229 255
210 229 255
210 230 255
210 230 255
211 230 255
211 230 255
211 230 255
211 230 255
211 230 255
211 230 255
211 230 255
211 230 255
211 230 255
211 230 255
211 230 255
211 230 255
211 230 255
211 230 255
211 230 255
211 230 255
211 230 255
211 230 255
211 230 255
211 230 255
211 230 255
211 230 255
211 230 255
211 230 255
211 230 255
211 230 255
211 230 255
211 230 255
211 230 255
211 230 255
211 230 255
211 230 255
212 230 255
212 230 255
212 230 255
212 230 255
212 230 255
212 230 255
212 230 255
212 230 255
212 230 255
212 230 255
212 230 255
212 230 255
212 230 255
212 230 255
212 230 255
212 230 255
212 230 255
212 230 255
212 230 255
212 230 255
212 230 255
212 230 255
211 230 255
211 230 255
211 230 255
211 230 255
211 230 255
211 230 255
211 230 255
211 230 255
211 230 255
211 230 255
211 230 255
211 230 255
211 230 255
211 230 255
211 230 255
211 230 255
211 230 255
211 230 255
211 230 255
211 230 255
211 230 255
211 230 255
211 230 255
211 230 255
211 230 255
211 230 255
210 230 255
210 229 255
210 229 255
210 229 255
210 229 255
210 229 255
210 229 255
210 229 255
210 229 255
210 229 255
209 229 255
209 229 255
209 229 255
209 229 255
209 229 255
209 229 255
209 229 255
208 228 255
208 228 255
208 228 255
208 228 255
208 228 255
207 228 255
207 228 255
207 228 255
207 228 255
206 227 255
206 227 255
206 227 255
206 227 255
205 227 255
205 226 255
204 226 255
204 226 255
204 226 255
203 225 255
202 225 255
202 225 255
201 225 255
200 224 255
200 224 255
199 223 255
198 223 255
196 222 255
195 221 255
179 205 167
169 191 0
168 191 0
168 190 0
163 185 0
166 188 0
161 184 0
163 186 0
167 190 0
163 186 0
168 190 0
162 185 0
160 183 0
159 182 0
164 187 0
158 181 0
162 185 0
163 185 0
157 180 0
158 181 0
161 184 0
164 186 0
158 181 0
161 183 0
152 174 0
154 177 0
153 175 0
158 179 0
156 177 0
157 178 0
147 169 0
142 163 0
151 173 0
145 166 0
138 160 31
82 107 86
48 77 74
51 81 82
55 87 94
50 80 70
53 85 95
57 90 100
52 83 88
55 88 102
54 86 97
54 85 99
54 86 97
54 86 94
54 85 97
53 85 86
53 84 84
52 83 88
53 84 78
53 84 100
53 85 95
55 88 103
53 84 97
55 87 100
55 86 92
54 86 92
58 91 102
55 87 107
53 84 92
54 85 95
51 82 97
55 87 94
54 86 97
53 84 88
56 88 99
55 87 90
51 81 82
53 84 88
53 85 86
52 82 82
54 85 90
56 88 94
52 83 94
53 85 97
54 85 88
53 84 94
53 84 97
54 85 104
55 87 103
51 80 84
53 83 86
51 81 90
53 83 92
50 80 92
50 79 77
52 83 87
50 80 76
51 82 90
52 82 86
53 82 100
50 79 78
49 78 80
52 81 84
51 80 83
51 79 80
50 77 87
51 81 78
47 74 70
48 75 72
46 71 58
81 102 48
129 145 0
141 157 0
135 153 0
146 164 0
133 151 0
137 154 0
148 165 0
144 161 0
143 160 0
132 151 0
140 158 0
141 156 0
140 157 0
137 156 0
143 159 0
148 165 0
148 164 0
139 153 0
141 157 0
145 162 0
145 162 0
144 161 0
150 165 0
148 163 0
144 158 0
157 174 0
155 167 0
145 160 0
152 167 0
148 164 0
145 160 0
151 167 0
156 172 0
153 167 0
133 139 11
87 83 22
80 75 19
90 85 19
90 86 21
75 73 0
93 85 8
82 80 12
83 79 8
89 85 8
81 78 8
97 93 12
105 99 3
101 97 21
95 91 11
95 91 8
98 95 8
112 107 11
86 82 0
99 94 11
99 96 16
109 104 19
110 105 16
111 106 11
111 107 23
116 110 16
114 110 11
114 109 21
110 106 19
113 108 16
115 111 14
111 107 11
116 112 16
119 113 19
116 111 19
125 121 19
120 114 22
119 115 32
124 120 22
128 122 28
127 120 24
121 116 19
126 120 30
130 125 25
129 124 25
135 129 28
136 130 36
131 125 26
136 130 36
127 123 30
128 123 25
131 124 32
138 133 29
133 128 25
136 131 25
139 134 37
133 128 30
141 136 32
142 136 28
135 129 36
137 133 32
128 123 25
132 127 25
136 131 32
133 129 25
137 131 34
137 132 34
143 136 34
146 139 47
127 121 19
140 135 30
142 135 41
137 131 30
144 138 45
134 129 28
141 135 39
140 134 41
136 130 34
141 134 45
137 132 37
139 133 44
137 132 32
143 136 37
146 140 49
145 140 41
142 136 45
140 135 44
148 141 47
142 134 44
143 135 45
138 131 42
147 141 53
150 144 51
138 131 48
146 139 54
143 137 45
140 134 42
146 138 49
141 134 49
141 134 45
137 132 47
142 136 45
146 139 48
139 134 39
129 124 39
135 129 37
143 136 47
133 127 39
141 134 48
144 138 45
146 139 54
136 131 47
140 134 41
137 131 48
140 134 44
144 138 47
141 134 51
143 136 54
139 133 44
143 137 57
139 134 49
145 139 48
137 130 48
136 132 39
144 138 52
143 136 58
143 137 53
129 122 44
137 130 49
134 128 48
134 128 44
210 229 255
210 229 255
210 229 255
210 229 255
210 229 255
210 229 255
210 229 255
210 229 255
210 229 255
210 229 255
210 229 255
210 229 255
210 230 255
210 230 255
210 230 255
211 230 255
211 230 255
211 230 255
211 230 255
211 230 255
211 230 255
211 230 255
211 230 255
211 230 255
211 230 255
211 230 255
211 230 255
211 230 255
211 230 255
211 230 255
211 230 255
211 230 255
211 230 255
211 230 255
211 230 255
211 230 255
211 230 255
211 230 255
211 230 255
211 230 255
211 230 255
211 230 255
211 230 255
211 230 255
211 230 255
211 230 255
211 230 255
211 230 255
211 230 255
211 230 255
211 230 255
211 230 255
211 230 255
211 230 255
211 230 255
211 230 255
211 230 255
211 230 255
211 230 255
211 230 255
211 230 255
211 230 255
211 230 255
211 230 255
211 230 255
211 230 255
211 230 255
211 230 255
211 230 255
211 230 255
211 230 255
211 230 255
211 230 255
211 230 255
211 230 255
211 230 255
211 230 255
210 230 255
210 230 255
210 229 255
210 229 255
210 229 255
210 229 255
210 229 255
210 229 255
210 229 255
210 229 255
210 229 255
210 229 255
210 229 255
210 229 255
209 229 255
209 229 255
209 229 255
209 229 255
209 229 255
209 229 255
209 229 255
208 228 255
208 228 255
208 228 255
208 228 255
208 228 255
208 228 255
207 228 255
207 228 255
207 228 255
207 227 255
207 227 255
206 227 255
206 227 255
206 227 255
205 227 255
205 227 255
205 226 255
204 226 255
204 226 255
203 226 255
203 225 255
202 225 255
202 225 255
201 225 255
201 224 255
200 224 255
199 223 255
198 223 255
197 222 255
195 221 255
194 220 254
180 204 149
166 189 0
165 188 0
168 191 0
166 189 0
164 186 0
164 187 0
167 190 0
164 187 0
168 192 0
165 188 0
161 184 0
165 188 0
161 184 0
161 183 0
163 186 0
165 187 0
166 188 0
163 186 0
160 183 0
161 183 0
159 181 0
151 174 0
158 180 0
163 186 0
157 179 0
155 177 0
151 173 0
158 180 0
151 174 0
156 178 0
148 170 0
155 176 0
149 170 0
151 172 0
151 172 0
145 166 25
86 109 60
51 81 90
53 85 97
52 83 82
55 87 97
52 84 80
55 87 100
54 86 94
52 83 82
51 82 88
55 87 105
56 89 99
53 84 90
53 84 92
53 84 97
54 86 99
53 84 88
51 82 80
52 83 86
54 86 95
56 88 108
54 85 95
51 82 80
56 88 100
52 83 84
53 85 76
55 86 99
54 86 88
52 83 90
54 86 84
51 80 82
54 86 103
55 86 94
55 87 94
54 85 97
56 88 103
53 85 100
54 85 92
53 83 86
53 84 95
54 86 94
53 83 92
56 88 102
53 84 84
52 82 80
52 82 83
53 84 90
53 84 87
53 84 90
51 82 96
51 81 74
51 82 90
51 81 82
53 83 92
51 80 89
54 85 99
48 77 78
51 80 88
51 80 88
50 78 84
48 77 79
48 76 76
51 79 83
50 79 85
47 74 67
46 72 72
45 70 57
89 108 44
124 140 18
131 147 0
134 148 0
130 148 0
137 155 0
137 154 0
138 155 0
139 157 0
137 156 0
138 156 0
138 151 0
142 158 0
138 155 0
140 157 0
137 154 0
140 157 0
145 161 0
144 160 0
138 156 0
142 157 0
144 160 0
142 157 0
144 160 0
139 151 0
139 152 0
141 157 0
140 154 0
151 166 0
144 159 0
141 156 0
142 155 0
150 165 0
144 160 0
148 161 0
145 159 0
151 163 0
124 132 8
93 87 22
88 84 18
83 78 12
91 86 25
87 83 16
89 83 11
80 77 0
88 84 0
85 80 11
92 88 8
90 87 14
102 97 22
96 92 14
92 89 11
96 91 0
88 85 0
98 94 12
98 94 11
102 96 0
103 100 8
112 107 14
96 92 11
103 99 18
107 102 11
116 110 19
107 102 11
110 108 8
113 108 14
117 114 19
110 107 8
119 113 14
122 117 22
122 118 28
124 120 19
119 114 22
110 105 16
119 114 28
126 120 25
121 116 25
128 123 24
117 111 8
127 123 16
127 122 29
129 125 32
129 124 25
127 121 32
127 122 30
133 128 28
130 125 22
125 120 28
123 117 22
135 130 35
131 126 25
124 119 25
135 130 36
128 121 31
126 121 25
132 127 34
141 136 25
126 122 22
133 128 22
137 131 32
137 131 44
137 131 32
136 130 39
144 137 34
139 132 41
135 129 28
141 135 39
135 130 30
131 126 25
128 122 28
138 132 37
136 130 45
141 134 41
140 136 41
143 137 48
142 136 44
146 139 39
143 137 37
138 132 36
140 133 42
135 130 28
139 134 39
143 137 42
142 135 42
145 138 52
132 126 36
144 137 48
143 137 41
143 137 45
138 132 44
145 140 37
135 130 30
143 137 51
139 132 44
144 138 47
133 127 42
141 135 47
144 137 57
144 139 39
133 128 41
144 138 52
140 133 48
139 134 49
142 136 47
138 132 42
139 132 44
141 135 59
139 132 49
134 128 39
140 134 44
138 133 41
135 129 42
123 118 36
149 142 56
137 132 45
136 131 48
137 130 48
138 132 47
138 132 54
145 139 58
133 127 41
142 136 54
133 126 41
132 126 45
138 134 47
138 132 47
136 130 47
209 229 255
209 229 255
209 229 255
210 229 255
210 229 255
210 229 255
210 229 255
210 229 255
210 229 255
210 229 255
210 229 255
210 229 255
210 229 255
210 229 255
210 229 255
210 229 255
210 229 255
210 229 255
210 229 255
210 229 255
210 229 255
210 229 255
210 229 255
210 229 255
210 230 255
210 230 255
210 230 255
211 230 255
211 230 255
211 230 255
211 230 255
211 230 255
211 230 255
211 230 255
211 230 255
211 230 255
211 230 255
211 230 255
211 230 255
211 230 255
211 230 255
211 230 255
211 230 255
211 230 255
211 230 255
211 230 255
211 230 255
211 230 255
211 230 255
211 230 255
211 230 255
211 230 255
211 230 255
211 230 255
211 230 255
211 230 255
211 230 255
211 230 255
211 230 255
211 230 255
211 230 255
211 230 255
211 230 255
211 230 255
211 230 255
211 230 255
211 230 255
210 230 255
210 230 255
210 229 255
210 229 255
210 229 255
210 229 255
210 229 255
210 229 255
210 229 255
210 229 255
210 229 255
210 229 255
210 229 255
210 229 255
210 229 255
210 229 255
210 229 255
210 229 255
209 229 255
209 229 255
209 229 255
209 229 255
209 229 255
209 229 255
209 229 255
209 229 255
209 229 255
208 228 255
208 228 255
208 228 255
208 228 255
208 228 255
208 228 255
208 228 255
207 228 255
207 228 255
207 228 255
207 227 255
206 227 255
206 227 255
206 227 255
206 227 255
205 227 255
205 227 255
205 226 255
204 226 255
204 226 255
204 226 255
203 226 255
203 225 255
202 225 255
202 225 255
201 224 255
201 224 255
200 224 255
199 223 255
198 223 255
197 222 255
196 222 255
195 221 255
192 219 252
175 200 130
167 190 0
166 188 0
168 191 0
166 190 0
170 193 0
170 193 0
167 190 0
166 190 0
166 188 0
160 183 0
158 182 0
162 185 0
162 185 0
158 180 0
158 181 0
157 180 0
163 186 0
154 177 0
164 186 0
163 186 0
160 183 0
151 173 0
153 176 0
149 172 0
160 182 0
158 180 0
154 176 0
157 178 0
146 168 0
154 176 0
150 172 0
137 157 0
153 174 0
138 159 0
145 166 0
150 171 0
144 165 0
150 171 0
105 127 51
51 82 76
53 84 90
53 84 94
53 84 99
50 80 67
53 84 90
51 81 82
52 84 88
53 84 90
51 81 74
54 85 100
53 84 90
53 84 86
52 83 82
54 86 92
52 83 80
53 85 95
54 86 80
54 85 90
52 82 80
54 86 84
56 88 100
54 86 95
54 86 102
52 82 72
53 84 88
53 84 99
52 83 90
53 85 74
55 86 102
54 85 94
55 87 100
55 87 101
52 82 78
53 84 90
52 83 78
54 85 92
53 83 105
52 83 86
54 84 94
56 87 105
54 85 94
51 82 86
51 82 82
55 87 95
52 82 88
54 84 90
50 80 88
50 78 87
52 83 97
51 81 80
52 82 87
47 75 72
51 81 84
51 80 77
51 80 88
50 79 78
48 76 74
51 80 86
46 73 72
46 72 72
47 74 64
45 70 67
51 76 75
96 116 31
125 143 0
120 138 0
129 147 0
131 148 0
141 157 0
124 140 0
130 146 0
135 151 0
134 152 0
134 150 0
128 143 0
132 147 0
142 161 0
128 145 0
133 147 0
137 152 0
133 149 0
140 155 0
141 158 0
131 147 0
142 158 0
147 163 0
135 148 0
139 153 0
139 153 0
131 146 0
140 155 0
139 152 0
138 152 0
140 152 0
147 159 0
141 154 0
137 152 0
144 158 0
142 153 0
150 166 0
144 157 0
141 151 0
130 142 11
86 80 11
97 91 22
84 78 18
99 94 19
86 83 11
77 72 14
92 88 0
87 83 14
104 99 11
85 80 11
98 93 11
86 82 8
93 89 3
105 99 0
92 87 0
93 89 0
98 94 0
94 90 0
100 96 11
109 103 0
101 98 0
104 101 16
107 103 0
109 105 0
118 113 21
108 105 8
118 113 14
109 105 14
122 115 0
112 108 16
112 109 16
116 111 18
121 116 19
115 110 18
119 116 16
117 113 22
131 125 22
127 123 22
123 117 16
126 121 11
122 118 22
128 123 19
137 131 28
120 115 16
125 119 25
124 119 16
128 122 28
132 126 25
143 138 32
134 129 19
130 123 25
132 128 11
137 131 30
138 132 30
126 121 28
133 128 29
129 124 28
128 122 30
141 137 34
131 125 28
130 125 22
134 128 39
138 132 19
146 140 39
135 128 36
136 131 30
138 132 36
129 123 32
145 137 34
140 134 30
136 131 30
141 135 37
139 133 36
141 135 32
136 130 39
143 138 41
143 137 34
140 135 34
134 129 34
133 129 30
140 135 32
146 139 44
140 134 44
140 135 39
141 135 39
141 134 44
136 130 30
136 129 37
143 137 48
132 126 37
139 133 47
141 135 45
144 137 44
136 129 42
141 135 32
146 140 41
144 138 45
135 131 39
141 134 49
144 138 36
134 129 42
134 129 42
140 134 36
140 133 48
129 123 42
139 132 49
142 136 45
148 142 48
149 142 47
140 133 47
141 135 45
133 128 36
145 139 56
138 131 51
133 127 45
150 143 49
141 135 48
146 140 47
135 129 41
132 126 52
140 133 51
149 141 54
135 128 37
133 129 42
142 136 54
132 126 42
141 136 45
136 129 48
209 229 255
209 229 255
209 229 255
209 229 255
209 229 255
209 229 255
209 229 255
209 229 255
209 229 255
209 229 255
209 229 255
209 229 255
210 229 255
210 229 255
210 229 255
210 229 255
210 229 255
210 229 255
210 229 255
210 229 255
210 229 255
210 229 255
210 229 255
210 229 255
210 229 255
210 229 255
210 229 255
210 229 255
210 229 255
210 229 255
210 229 255
210 229 255
210 229 255
210 229 255
210 229 255
210 229 255
210 229 255
210 229 255
210 229 255
210 229 255
210 229 255
210 229 255
210 229 255
210 229 255
210 229 255
210 229 255
210 229 255
210 229 255
210 229 255
210 229 255
210 229 255
210 229 255
210 229 255
210 229 255
210 229 255
210 229 255
210 229 255
210 229 255
210 229 255
210 229 255
210 229 255
210 229 255
210 229 255
210 229 255
210 229 255
210 229 255
210 229 255
210 229 255
210 229 255
210 229 255
210 229 255
210 229 255
210 229 255
210 229 255
210 229 255
210 229 255
210 229 255
210 229 255
209 229 255
209 229 255
209 229 255
209 229 255
209 229 255
209 229 255
209 229 255
209 229 255
209 229 255
209 229 255
209 229 255
208 228 255
208 228 255
208 228 255
208 228 255
208 228 255
208 228 255
208 228 255
208 228 255
207 228 255
207 228 255
207 228 255
207 228 255
207 227 255
206 227 255
206 227 255
206 227 255
206 227 255
205 227 255
205 227 255
205 226 255
205 226 255
204 226 255
204 226 255
203 226 255
203 226 255
203 225 255
202 225 255
202 225 255
201 224 255
201 224 255
200 224 255
199 223 255
198 223 255
197 222 255
196 222 255
195 221 255
194 220 255
187 214 231
171 196 95
164 187 0
161 184 0
167 190 0
168 192 0
161 185 0
162 186 0
163 186 0
160 183 0
163 187 0
170 193 0
163 186 0
166 189 0
161 183 0
163 186 0
153 176 0
151 175 0
159 181 0
159 181 0
151 173 0
163 186 0
150 173 0
158 180 0
159 182 0
156 178 0
154 175 0
152 174 0
157 179 0
146 167 0
151 173 0
152 174 0
153 175 0
145 167 0
147 168 0
141 162 0
154 174 0
140 160 0
139 159 0
136 157 0
139 160 0
137 158 0
115 136 57
55 84 80
51 82 78
51 83 80
50 80 84
55 87 90
52 83 78
51 81 86
53 84 76
52 83 88
53 84 82
50 80 80
54 86 100
54 86 92
53 84 97
52 83 74
51 81 84
55 88 92
50 80 80
52 82 92
55 87 90
51 81 84
52 82 82
53 83 99
51 82 76
55 86 95
54 86 100
52 83 92
52 82 94
50 80 76
52 82 84
52 82 95
50 80 88
52 82 74
52 82 86
53 84 80
51 80 84
52 83 97
54 84 93
51 82 82
54 84 92
52 82 92
50 80 87
51 81 84
52 83 84
53 84 95
52 81 100
50 79 77
51 80 86
53 83 90
48 77 62
49 78 82
47 75 74
49 77 68
47 73 60
49 77 76
49 77 80
47 74 78
49 77 75
47 75 79
47 74 68
45 71 60
52 77 70
96 113 40
117 133 0
125 139 0
127 142 0
124 139 0
124 137 0
115 130 0
122 138 0
123 138 0
131 147 0
134 150 0
127 142 0
128 145 0
138 153 0
133 145 0
131 146 0
127 140 0
128 143 0
129 142 0
140 155 0
141 155 0
127 142 0
134 149 0
135 150 0
136 149 0
138 151 0
136 145 0
139 153 0
130 143 0
132 144 0
141 153 0
140 152 0
142 156 0
134 146 0
139 150 0
142 154 0
131 141 0
139 150 0
144 158 0
146 153 0
147 157 0
134 141 0
95 95 22
88 82 18
76 71 16
86 82 24
85 81 0
84 78 0
97 92 0
83 80 8
99 93 11
86 81 8
97 91 0
87 83 0
91 86 11
99 94 11
97 94 11
99 96 8
103 99 11
102 95 14
101 99 11
103 97 0
102 97 0
114 110 0
104 100 0
105 100 11
117 112 21
110 105 18
117 112 18
116 110 0
117 111 19
122 115 11
116 110 11
117 111 0
121 114 8
123 119 11
123 117 0
120 114 19
124 119 16
130 125 25
125 119 19
116 113 16
127 121 21
132 127 19
130 125 25
120 115 25
123 119 25
129 124 19
133 128 16
120 115 16
129 125 19
135 129 25
121 118 22
125 120 16
129 123 19
131 126 32
136 130 34
128 123 22
130 125 22
129 124 25
137 132 30
137 131 41
130 124 22
135 127 28
136 130 30
138 133 34
131 126 22
136 129 32
129 123 34
143 137 44
136 131 36
132 127 28
132 125 28
135 129 39
128 124 32
130 125 34
135 130 34
138 131 22
132 126 32
131 124 36
129 124 28
135 129 25
144 138 41
132 126 39
139 133 32
136 130 37
139 133 42
142 137 39
136 129 42
139 134 39
139 132 41
145 138 37
135 128 32
145 138 42
145 138 45
138 132 39
132 127 32
134 129 37
147 140 51
134 130 39
138 132 45
140 132 47
139 133 51
139 133 47
139 133 47
135 130 39
144 138 37
138 132 47
133 127 42
130 125 36
141 134 49
136 129 44
134 129 45
136 132 39
138 132 48
134 128 49
141 135 51
136 131 42
141 135 42
143 136 48
127 121 45
147 140 53
134 128 49
126 118 39
138 132 39
141 135 41
138 131 56
136 130 48
131 125 42
208 228 255
208 228 255
208 228 255
209 229 255
209 229 255
209 229 255
209 229 255
209 229 255
209 229 255
209 229 255
209 229 255
209 229 255
209 229 255
209 229 255
209 229 255
209 229 255
209 229 255
209 229 255
209 229 255
209 229 255
209 229 255
209 229 255
210 229 255
210 229 255
210 229 255
210 229 255
210 229 255
210 229 255
210 229 255
210 229 255
210 229 255
210 229 255
210 229 255
210 229 255
210 229 255
210 229 255
210 229 255
210 229 255
210 229 255
210 229 255
210 229 255
210 229 255
210 229 255
210 229 255
210 229 255
210 229 255
210 229 255
210 229 255
210 229 255
210 229 255
210 229 255
210 229 255
210 229 255
210 229 255
210 229 255
210 229 255
210 229 255
210 229 255
210 229 255
210 229 255
210 229 255
210 229 255
210 229 255
210 229 255
210 229 255
210 229 255
210 229 255
210 229 255
209 229 255
209 229 255
209 229 255
209 229 255
209 229 255
209 229 255
209 229 255
209 229 255
209 229 255
209 229 255
209 229 255
209 229 255
209 229 255
209 229 255
209 229 255
209 228 255
208 228 255
208 228 255
208 228 255
208 228 255
208 228 255
208 228 255
208 228 255
208 228 255
207 228 255
207 228 255
207 228 255
207 228 255
207 228 255
207 227 255
206 227 255
206 227 255
206 227 255
206 227 255
206 227 255
205 227 255
205 227 255
205 227 255
205 226 255
204 226 255
204 226 255
204 226 255
203 226 255
203 225 255
202 225 255
202 225 255
201 225 255
201 224 255
200 224 255
200 224 255
199 223 255
198 223 255
198 223 255
197 222 255
196 221 255
194 221 255
193 220 255
184 211 221
169 193 67
159 183 0
164 187 0
165 189 0
165 189 0
162 185 0
162 186 0
158 181 0
162 185 0
166 189 0
164 186 0
166 189 0
164 186 0
157 180 0
158 181 0
159 182 0
154 177 0
164 187 0
155 178 0
156 178 0
154 176 0
156 178 0
153 175 0
157 179 0
155 179 0
154 177 0
153 175 0
147 169 0
148 170 0
147 169 0
144 165 0
152 174 0
147 169 0
148 168 0
149 169 0
136 156 0
145 166 0
138 159 0
145 165 0
145 164 0
131 151 0
133 153 0
131 151 0
122 142 36
87 109 72
48 77 74
50 80 76
48 77 74
52 83 74
53 85 94
50 80 95
51 81 88
50 80 74
51 81 84
54 86 99
52 83 76
50 79 78
52 83 92
53 85 74
50 80 84
55 87 107
52 83 72
53 84 82
52 83 86
52 83 92
51 81 86
54 85 90
51 81 74
51 81 82
54 85 95
50 80 76
52 81 92
54 86 95
54 85 82
53 84 83
51 82 80
54 85 92
52 82 90
52 82 78
53 83 99
51 81 88
52 83 82
50 79 92
54 85 100
52 82 80
54 85 90
51 81 90
52 83 92
49 78 70
52 82 85
53 83 82
51 82 74
49 76 70
49 77 84
49 79 74
47 75 68
48 76 82
46 72 57
50 79 73
47 73 64
47 73 65
48 75 77
41 65 60
74 93 67
108 125 25
110 124 0
116 131 0
116 134 0
124 140 0
114 129 0
124 140 0
118 131 0
122 137 0
122 137 0
129 145 0
126 143 0
120 133 0
128 141 0
133 148 0
126 142 0
124 137 0
134 148 0
124 139 0
133 147 0
128 142 0
130 141 0
136 150 0
133 148 0
135 147 0
130 143 0
140 153 0
133 143 0
136 149 0
137 151 0
138 152 0
141 153 0
136 151 0
126 136 0
141 153 0
135 145 0
133 145 0
141 151 0
146 158 0
131 139 0
138 149 0
125 132 0
138 146 0
130 136 0
117 117 22
80 75 16
83 77 16
77 71 16
79 76 0
88 83 11
90 84 11
85 80 11
88 82 0
81 76 11
90 86 0
96 90 0
89 86 0
77 74 0
94 88 11
96 92 8
99 94 11
96 92 11
99 95 0
105 101 0
101 97 0
105 98 11
106 101 3
112 107 11
112 106 16
115 109 14
115 112 8
114 109 14
104 99 0
107 103 0
117 111 0
121 116 11
121 115 0
115 109 14
119 114 25
130 124 11
117 113 16
121 117 11
119 115 0
126 120 0
111 105 14
120 115 11
125 119 18
129 124 16
119 113 11
128 122 25
127 120 22
121 118 22
133 127 28
131 124 22
131 125 19
130 124 16
128 125 30
133 127 22
133 129 36
129 122 19
134 128 19
127 121 34
142 136 25
128 123 22
126 119 30
131 125 22
136 130 32
142 135 41
132 125 28
139 134 36
139 134 28
133 129 30
137 130 37
136 131 34
135 130 25
136 131 34
138 132 30
134 126 36
125 120 36
140 135 41
129 123 32
137 129 39
137 131 39
136 130 41
138 131 30
141 135 32
143 136 30
143 136 45
134 127 36
138 133 34
136 130 41
138 133 32
135 128 32
140 134 42
135 128 41
138 132 41
150 144 48
142 136 42
135 129 34
128 124 28
144 139 39
136 127 32
139 132 47
136 130 39
139 133 37
136 130 39
139 132 47
140 134 39
120 115 30
138 131 44
144 138 47
141 134 44
131 125 41
137 132 44
133 127 39
141 135 52
142 136 48
139 132 49
135 130 42
139 133 53
134 128 44
137 130 48
140 134 47
134 130 42
128 123 36
133 126 45
144 136 54
143 136 48
136 130 47
136 130 44
208 228 255
208 228 255
208 228 255
208 228 255
208 228 255
208 228 255
208 228 255
208 228 255
208 228 255
208 228 255
209 228 255
209 228 255
209 229 255
209 229 255
209 229 255
209 229 255
209 229 255
209 229 255
209 229 255
209 229 255
209 229 255
209 229 255
209 229 255
209 229 255
209 229 255
209 229 255
209 229 255
209 229 255
209 229 255
209 229 255
209 229 255
209 229 255
209 229 255
209 229 255
209 229 255
209 229 255
209 229 255
209 229 255
209 229 255
209 229 255
209 229 255
209 229 255
209 229 255
209 229 255
209 229 255
209 229 255
209 229 255
209 229 255
209 229 255
209 229 255
209 229 255
209 229 255
209 229 255
209 229 255
209 229 255
209 229 255
209 229 255
209 229 255
209 229 255
209 229 255
209 229 255
209 229 255
209 229 255
209 229 255
209 229 255
209 229 255
209 229 255
209 229 255
209 229 255
209 229 255
209 229 255
209 229 255
209 229 255
209 229 255
209 229 255
209 229 255
209 228 255
208 228 255
208 228 255
208 228 255
208 228 255
208 228 255
208 228 255
208 228 255
208 228 255
208 228 255
208 228 255
207 228 255
207 228 255
207 228 255
207 228 255
207 228 255
207 228 255
207 227 255
207 227 255
206 227 255
206 227 255
206 227 255
206 227 255
206 227 255
205 227 255
205 227 255
205 226 255
205 226 255
204 226 255
204 226 255
204 226 255
203 226 255
203 225 255
203 225 255
202 225 255
202 225 255
201 225 255
201 224 255
200 224 255
200 224 255
199 223 255
198 223 255
198 223 255
197 222 255
196 222 255
195 221 255
193 220 255
190 218 249
179 205 171
166 189 0
167 191 0
168 192 0
166 190 0
163 187 0
166 191 0
160 183 0
158 181 0
159 182 0
162 185 0
159 182 0
162 185 0
158 180 0
159 182 0
162 185 0
161 184 0
157 180 0
157 180 0
152 174 0
154 176 0
148 170 0
159 181 0
156 178 0
152 174 0
152 174 0
155 178 0
152 174 0
153 176 0
154 175 0
154 176 0
144 165 0
142 163 0
147 169 0
147 169 0
144 165 0
144 165 0
142 164 0
143 162 0
143 164 0
145 164 0
138 159 0
142 161 0
125 145 0
131 151 0
130 150 0
119 138 0
99 119 51
47 76 65
51 81 84
51 81 80
54 86 86
50 80 84
48 77 74
51 81 82
52 82 62
51 81 78
52 83 90
53 84 80
52 82 90
54 86 90
52 82 80
47 75 74
50 80 82
50 80 70
54 85 84
54 85 86
51 80 74
52 82 80
51 81 82
49 78 76
53 84 86
49 78 72
51 81 84
51 81 82
50 79 84
51 81 70
51 80 87
53 84 92
53 85 102
52 82 76
49 79 70
53 84 86
50 79 82
52 82 85
49 78 82
49 78 67
53 83 90
49 78 80
50 80 78
48 75 74
48 76 72
51 80 78
48 76 75
49 78 80
49 78 86
50 79 70
52 82 89
47 76 70
47 73 66
43 68 60
46 73 65
40 63 41
51 75 66
94 107 45
109 122 0
109 125 0
116 129 0
109 122 0
111 125 0
111 123 0
120 135 0
117 131 0
116 131 0
115 129 0
116 130 0
136 152 0
120 132 0
121 136 0
119 132 0
129 143 0
127 141 0
122 137 0
131 145 0
126 141 0
130 141 0
128 140 0
120 133 0
128 142 0
129 144 0
127 139 0
130 142 0
128 140 0
137 151 0
131 142 0
134 146 0
130 143 0
132 142 0
133 141 0
135 147 0
132 142 0
136 147 0
132 143 0
131 141 0
136 146 0
133 141 0
130 137 0
128 137 0
133 141 0
138 148 0
136 141 0
113 118 0
82 77 19
86 79 16
86 82 16
71 67 0
82 75 16
87 79 11
98 92 14
92 86 14
85 79 8
94 87 8
92 84 0
92 88 0
93 88 11
104 98 0
94 88 8
106 102 11
99 96 8
101 98 0
106 101 14
108 103 11
104 98 0
105 99 0
103 97 11
112 108 11
114 109 11
111 105 0
111 107 8
122 117 0
97 95 3
118 114 11
115 109 18
113 108 0
116 111 11
119 113 14
133 125 19
115 110 11
124 117 11
123 119 18
124 117 22
118 112 0
131 124 21
126 120 16
128 123 25
119 114 11
120 115 16
125 118 28
130 124 25
131 126 19
123 119 16
134 127 19
131 125 28
129 125 25
135 129 16
130 124 28
126 119 11
131 125 22
127 123 0
132 126 19
128 122 16
127 122 19
124 119 28
134 127 22
133 127 32
137 130 34
135 130 36
136 131 28
139 132 32
128 123 22
134 128 25
136 131 28
137 130 32
131 126 37
138 131 36
142 136 45
138 132 30
131 125 34
127 121 34
131 126 28
139 134 30
132 127 41
139 132 32
129 123 28
136 130 39
135 128 39
133 127 34
131 125 44
130 124 37
129 124 32
134 129 41
134 129 34
137 131 36
137 131 41
141 134 41
127 121 37
150 142 47
131 125 47
131 125 37
141 133 51
140 133 41
140 133 42
141 135 45
145 139 47
140 132 41
135 128 48
147 138 54
133 127 41
134 128 39
146 139 47
130 125 39
128 121 44
136 130 45
137 131 49
141 135 49
136 130 45
136 130 42
141 134 47
133 127 49
134 128 45
135 128 42
133 127 47
128 122 39
128 123 41
133 127 47
132 127 47
207 228 255
207 228 255
207 228 255
208 228 255
208 228 255
208 228 255
208 228 255
208 228 255
208 228 255
208 228 255
208 228 255
208 228 255
208 228 255
208 228 255
208 228 255
208 228 255
208 228 255
208 228 255
208 228 255
208 228 255
209 228 255
209 228 255
209 228 255
209 229 255
209 229 255
209 229 255
209 229 255
209 229 255
209 229 255
209 229 255
209 229 255
209 229 255
209 229 255
209 229 255
209 229 255
209 229 255
209 229 255
209 229 255
209 229 255
209 229 255
209 229 255
209 229 255
209 229 255
209 229 255
209 229 255
209 229 255
209 229 255
209 229 255
209 229 255
209 229 255
209 229 255
209 229 255
209 229 255
209 229 255
209 229 255
209 229 255
209 229 255
209 229 255
209 229 255
209 229 255
209 229 255
209 229 255
209 229 255
209 229 255
209 229 255
209 228 255
209 228 255
208 228 255
208 228 255
208 228 255
208 228 255
208 228 255
208 228 255
208 228 255
208 228 255
208 228 255
208 228 255
208 228 255
208 228 255
208 228 255
208 228 255
208 228 255
207 228 255
207 228 255
207 228 255
207 228 255
207 228 255
207 228 255
207 227 255
207 227 255
206 227 255
206 227 255
206 227 255
206 227 255
206 227 255
206 227 255
205 227 255
205 227 255
205 227 255
205 226 255
204 226 255
204 226 255
204 226 255
204 226 255
203 226 255
203 226 255
203 225 255
202 225 255
202 225 255
202 225 255
201 224 255
201 224 255
200 224 255
200 224 255
199 223 255
198 223 255
198 223 255
197 222 255
196 222 255
195 221 255
193 220 255
192 220 255
185 213 230
168 194 108
160 184 0
165 189 0
164 188 0
163 188 0
167 191 0
163 186 0
160 183 0
162 186 0
160 183 0
159 182 0
165 188 0
155 179 0
159 182 0
156 180 0
156 179 0
155 178 0
161 184 0
154 177 0
157 180 0
155 178 0
160 183 0
156 178 0
152 174 0
142 165 0
159 181 0
156 178 0
154 176 0
151 173 0
155 177 0
140 162 0
152 173 0
154 176 0
142 163 0
147 168 0
127 148 0
146 166 0
147 168 0
139 160 0
139 159 0
139 159 0
135 155 0
121 142 0
133 153 0
118 136 0
127 146 0
118 137 0
135 154 0
118 137 0
122 141 18
77 99 54
51 81 86
52 83 78
48 77 74
51 81 76
49 78 74
49 79 74
51 82 76
49 79 90
51 81 70
52 83 94
53 84 88
49 79 72
52 82 78
51 81 86
51 81 67
48 77 67
50 80 67
51 81 76
50 79 65
51 81 84
54 85 90
50 80 78
51 81 65
49 78 84
51 82 80
49 78 80
48 78 51
50 79 78
52 82 80
50 79 76
51 81 72
52 82 84
49 79 82
49 78 84
52 82 95
50 80 80
48 76 76
48 77 78
49 78 67
50 79 74
49 77 76
50 79 78
47 75 80
47 76 70
48 76 76
50 79 80
49 77 80
47 75 73
48 75 80
45 72 72
44 70 52
43 69 57
63 83 42
97 111 25
98 111 0
116 129 0
105 117 0
114 127 0
125 141 0
117 132 0
118 131 0
107 118 0
113 126 0
104 118 0
126 141 0
127 143 0
117 130 0
112 125 0
128 140 0
123 139 0
115 129 0
121 137 0
122 135 0
129 143 0
127 140 0
122 135 0
126 139 0
128 141 0
126 139 0
127 139 0
138 152 0
129 141 0
125 138 0
124 136 0
124 136 0
129 140 0
131 141 0
124 135 0
141 152 0
126 136 0
131 143 0
137 148 0
123 131 0
129 140 0
122 131 0
120 128 0
134 145 0
127 133 0
125 134 0
127 134 0
134 141 0
130 139 0
127 129 11
96 94 22
75 69 3
85 79 12
97 89 19
82 75 0
91 85 16
92 87 0
80 75 0
92 86 8
85 81 0
96 89 3
90 86 8
102 96 8
88 83 0
95 89 8
98 95 0
105 100 0
97 94 0
103 98 0
101 95 0
108 102 0
107 101 8
108 101 0
102 96 3
105 101 0
124 119 0
114 107 0
112 107 0
105 102 0
114 109 0
110 103 11
115 109 0
112 107 0
120 115 16
120 114 0
112 108 0
117 112 11
123 118 11
111 105 0
128 122 25
117 113 16
124 117 19
128 121 19
131 126 16
131 126 19
117 110 16
120 117 16
123 117 16
120 115 22
127 121 16
133 127 22
129 122 22
132 127 25
133 127 28
128 122 22
133 128 30
125 120 11
130 124 25
127 121 25
128 122 19
128 121 28
130 124 28
135 128 22
132 126 28
132 126 34
123 117 25
130 124 22
133 127 32
135 130 32
126 121 32
137 131 36
140 134 41
132 128 22
136 131 41
135 129 34
137 131 22
128 122 30
141 135 30
125 118 34
134 129 30
132 127 25
131 125 25
130 123 34
134 128 32
140 133 39
129 122 22
143 137 32
132 127 30
131 125 36
126 120 36
129 124 30
135 129 32
140 133 41
143 137 47
139 132 30
134 127 37
145 138 37
130 125 28
135 128 39
139 133 49
139 131 36
144 137 41
138 132 44
130 123 39
133 127 37
130 125 39
140 133 48
139 133 47
136 130 49
137 131 45
138 131 44
122 117 37
130 124 42
136 128 45
136 129 47
131 126 42
125 120 42
127 121 45
129 123 48
131 125 39
128 121 42
130 124 49
133 128 45
207 228 255
207 228 255
207 228 255
207 228 255
207 228 255
207 228 255
207 228 255
207 228 255
207 228 255
207 228 255
208 228 255
208 228 255
208 228 255
208 228 255
208 228 255
208 228 255
208 228 255
208 228 255
208 228 255
208 228 255
208 228 255
208 228 255
208 228 255
208 228 255
208 228 255
208 228 255
208 228 255
208 228 255
208 228 255
208 228 255
208 228 255
208 228 255
208 228 255
208 228 255
208 228 255
208 228 255
208 228 255
208 228 255
208 228 255
208 228 255
208 228 255
208 228 255
208 228 255
208 228 255
208 228 255
208 228 255
208 228 255
209 228 255
208 228 255
208 228 255
208 228 255
208 228 255
208 228 255
208 228 255
208 228 255
208 228 255
208 228 255
208 228 255
208 228 255
208 228 255
208 228 255
208 228 255
208 228 255
208 228 255
208 228 255
208 228 255
208 228 255
208 228 255
208 228 255
208 228 255
208 228 255
208 228 255
208 228 255
208 228 255
208 228 255
207 228 255
207 228 255
207 228 255
207 228 255
207 228 255
207 228 255
207 228 255
207 228 255
207 227 255
207 227 255
206 227 255
206 227 255
206 227 255
206 227 255
206 227 255
206 227 255
206 227 255
205 227 255
205 227 255
205 227 255
205 226 255
205 226 255
204 226 255
204 226 255
204 226 255
204 226 255
203 226 255
203 225 255
203 225 255
202 225 255
202 225 255
202 225 255
201 225 255
201 224 255
200 224 255
200 224 255
199 223 255
199 223 255
198 223 255
197 222 255
197 222 255
196 222 255
195 221 255
194 220 255
192 220 255
190 219 255
180 207 198
164 189 25
164 189 0
165 190 0
163 188 0
157 181 0
156 180 0
161 185 0
162 186 0
160 184 0
160 184 0
158 181 0
161 185 0
157 180 0
160 184 0
160 184 0
158 181 0
161 184 0
160 183 0
152 175 0
157 180 0
154 176 0
160 182 0
161 183 0
154 176 0
149 170 0
155 178 0
149 172 0
157 178 0
152 173 0
150 171 0
157 179 0
153 175 0
160 180 0
146 166 0
145 166 0
140 160 0
143 163 0
144 165 0
130 150 0
145 166 0
129 150 0
122 142 0
138 158 0
131 150 0
124 142 0
130 149 0
121 139 0
112 131 0
128 147 0
124 142 0
125 143 0
113 131 0
91 110 36
57 81 74
48 77 72
51 82 74
49 78 67
47 76 62
51 82 82
49 79 86
50 79 88
51 81 78
53 84 95
53 84 92
50 80 92
50 79 88
51 82 92
51 81 80
49 79 74
50 80 84
52 82 88
51 81 76
52 82 90
48 76 62
50 79 84
52 82 86
48 78 67
49 78 78
51 80 76
47 75 70
50 79 74
50 79 78
48 77 62
50 79 76
46 74 76
50 79 84
50 80 72
51 80 70
50 79 72
49 78 80
49 77 74
48 77 78
45 71 70
49 77 80
45 73 72
49 77 72
45 72 62
44 71 54
47 74 76
44 70 63
50 77 83
44 70 60
62 81 36
78 92 25
87 100 0
86 99 0
97 109 0
115 132 0
99 112 0
119 133 0
107 119 0
109 122 0
114 129 0
91 106 0
116 129 0
112 124 0
117 130 0
113 126 0
114 128 0
120 134 0
125 139 0
122 136 0
123 137 0
129 144 0
128 140 0
129 143 0
140 155 0
114 126 0
126 138 0
133 145 0
128 142 0
127 141 0
135 147 0
117 130 0
128 140 0
119 129 0
112 126 0
126 137 0
131 144 0
124 133 0
127 136 0
122 131 0
118 127 0
130 138 0
119 126 0
116 125 0
133 140 0
137 143 0
130 139 0
131 136 0
124 130 0
117 124 0
129 137 0
133 139 0
122 125 0
131 134 0
104 104 19
87 80 16
88 81 11
92 86 16
99 91 19
84 78 11
96 92 8
84 79 0
103 97 8
88 81 11
86 82 11
102 95 0
90 85 0
89 84 0
89 85 0
88 84 3
100 95 0
98 93 0
102 96 0
95 89 0
110 105 8
98 95 0
103 96 16
101 94 0
111 106 0
112 105 0
118 113 8
117 110 11
120 116 0
117 112 0
105 100 0
115 110 0
106 100 0
125 120 11
116 109 0
125 119 19
104 98 11
123 117 22
116 110 16
119 114 11
128 125 16
118 113 11
126 120 22
121 115 11
121 116 11
122 116 16
132 128 25
120 115 16
123 118 19
120 116 22
115 110 11
121 116 0
127 121 28
129 123 16
125 120 19
118 113 25
123 118 19
128 122 28
125 119 19
125 118 19
133 125 19
124 119 22
133 126 25
125 121 25
129 123 16
129 124 16
140 133 32
129 123 22
131 125 32
135 130 32
130 123 25
135 130 34
137 130 32
131 125 42
132 127 36
135 130 30
138 132 36
137 130 36
134 129 32
130 126 37
143 136 37
138 132 45
141 134 42
137 130 39
138 131 39
123 118 34
138 132 34
128 122 34
137 131 34
132 125 34
128 122 34
134 128 37
131 126 36
134 129 37
135 129 41
135 129 42
129 124 32
130 124 32
140 134 42
136 130 37
136 131 41
120 116 28
129 123 37
132 126 44
138 131 45
141 133 39
139 132 39
139 132 42
131 126 34
135 129 49
139 134 47
125 120 39
136 129 47
135 129 47
138 133 47
128 122 42
131 125 36
126 120 45
128 123 39
123 118 37
117 112 25
130 124 45
206 227 255
206 227 255
206 227 255
206 227 255
207 227 255
207 227 255
207 227 255
207 228 255
207 228 255
207 228 255
207 228 255
207 228 255
207 228 255
207 228 255
207 228 255
207 228 255
207 228 255
207 228 255
207 228 255
207 228 255
207 228 255
208 228 255
208 228 255
208 228 255
208 228 255
208 228 255
208 228 255
208 228 255
208 228 255
208 228 255
208 228 255
208 228 255
208 228 255
208 228 255
208 228 255
208 228 255
208 228 255
208 228 255
208 228 255
208 228 255
208 228 255
208 228 255
208 228 255
208 228 255
208 228 255
208 228 255
208 228 255
208 228 255
208 228 255
208 228 255
208 228 255
208 228 255
208 228 255
208 228 255
208 228 255
208 228 255
208 228 255
208 228 255
208 228 255
208 228 255
208 228 255
208 228 255
208 228 255
208 228 255
208 228 255
208 228 255
207 228 255
207 228 255
207 228 255
207 228 255
207 228 255
207 228 255
207 228 255
207 228 255
207 228 255
207 228 255
207 228 255
207 227 255
207 227 255
206 227 255
206 227 255
206 227 255
206 227 255
206 227 255
206 227 255
206 227 255
206 227 255
205 227 255
205 227 255
205 227 255
205 227 255
205 226 255
205 226 255
204 226 255
204 226 255
204 226 255
204 226 255
203 226 255
203 226 255
203 225 255
203 225 255
202 225 255
202 225 255
202 225 255
201 225 255
201 224 255
200 224 255
200 224 255
199 224 255
199 223 255
198 223 255
198 223 255
197 222 255
197 222 255
196 222 255
195 221 255
194 220 255
193 220 255
191 219 255
184 213 236
167 193 125
164 189 0
162 187 0
166 190 0
161 186 0
163 188 0
161 186 0
159 183 0
161 186 0
158 182 0
161 185 0
160 183 0
156 180 0
162 185 0
157 180 0
155 179 0
158 182 0
157 180 0
154 177 0
161 183 0
159 180 0
157 180 0
154 177 0
153 175 0
159 181 0
157 179 0
158 180 0
155 177 0
156 178 0
152 174 0
155 177 0
143 164 0
152 173 0
147 168 0
134 155 0
146 168 0
145 166 0
146 167 0
139 159 0
139 159 0
142 162 0
132 152 0
137 156 0
133 152 0
136 155 0
125 143 0
136 154 0
121 139 0
123 141 0
125 143 0
121 139 0
115 133 0
120 138 0
115 132 0
113 131 0
118 134 18
83 101 44
55 78 62
49 78 65
45 73 67
49 78 84
49 79 67
50 79 76
48 77 70
49 79 74
50 79 82
52 83 84
48 78 74
48 77 76
47 76 62
49 78 76
52 82 90
50 79 76
50 80 80
49 79 65
50 80 78
49 78 78
49 78 84
47 75 67
51 80 88
51 81 80
49 78 80
50 80 84
49 78 65
47 74 74
49 77 74
52 83 72
49 77 82
47 76 70
49 78 82
51 81 84
47 75 60
48 77 74
47 75 70
48 76 77
49 78 67
45 72 70
47 74 54
43 68 62
47 74 79
46 73 65
45 70 70
44 67 49
76 93 40
80 92 0
87 99 0
98 111 0
88 100 0
101 113 0
96 110 0
109 120 0
95 108 0
111 123 0
107 121 0
111 122 0
124 137 0
112 125 0
105 118 0
106 117 0
97 110 0
112 124 0
121 132 0
109 122 0
116 131 0
117 131 0
113 123 0
122 136 0
126 139 0
119 133 0
115 128 0
132 144 0
130 143 0
112 123 0
121 133 0
110 122 0
109 121 0
118 129 0
126 138 0
120 132 0
120 127 0
124 133 0
117 125 0
130 140 0
127 137 0
116 124 0
117 126 0
123 130 0
129 137 0
116 122 0
121 126 0
119 125 0
127 134 0
125 132 0
123 128 0
126 133 0
127 133 0
121 128 0
123 129 0
123 128 0
124 129 0
94 92 11
94 86 23
90 83 0
90 84 19
93 87 0
85 79 11
96 89 11
78 70 0
98 90 11
91 83 0
102 93 11
98 90 0
85 79 11
96 90 0
97 93 0
97 91 0
107 101 0
100 95 11
101 97 0
105 101 0
100 92 0
116 109 0
103 96 8
110 105 0
111 106 0
117 111 8
113 106 0
105 100 8
114 108 0
116 110 0
114 107 8
117 110 11
118 113 0
116 110 0
117 112 11
116 111 0
114 109 16
116 110 0
120 114 0
114 109 16
122 117 0
123 117 11
124 119 16
119 114 11
122 116 16
125 121 16
128 122 25
127 120 0
126 119 0
117 112 11
120 115 11
131 125 19
122 116 19
132 125 37
128 122 16
121 115 16
124 118 30
127 120 19
132 125 28
134 127 25
127 122 22
125 119 19
133 127 28
129 123 25
124 119 22
128 122 36
127 120 39
136 129 30
120 115 19
114 110 25
135 128 39
124 119 25
128 123 22
133 127 30
131 126 19
135 129 37
129 124 32
130 123 32
137 130 30
134 127 28
134 128 30
126 119 34
135 128 30
132 124 34
135 129 34
139 133 41
138 132 34
135 130 34
136 129 32
131 126 45
136 131 37
132 126 36
127 122 25
134 128 37
134 127 36
130 125 32
135 128 37
130 124 28
139 132 45
135 130 36
133 126 37
125 119 25
126 119 32
133 126 39
138 132 44
130 126 32
137 131 39
132 126 47
126 122 30
144 136 51
126 119 34
136 129 48
126 119 36
130 123 41
131 123 47
123 118 28
132 126 37
130 125 45
122 114 39
131 125 34
206 227 255
206 227 255
206 227 255
206 227 255
206 227 255
206 227 255
206 227 255
206 227 255
206 227 255
206 227 255
206 227 255
206 227 255
207 227 255
207 227 255
207 227 255
207 227 255
207 227 255
207 228 255
207 228 255
207 228 255
207 228 255
207 228 255
207 228 255
207 228 255
207 228 255
207 228 255
207 228 255
207 228 255
207 228 255
207 228 255
207 228 255
207 228 255
207 228 255
207 228 255
207 228 255
207 228 255
207 228 255
207 228 255
207 228 255
207 228 255
207 228 255
207 228 255
207 228 255
207 228 255
207 228 255
207 228 255
207 228 255
207 228 255
207 228 255
207 228 255
207 228 255
207 228 255
207 228 255
207 228 255
207 228 255
207 228 255
207 228 255
207 228 255
207 228 255
207 228 255
207 228 255
207 228 255
207 228 255
207 228 255
207 228 255
207 228 255
207 228 255
207 228 255
207 227 255
207 227 255
207 227 255
207 227 255
206 227 255
206 227 255
206 227 255
206 227 255
206 227 255
206 227 255
206 227 255
206 227 255
206 227 255
206 227 255
205 227 255
205 227 255
205 227 255
205 227 255
205 226 255
205 226 255
205 226 255
204 226 255
204 226 255
204 226 255
204 226 255
203 226 255
203 226 255
203 226 255
203 225 255
202 225 255
202 225 255
202 225 255
202 225 255
201 225 255
201 224 255
201 224 255
200 224 255
200 224 255
199 223 255
199 223 255
198 223 255
198 223 255
197 222 255
196 222 255
196 221 255
194 221 255
194 220 255
192 220 255
191 219 255
188 217 248
174 201 157
166 192 36
162 187 0
158 183 0
163 187 0
163 187 0
165 190 0
161 185 0
161 186 0
166 191 0
158 182 0
158 183 0
166 189 0
161 185 0
157 181 0
151 175 0
155 178 0
161 185 0
153 176 0
159 182 0
152 173 0
155 178 0
159 181 0
161 184 0
156 178 0
154 176 0
158 180 0
155 177 0
152 174 0
155 177 0
149 170 0
152 173 0
153 175 0
153 174 0
142 164 0
147 169 0
152 173 0
142 162 0
133 155 0
150 171 0
135 156 0
129 149 0
131 151 0
142 162 0
130 151 0
139 159 0
133 153 0
130 149 0
129 148 0
114 134 0
116 135 0
120 138 0
117 136 0
114 133 0
122 139 0
112 129 0
97 114 0
94 111 0
106 122 0
87 103 0
92 111 54
46 70 60
44 71 60
47 76 62
46 73 57
51 80 76
50 79 90
48 77 78
47 76 78
49 78 76
51 81 82
50 79 80
49 79 78
49 78 67
48 77 70
48 76 74
47 75 72
50 80 82
49 79 62
47 76 62
50 79 80
48 76 74
51 80 82
49 78 72
50 78 82
49 77 80
50 79 74
48 77 70
47 74 74
49 79 74
49 78 62
48 76 67
51 81 78
47 75 65
45 72 65
45 72 70
44 70 72
46 73 62
45 72 70
44 69 67
43 68 57
43 68 60
60 79 44
76 90 31
70 82 0
77 90 0
89 100 0
85 97 0
93 103 0
92 103 0
100 114 0
113 125 0
99 111 0
107 120 0
88 102 0
114 129 0
96 107 0
105 115 0
99 110 0
115 130 0
105 118 0
100 112 0
117 131 0
105 117 0
130 144 0
115 129 0
118 132 0
110 122 0
117 128 0
125 139 0
119 131 0
102 112 0
105 114 0
128 142 0
114 126 0
129 140 0
110 121 0
124 135 0
129 141 0
122 131 0
114 124 0
123 135 0
123 132 0
125 133 0
126 137 0
130 139 0
123 131 0
123 132 0
113 122 0
124 131 0
122 131 0
126 134 0
127 133 0
127 135 0
114 119 0
124 130 0
122 126 0
123 126 0
119 124 0
125 131 0
110 115 0
120 121 0
128 129 0
99 96 0
76 69 18
86 77 11
88 83 19
89 82 3
86 81 0
76 72 0
90 85 11
94 86 0
92 87 0
103 97 0
94 87 8
99 92 0
95 90 0
81 77 0
101 94 0
106 100 0
111 102 0
98 90 0
108 99 0
102 96 0
97 91 0
103 96 0
105 98 0
110 105 0
108 99 0
106 99 0
118 111 0
109 104 0
115 107 0
111 105 0
115 109 0
119 112 11
114 108 11
113 109 0
111 107 11
118 111 0
120 113 11
126 120 16
129 121 0
122 115 11
119 115 11
125 119 11
120 114 0
124 118 22
116 108 16
123 116 19
117 112 25
129 121 16
123 117 0
128 121 16
122 118 19
133 126 22
122 117 16
125 120 19
135 131 25
130 124 25
131 123 19
134 128 16
133 128 32
127 121 22
121 117 19
134 129 25
135 127 36
122 117 22
129 123 19
131 127 22
123 119 22
137 132 30
136 130 34
120 115 22
129 122 36
132 126 22
135 129 28
135 130 30
130 123 25
131 125 32
145 139 36
129 123 34
134 128 30
131 125 32
131 125 36
137 130 39
131 126 34
133 127 37
133 125 41
125 119 32
123 118 25
126 120 32
134 128 32
134 127 37
134 128 37
124 118 30
136 130 37
137 131 34
124 119 30
135 130 41
130 124 36
125 120 25
137 128 45
133 127 44
137 130 44
136 130 42
135 128 49
139 131 42
136 129 44
135 127 41
124 119 39
126 121 37
131 125 39
136 130 39
132 126 41
134 126 53
128 122 45
137 129 36
131 124 36
139 133 52
123 118 37
129 123 37
205 226 255
205 227 255
205 227 255
205 227 255
205 227 255
205 227 255
205 227 255
206 227 255
206 227 255
206 227 255
206 227 255
206 227 255
206 227 255
206 227 255
206 227 255
206 227 255
206 227 255
206 227 255
206 227 255
206 227 255
206 227 255
206 227 255
206 227 255
206 227 255
207 227 255
207 227 255
207 227 255
207 227 255
207 227 255
207 227 255
207 227 255
207 228 255
207 227 255
207 228 255
207 228 255
207 228 255
207 228 255
207 228 255
207 228 255
207 228 255
207 228 255
207 228 255
207 228 255
207 228 255
207 228 255
207 228 255
207 228 255
207 228 255
207 228 255
207 228 255
207 228 255
207 228 255
207 228 255
207 228 255
207 228 255
207 227 255
207 227 255
207 227 255
207 227 255
207 227 255
207 227 255
206 227 255
206 227 255
206 227 255
206 227 255
206 227 255
206 227 255
206 227 255
206 227 255
206 227 255
206 227 255
206 227 255
206 227 255
206 227 255
206 227 255
206 227 255
205 227 255
205 227 255
205 227 255
205 227 255
205 227 255
205 226 255
205 226 255
204 226 255
204 226 255
204 226 255
204 226 255
204 226 255
204 226 255
203 226 255
203 226 255
203 226 255
203 225 255
203 225 255
202 225 255
202 225 255
202 225 255
202 225 255
201 224 255
201 224 255
201 224 255
200 224 255
200 224 255
199 223 255
199 223 255
198 223 255
198 223 255
197 222 255
197 222 255
196 222 255
195 221 255
194 221 255
193 220 255
192 220 255
191 219 255
190 218 255
183 212 218
163 189 80
162 187 0
158 183 0
156 182 0
160 185 0
162 187 0
162 187 0
157 182 0
163 188 0
159 183 0
165 189 0
165 189 0
158 182 0
160 184 0
161 185 0
158 181 0
149 172 0
157 179 0
152 175 0
162 186 0
156 179 0
153 176 0
148 170 0
158 181 0
147 169 0
153 176 0
154 177 0
146 168 0
156 178 0
152 174 0
149 170 0
150 172 0
149 170 0
144 165 0
154 176 0
152 174 0
149 170 0
145 166 0
143 165 0
145 167 0
151 171 0
140 161 0
135 155 0
139 159 0
126 147 0
129 149 0
129 150 0
134 153 0
132 151 0
130 148 0
116 135 0
115 134 0
115 133 0
102 119 0
116 134 0
120 137 0
111 128 0
111 128 0
107 123 0
106 122 0
95 111 0
93 108 0
72 87 0
69 86 18
61 81 40
49 72 47
47 76 62
47 76 74
46 73 51
50 80 74
47 76 62
46 73 60
49 78 72
47 76 57
45 73 60
49 78 80
48 77 76
47 76 70
47 74 76
48 77 74
48 77 76
44 71 65
51 81 88
48 76 62
47 76 70
48 76 65
46 74 62
48 77 94
47 75 78
46 74 65
48 77 70
45 72 57
45 72 67
47 74 72
47 74 57
46 73 70
43 69 57
46 73 63
44 69 66
43 68 54
44 67 54
60 73 40
77 89 25
79 90 0
93 102 0
75 87 0
84 95 0
97 107 0
92 104 0
106 120 0
92 102 0
87 98 0
99 111 0
92 105 0
93 103 0
94 107 0
108 121 0
102 115 0
99 109 0
107 118 0
110 123 0
101 116 0
115 127 0
110 123 0
110 122 0
126 139 0
124 136 0
119 131 0
121 133 0
116 129 0
123 134 0
110 125 0
117 129 0
119 129 0
121 133 0
112 122 0
119 130 0
122 133 0
115 125 0
113 123 0
113 125 0
129 141 0
103 113 0
118 129 0
121 129 0
120 130 0
117 125 0
122 131 0
117 124 0
113 119 0
118 126 0
126 136 0
127 135 0
103 107 0
111 117 0
113 119 0
111 114 0
106 108 0
113 116 0
111 112 0
132 137 0
119 124 0
115 119 0
126 129 0
105 101 0
124 125 0
90 87 26
90 83 11
81 74 0
82 76 0
79 72 0
93 85 0
94 87 0
94 90 0
90 87 11
83 77 0
88 80 11
93 87 0
101 94 11
104 98 0
88 83 0
104 98 0
97 91 11
103 97 8
103 96 0
114 108 0
107 101 0
100 93 0
103 98 0
113 106 0
103 97 0
115 109 0
110 105 0
103 95 0
113 108 0
108 104 0
113 107 0
122 116 0
116 109 0
116 111 0
113 106 0
122 115 0
124 115 11
113 107 0
130 122 0
117 112 11
123 116 11
122 114 19
122 115 11
118 113 16
122 115 25
124 117 11
129 123 16
116 110 19
122 114 16
129 123 25
130 124 16
120 114 0
124 119 25
125 119 22
124 117 11
132 129 25
124 119 22
126 119 16
123 116 19
123 117 16
126 122 22
126 119 22
124 117 25
127 121 25
130 123 32
124 119 19
128 122 30
125 119 22
126 120 22
123 116 25
128 123 28
131 125 30
129 120 25
129 122 19
136 129 30
129 122 25
133 127 25
130 122 30
135 128 37
127 120 41
120 115 25
137 130 36
133 128 36
133 126 28
133 125 36
133 126 32
132 126 41
130 123 32
136 130 36
129 124 32
126 120 34
122 118 32
131 123 34
129 122 32
132 126 42
131 125 34
129 124 34
132 123 44
134 125 42
127 119 39
134 128 39
135 129 39
137 130 48
138 132 48
133 127 42
128 123 36
124 119 34
128 122 34
137 129 42
134 129 37
126 122 42
128 123 42
130 122 54
137 130 44
140 133 56
138 131 51
119 114 37
204 226 255
204 226 255
204 226 255
205 226 255
205 226 255
205 226 255
205 226 255
205 226 255
205 227 255
205 227 255
205 227 255
205 227 255
205 227 255
205 227 255
205 227 255
205 227 255
206 227 255
206 227 255
206 227 255
206 227 255
206 227 255
206 227 255
206 227 255
206 227 255
206 227 255
206 227 255
206 227 255
206 227 255
206 227 255
206 227 255
206 227 255
206 227 255
206 227 255
206 227 255
206 227 255
206 227 255
206 227 255
206 227 255
206 227 255
206 227 255
206 227 255
206 227 255
206 227 255
206 227 255
206 227 255
206 227 255
206 227 255
206 227 255
206 227 255
206 227 255
206 227 255
206 227 255
206 227 255
206 227 255
206 227 255
206 227 255
206 227 255
206 227 255
206 227 255
206 227 255
206 227 255
206 227 255
206 227 255
206 227 255
206 227 255
206 227 255
206 227 255
205 227 255
205 227 255
205 227 255
205 227 255
205 227 255
205 227 255
205 227 255
205 227 255
205 226 255
205 226 255
205 226 255
204 226 255
204 226 255
204 226 255
204 226 255
204 226 255
204 226 255
204 226 255
203 226 255
203 226 255
203 225 255
203 225 255
203 225 255
202 225 255
202 225 255
202 225 255
202 225 255
201 225 255
201 224 255
201 224 255
200 224 255
200 224 255
200 224 255
199 223 255
199 223 255
198 223 255
198 223 255
198 223 255
197 222 255
196 222 255
196 222 255
195 221 255
194 221 255
193 220 255
192 220 255
191 219 255
190 218 255
182 211 226
167 194 135
159 186 0
160 186 0
161 187 0
161 186 0
165 190 0
166 191 0
165 190 0
159 184 0
156 180 0
163 188 0
161 186 0
156 181 0
161 185 0
153 176 0
155 179 0
163 187 0
160 184 0
154 178 0
157 180 0
148 171 0
159 182 0
152 175 0
157 180 0
156 179 0
153 175 0
147 168 0
158 180 0
153 175 0
151 173 0
152 174 0
139 160 0
149 171 0
138 159 0
155 177 0
144 164 0
146 167 0
137 158 0
148 169 0
144 165 0
142 163 0
148 169 0
145 165 0
141 161 0
139 160 0
132 151 0
128 148 0
123 143 0
131 150 0
127 146 0
130 149 0
131 150 0
125 142 0
126 143 0
128 146 0
117 135 0
113 130 0
118 135 0
104 120 0
101 116 0
102 117 0
110 126 0
96 111 0
97 112 0
86 100 0
94 109 0
84 97 0
75 88 18
65 80 36
52 73 36
42 65 47
47 75 76
44 71 65
44 71 60
47 75 72
43 69 62
45 71 70
48 77 72
47 75 74
47 74 70
44 71 67
42 68 40
49 77 70
50 78 84
45 71 67
46 74 60
50 80 78
43 69 67
46 73 62
44 71 57
44 71 65
44 71 57
46 73 60
45 72 65
45 71 72
39 63 36
44 69 67
47 75 65
41 65 57
44 67 60
42 62 37
66 79 41
68 78 18
71 79 0
70 81 0
68 77 0
64 73 0
82 92 0
88 98 0
94 104 0
88 100 0
97 110 0
83 95 0
90 102 0
89 99 0
101 113 0
90 102 0
95 106 0
93 106 0
96 110 0
96 106 0
99 113 0
99 111 0
111 124 0
104 117 0
112 125 0
115 130 0
112 125 0
114 126 0
114 127 0
119 132 0
109 122 0
114 126 0
124 137 0
113 125 0
117 130 0
116 127 0
114 126 0
109 123 0
120 131 0
120 131 0
118 129 0
125 136 0
120 131 0
114 123 0
100 110 0
119 127 0
105 114 0
116 122 0
113 120 0
116 127 0
113 122 0
110 119 0
121 127 0
116 122 0
108 113 0
122 126 0
121 129 0
114 118 0
108 110 0
107 110 0
108 111 0
118 119 0
107 112 0
111 113 0
112 114 0
111 114 0
104 105 0
110 111 0
107 108 0
90 83 16
62 55 11
90 80 16
88 79 0
89 81 11
85 79 0
99 92 0
88 82 0
92 86 8
85 80 11
102 95 8
97 91 0
101 94 0
94 86 0
101 93 0
101 95 0
102 97 0
104 96 0
114 107 0
108 100 0
106 97 8
105 100 0
103 98 0
114 106 0
103 96 0
112 107 0
107 100 0
111 103 0
114 106 0
111 105 0
120 111 0
117 111 0
106 99 0
111 105 0
110 103 11
124 118 0
108 103 11
124 117 0
124 116 16
118 112 0
129 123 11
126 118 11
124 115 0
122 114 16
120 115 11
123 117 0
122 116 16
118 111 16
110 105 11
119 111 11
126 117 22
122 116 19
125 120 0
117 112 16
123 116 28
128 122 25
123 117 16
124 118 30
127 121 25
122 115 25
128 122 22
115 109 22
138 130 37
120 115 19
136 130 30
116 112 16
123 118 28
134 128 30
130 124 25
133 127 32
129 122 22
126 121 30
124 117 22
121 115 30
128 122 25
123 118 19
138 131 34
125 120 25
130 125 32
131 125 34
130 124 34
129 122 32
127 119 42
125 120 22
135 127 39
138 132 36
134 127 36
126 119 28
127 121 19
134 126 37
134 129 30
137 130 34
131 125 41
131 125 41
127 122 36
133 127 37
129 122 30
128 121 36
128 121 30
125 120 34
128 122 45
130 123 32
128 123 42
123 118 36
133 126 39
125 119 37
134 128 39
132 125 53
121 113 42
127 121 39
129 123 45
125 119 39
124 118 45
111 106 32
127 121 30
203 226 255
204 226 255
204 226 255
204 226 255
204 226 255
204 226 255
204 226 255
204 226 255
204 226 255
204 226 255
204 226 255
205 226 255
205 226 255
205 226 255
205 226 255
205 226 255
205 227 255
205 227 255
205 227 255
205 227 255
205 227 255
205 227 255
205 227 255
205 227 255
205 227 255
205 227 255
205 227 255
205 227 255
205 227 255
205 227 255
206 227 255
206 227 255
206 227 255
206 227 255
206 227 255
206 227 255
206 227 255
206 227 255
206 227 255
206 227 255
206 227 255
206 227 255
206 227 255
206 227 255
206 227 255
206 227 255
206 227 255
206 227 255
206 227 255
206 227 255
206 227 255
206 227 255
206 227 255
205 227 255
205 227 255
205 227 255
205 227 255
205 227 255
205 227 255
205 227 255
205 227 255
205 227 255
205 227 255
205 227 255
205 227 255
205 227 255
205 226 255
205 226 255
205 226 255
205 226 255
205 226 255
204 226 255
204 226 255
204 226 255
204 226 255
204 226 255
204 226 255
204 226 255
204 226 255
203 226 255
203 226 255
203 226 255
203 225 255
203 225 255
203 225 255
202 225 255
202 225 255
202 225 255
202 225 255
202 225 255
201 225 255
201 224 255
201 224 255
201 224 255
200 224 255
200 224 255
200 224 255
199 223 255
199 223 255
198 223 255
198 223 255
197 222 255
197 222 255
196 222 255
196 222 255
195 221 255
195 221 255
194 220 255
193 220 255
192 220 255
191 219 255
189 218 255
186 215 241
172 201 161
164 190 25
158 185 0
158 184 0
163 188 0
163 190 0
161 186 0
162 188 0
157 183 0
162 187 0
159 184 0
154 178 0
160 185 0
162 187 0
159 184 0
153 177 0
161 185 0
157 181 0
156 180 0
161 184 0
154 178 0
156 180 0
155 178 0
155 177 0
156 179 0
150 172 0
151 173 0
152 175 0
152 174 0
150 173 0
148 170 0
161 183 0
148 170 0
153 175 0
140 162 0
143 165 0
140 161 0
141 162 0
149 170 0
144 165 0
144 166 0
139 159 0
144 165 0
143 163 0
140 161 0
137 157 0
137 157 0
132 152 0
137 156 0
132 152 0
126 145 0
131 150 0
120 139 0
128 147 0
116 134 0
121 139 0
128 147 0
116 136 0
108 125 0
111 129 0
109 126 0
114 132 0
99 115 0
101 116 0
98 112 0
98 113 0
91 107 0
85 98 0
90 104 0
88 104 0
86 99 0
81 93 0
55 68 0
59 73 25
54 73 44
46 67 47
45 72 65
44 71 57
43 69 65
44 70 57
45 71 72
39 63 57
48 75 72
43 70 65
45 73 60
46 73 70
47 74 76
48 76 72
41 67 51
44 70 70
43 69 62
44 70 72
40 64 51
45 71 65
39 63 57
44 70 65
43 69 67
41 65 51
45 67 54
47 60 18
54 64 25
67 76 0
63 72 0
70 80 0
76 86 0
54 65 0
77 84 0
66 74 0
94 102 0
93 103 0
82 93 0
89 98 0
80 91 0
89 100 0
88 99 0
96 108 0
87 97 0
82 93 0
99 112 0
107 120 0
95 107 0
105 116 0
110 122 0
112 124 0
111 123 0
106 119 0
116 128 0
114 127 0
114 126 0
123 135 0
107 120 0
115 129 0
114 128 0
115 125 0
105 118 0
111 123 0
120 133 0
121 135 0
113 127 0
124 136 0
117 127 0
118 132 0
123 135 0
116 126 0
118 129 0
122 133 0
105 110 0
118 129 0
115 125 0
118 127 0
125 135 0
108 117 0
111 121 0
97 102 0
120 128 0
100 107 0
114 119 0
109 114 0
120 127 0
123 127 0
110 113 0
126 131 0
113 117 0
123 128 0
114 119 0
109 114 0
104 106 0
109 107 0
107 110 0
112 112 0
106 109 0
106 103 0
102 102 0
90 85 0
74 67 0
86 77 11
81 73 11
67 61 0
85 77 0
104 96 16
90 84 11
90 84 0
94 85 11
90 84 0
89 83 0
89 83 0
94 87 0
93 87 0
101 93 0
106 98 0
99 92 0
100 94 0
103 98 0
99 94 0
106 100 0
104 98 0
108 101 0
117 110 0
107 99 0
113 104 0
109 103 0
113 108 0
114 106 0
116 110 11
118 113 0
110 103 0
120 113 0
103 95 0
111 105 16
124 116 16
121 116 0
120 114 11
119 114 16
113 105 11
119 111 11
119 111 0
116 110 11
123 115 11
124 116 16
125 118 19
122 117 19
124 120 19
123 116 11
125 119 11
123 117 16
129 123 25
126 120 11
119 113 16
118 111 19
125 118 22
119 112 16
127 121 19
134 126 30
123 117 28
126 121 28
129 120 28
127 121 22
127 119 25
129 122 30
123 117 19
130 124 28
137 132 22
131 124 32
130 124 16
129 121 36
133 126 30
131 124 34
132 126 25
128 121 28
132 127 30
113 107 25
127 121 28
133 127 25
129 121 36
130 122 34
132 127 25
124 117 30
131 125 39
135 127 30
118 113 30
132 125 36
124 117 32
130 123 34
131 123 36
125 117 36
131 125 39
117 113 25
131 125 36
132 126 39
129 123 34
127 121 36
128 119 41
127 121 32
131 124 44
136 129 41
121 116 34
127 122 37
129 123 44
123 117 41
135 128 45
133 127 44
136 130 41
122 116 30
127 121 36
132 126 42
126 118 36
130 124 42
203 225 255
203 225 255
203 225 255
203 225 255
203 226 255
203 226 255
203 226 255
203 226 255
204 226 255
204 226 255
204 226 255
204 226 255
204 226 255
204 226 255
204 226 255
204 226 255
204 226 255
204 226 255
204 226 255
204 226 255
204 226 255
204 226 255
205 226 255
205 226 255
205 226 255
205 226 255
205 226 255
205 226 255
205 226 255
205 226 255
205 226 255
205 227 255
205 227 255
205 227 255
205 227 255
205 227 255
205 227 255
205 227 255
205 227 255
205 227 255
205 227 255
205 227 255
205 227 255
205 227 255
205 227 255
205 227 255
205 227 255
205 227 255
205 227 255
205 227 255
205 226 255
205 226 255
205 226 255
205 226 255
205 226 255
205 226 255
205 226 255
205 226 255
205 226 255
205 226 255
205 226 255
204 226 255
204 226 255
204 226 255
204 226 255
204 226 255
204 226 255
204 226 255
204 226 255
204 226 255
204 226 255
204 226 255
204 226 255
203 226 255
203 226 255
203 226 255
203 226 255
203 225 255
203 225 255
203 225 255
202 225 255
202 225 255
202 225 255
202 225 255
202 225 255
202 225 255
201 225 255
201 224 255
201 224 255
201 224 255
200 224 255
200 224 255
200 224 255
199 224 255
199 223 255
199 223 255
198 223 255
198 223 255
197 223 255
197 222 255
196 222 255
196 222 255
195 221 255
195 221 255
194 221 255
193 220 255
192 220 255
191 219 255
190 219 255
189 218 255
185 214 240
173 201 169
165 192 62
161 188 0
163 189 0
162 189 0
162 189 0
164 190 0
165 191 0
161 187 0
163 189 0
159 184 0
163 188 0
156 180 0
156 181 0
158 183 0
157 181 0
166 190 0
156 179 0
155 178 0
155 178 0
160 184 0
162 187 0
155 178 0
152 175 0
159 182 0
156 178 0
157 179 0
150 173 0
148 170 0
148 170 0
152 175 0
151 173 0
149 170 0
153 175 0
147 168 0
153 174 0
146 167 0
147 168 0
147 168 0
143 164 0
147 167 0
149 170 0
143 163 0
138 158 0
139 160 0
129 150 0
142 162 0
129 149 0
126 145 0
133 153 0
126 146 0
136 156 0
130 149 0
124 143 0
124 142 0
125 144 0
120 139 0
130 150 0
113 131 0
102 119 0
109 126 0
124 142 0
100 118 0
104 121 0
105 123 0
86 102 0
103 119 0
96 111 0
90 105 0
92 107 0
89 103 0
85 99 0
88 103 0
85 99 0
60 72 0
77 91 0
81 93 0
69 80 0
72 83 0
54 68 18
53 67 36
50 64 31
45 62 40
37 59 36
42 64 44
39 62 62
37 59 36
38 61 36
38 62 54
41 65 60
41 66 47
40 65 60
46 68 60
44 63 25
29 47 36
48 65 40
50 66 36
44 60 40
54 65 18
60 68 0
36 43 0
74 83 0
74 83 0
79 88 0
59 67 0
76 86 0
56 65 0
76 85 0
70 78 0
81 94 0
74 83 0
76 89 0
96 107 0
98 112 0
98 110 0
100 110 0
104 115 0
89 98 0
95 105 0
101 112 0
96 107 0
95 109 0
96 110 0
97 110 0
102 115 0
102 116 0
98 109 0
104 118 0
101 115 0
110 121 0
101 114 0
114 128 0
108 118 0
116 127 0
114 126 0
123 136 0
116 127 0
114 126 0
124 136 0
118 131 0
118 127 0
113 123 0
119 131 0
117 129 0
110 122 0
124 134 0
117 130 0
117 129 0
122 132 0
125 136 0
119 128 0
117 125 0
121 132 0
120 128 0
117 127 0
117 123 0
107 112 0
125 134 0
125 134 0
113 118 0
110 116 0
122 129 0
105 109 0
105 109 0
114 119 0
110 116 0
115 119 0
120 126 0
104 107 0
95 98 0
108 109 0
93 93 0
102 102 0
112 111 0
113 112 0
111 112 0
95 94 0
84 84 0
86 81 0
81 73 0
81 72 16
89 81 11
80 72 0
86 79 0
91 82 0
90 82 0
110 101 0
100 93 0
103 93 0
93 85 0
99 91 0
95 87 0
106 97 0
105 97 0
99 93 0
100 93 0
108 103 0
106 97 0
98 90 0
107 101 0
109 105 0
109 101 0
110 101 0
110 105 0
122 113 0
103 97 0
113 106 0
116 108 11
102 95 0
106 100 0
119 111 0
116 108 0
110 104 0
114 105 16
110 103 0
111 105 0
110 104 16
121 114 11
117 111 11
114 107 16
131 124 11
121 116 0
114 107 0
118 111 16
117 111 16
119 112 19
117 109 0
124 119 16
119 112 0
131 124 19
125 117 19
127 120 16
121 115 22
127 120 11
125 119 19
125 119 30
120 113 25
118 112 16
123 116 25
126 120 11
125 118 19
117 111 28
123 117 11
121 113 19
128 122 19
132 125 32
130 123 30
127 120 22
122 116 19
125 118 25
127 120 34
129 122 19
121 115 0
128 122 30
128 121 28
127 120 30
132 125 34
128 120 32
115 109 22
123 118 30
132 126 36
126 120 30
137 130 30
129 122 37
136 130 41
128 122 32
132 126 30
132 125 34
119 114 25
134 128 34
115 108 25
128 121 39
129 122 42
124 118 30
129 123 39
127 121 44
120 113 36
134 128 34
131 125 36
123 118 37
120 114 32
128 121 36
133 127 39
119 113 39
129 123 37
127 120 37
121 115 34
120 113 37
133 127 42
202 225 255
202 225 255
202 225 255
202 225 255
202 225 255
202 225 255
203 225 255
203 225 255
203 225 255
203 225 255
203 225 255
203 226 255
203 226 255
203 226 255
203 226 255
203 226 255
204 226 255
204 226 255
204 226 255
204 226 255
204 226 255
204 226 255
204 226 255
204 226 255
204 226 255
204 226 255
204 226 255
204 226 255
204 226 255
204 226 255
204 226 255
204 226 255
204 226 255
204 226 255
204 226 255
204 226 255
204 226 255
204 226 255
204 226 255
204 226 255
204 226 255
204 226 255
204 226 255
204 226 255
204 226 255
204 226 255
204 226 255
204 226 255
204 226 255
204 226 255
204 226 255
204 226 255
204 226 255
204 226 255
204 226 255
204 226 255
204 226 255
204 226 255
204 226 255
204 226 255
204 226 255
204 226 255
204 226 255
204 226 255
204 226 255
203 226 255
203 226 255
203 226 255
203 226 255
203 225 255
203 225 255
203 225 255
203 225 255
203 225 255
202 225 255
202 225 255
202 225 255
202 225 255
202 225 255
202 225 255
201 225 255
201 225 255
201 224 255
201 224 255
201 224 255
200 224 255
200 224 255
200 224 255
200 224 255
199 224 255
199 223 255
199 223 255
198 223 255
198 223 255
198 223 255
197 222 255
197 222 255
196 222 255
196 222 255
195 221 255
195 221 255
194 221 255
193 220 255
193 220 255
192 219 255
191 219 255
190 218 255
189 218 255
184 214 248
172 200 171
160 187 67
163 190 0
163 190 0
162 188 0
162 188 0
157 183 0
163 189 0
159 184 0
160 186 0
157 183 0
156 181 0
162 187 0
163 188 0
158 182 0
158 182 0
157 182 0
160 184 0
157 181 0
160 183 0
158 182 0
163 186 0
149 172 0
150 174 0
154 176 0
153 176 0
155 178 0
152 175 0
150 173 0
154 177 0
149 171 0
153 176 0
151 174 0
156 179 0
153 175 0
157 178 0
152 174 0
141 162 0
147 168 0
147 170 0
142 163 0
147 167 0
141 161 0
146 167 0
143 164 0
139 159 0
138 158 0
137 157 0
143 163 0
132 153 0
134 154 0
136 154 0
118 138 0
135 155 0
133 152 0
143 162 0
119 137 0
118 136 0
136 155 0
117 135 0
129 146 0
109 127 0
107 125 0
120 137 0
120 137 0
105 123 0
96 114 0
113 129 0
108 125 0
93 108 0
101 118 0
99 116 0
99 115 0
81 95 0
88 101 0
83 97 0
95 107 0
86 100 0
80 93 0
59 73 0
60 73 0
65 77 0
74 84 0
63 73 0
57 68 0
57 66 0
60 70 0
61 70 0
67 74 0
70 80 0
49 58 18
59 68 0
48 56 0
58 68 0
60 67 0
49 61 0
63 73 0
56 64 0
48 56 0
49 59 0
69 79 0
65 76 0
58 67 0
59 68 0
55 66 0
65 75 0
72 83 0
79 89 0
83 93 0
87 98 0
83 92 0
90 101 0
72 84 0
87 101 0
101 112 0
77 91 0
86 98 0
91 103 0
82 94 0
96 106 0
98 112 0
91 105 0
98 109 0
106 118 0
93 106 0
112 126 0
105 118 0
115 129 0
110 122 0
107 118 0
108 119 0
113 127 0
116 128 0
114 127 0
107 121 0
108 119 0
115 129 0
114 127 0
116 129 0
112 122 0
119 132 0
133 145 0
109 120 0
125 138 0
122 133 0
111 122 0
130 142 0
131 145 0
114 122 0
115 126 0
122 129 0
124 134 0
124 132 0
109 118 0
117 123 0
112 120 0
113 121 0
113 120 0
103 111 0
120 129 0
110 116 0
115 123 0
122 127 0
110 115 0
111 116 0
115 121 0
113 117 0
121 124 0
111 114 0
116 117 0
110 114 0
92 90 0
115 117 0
96 99 0
103 104 0
94 95 0
98 96 0
100 99 0
98 98 0
99 97 0
97 98 0
74 68 0
84 73 19
90 78 11
75 67 11
81 75 0
77 69 11
90 80 11
86 75 0
92 82 0
83 75 0
91 82 0
100 92 0
101 92 0
92 85 0
95 86 0
97 88 0
96 89 0
110 102 0
103 95 0
97 91 0
110 102 0
109 101 0
102 93 0
108 100 0
106 97 0
110 103 0
104 96 0
113 105 0
115 107 0
103 97 0
110 103 0
111 103 0
111 103 0
109 103 0
114 107 0
108 101 0
113 105 11
114 107 11
107 101 0
117 109 0
115 110 11
114 106 11
110 103 0
120 114 22
115 110 11
117 110 0
120 113 0
121 115 11
122 116 11
126 118 19
123 117 19
125 117 19
123 116 25
125 119 19
127 121 0
124 117 22
125 118 22
134 127 19
118 110 22
131 124 30
126 120 19
113 106 0
122 115 22
129 120 22
125 118 28
134 127 32
127 121 25
121 115 19
121 115 25
125 118 25
127 120 28
128 122 32
125 118 22
130 122 32
127 121 28
122 116 25
112 106 25
135 129 34
122 116 22
128 123 25
132 123 41
126 120 30
127 120 34
115 109 22
124 118 25
121 114 28
131 124 39
126 119 39
126 120 32
119 114 28
123 117 39
129 122 37
132 124 41
124 118 42
135 128 44
124 119 34
132 124 44
130 124 44
132 125 39
125 120 39
117 113 34
116 111 36
127 121 41
125 118 44
132 125 42
119 113 39
121 115 44
121 114 42
116 109 36
118 113 32
201 224 255
201 224 255
201 224 255
201 225 255
201 225 255
202 225 255
202 225 255
202 225 255
202 225 255
202 225 255
202 225 255
202 225 255
202 225 255
202 225 255
203 225 255
203 225 255
203 225 255
203 225 255
203 225 255
203 225 255
203 226 255
203 226 255
203 226 255
203 226 255
203 226 255
203 226 255
203 226 255
203 226 255
203 226 255
203 226 255
203 226 255
204 226 255
203 226 255
204 226 255
204 226 255
204 226 255
204 226 255
204 226 255
204 226 255
204 226 255
204 226 255
204 226 255
204 226 255
204 226 255
204 226 255
204 226 255
204 226 255
204 226 255
203 226 255
203 226 255
203 226 255
203 226 255
203 226 255
203 226 255
203 226 255
203 226 255
203 226 255
203 226 255
203 226 255
203 226 255
203 225 255
203 225 255
203 225 255
203 225 255
203 225 255
203 225 255
202 225 255
202 225 255
202 225 255
202 225 255
202 225 255
202 225 255
202 225 255
202 225 255
202 225 255
201 225 255
201 225 255
201 224 255
201 224 255
201 224 255
201 224 255
200 224 255
200 224 255
200 224 255
200 224 255
199 223 255
199 223 255
199 223 255
199 223 255
198 223 255
198 223 255
197 222 255
197 222 255
197 222 255
196 222 255
196 222 255
195 221 255
195 221 255
194 221 255
194 220 255
193 220 255
192 220 255
191 219 255
190 219 255
189 218 255
188 217 255
184 214 240
169 198 159
162 190 57
159 186 0
164 191 0
162 188 0
162 188 0
162 189 0
157 183 0
161 187 0
163 189 0
162 188 0
156 182 0
157 183 0
159 184 0
157 182 0
161 186 0
152 176 0
159 184 0
159 183 0
153 177 0
162 187 0
152 176 0
157 180 0
158 182 0
157 180 0
155 178 0
153 176 0
159 182 0
154 177 0
151 173 0
156 178 0
151 174 0
146 169 0
150 172 0
154 176 0
138 160 0
137 160 0
146 167 0
142 164 0
136 158 0
148 169 0
149 171 0
137 159 0
148 169 0
137 158 0
137 158 0
142 163 0
137 158 0
139 160 0
126 146 0
139 159 0
134 153 0
130 149 0
130 151 0
131 149 0
119 139 0
129 149 0
129 148 0
117 135 0
125 143 0
128 146 0
124 141 0
118 137 0
120 136 0
108 125 0
114 131 0
108 126 0
100 117 0
109 125 0
109 126 0
104 121 0
98 115 0
96 111 0
100 114 0
94 108 0
92 106 0
90 104 0
78 93 0
72 86 0
82 96 0
72 84 0
64 77 0
69 83 0
71 82 0
78 90 0
80 92 0
64 77 0
78 89 0
63 74 0
83 94 0
65 75 0
57 67 0
67 78 0
69 80 0
75 85 0
52 63 0
60 70 0
54 64 0
71 80 0
63 73 0
68 80 0
56 63 0
63 73 0
63 72 0
61 71 0
84 97 0
63 73 0
63 74 0
73 81 0
75 85 0
85 97 0
88 101 0
71 84 0
83 96 0
81 91 0
88 97 0
88 100 0
99 112 0
82 91 0
110 121 0
105 117 0
99 111 0
94 105 0
117 129 0
105 118 0
111 123 0
100 113 0
99 112 0
111 124 0
117 131 0
110 122 0
113 124 0
110 121 0
96 107 0
118 131 0
119 132 0
111 122 0
118 133 0
116 128 0
111 123 0
105 118 0
115 126 0
111 121 0
108 120 0
109 122 0
127 138 0
108 119 0
105 116 0
120 133 0
121 131 0
120 133 0
116 126 0
121 133 0
112 121 0
117 128 0
121 131 0
121 132 0
115 124 0
112 121 0
125 136 0
116 124 0
127 134 0
110 117 0
108 113 0
106 113 0
120 129 0
112 118 0
119 127 0
98 102 0
113 120 0
108 111 0
102 106 0
106 110 0
105 105 0
100 99 0
96 96 0
105 103 0
97 96 0
108 109 0
110 107 0
91 88 0
97 94 0
86 80 0
94 93 0
88 86 0
83 78 0
83 74 0
72 64 0
74 65 0
85 75 0
80 71 0
88 82 16
98 90 0
87 80 0
94 85 0
89 83 0
95 88 0
93 86 0
97 88 0
97 89 0
93 84 0
104 96 0
113 105 0
105 95 0
96 91 0
91 85 0
104 97 0
101 94 0
102 95 0
103 96 11
104 97 0
110 103 0
111 104 0
110 103 0
118 110 0
119 110 0
117 108 0
114 107 0
113 107 11
115 107 11
108 100 0
116 108 11
114 109 11
115 109 0
112 106 0
119 113 11
116 110 0
112 106 0
119 114 11
116 111 11
111 102 0
122 114 11
121 115 16
124 118 28
114 107 11
115 110 16
128 121 22
127 118 19
130 123 0
128 121 22
127 119 25
121 114 22
115 108 16
130 122 30
120 114 22
125 118 28
123 117 22
123 116 28
127 121 28
117 111 28
122 117 22
120 115 16
123 116 25
118 112 19
127 120 28
120 113 25
127 122 30
126 119 28
121 114 22
121 113 30
126 120 22
136 130 42
121 117 30
129 120 32
123 116 36
133 126 30
120 115 34
109 103 22
131 123 30
123 118 36
119 112 34
126 119 34
130 122 28
134 127 37
124 117 34
127 121 34
129 122 34
123 116 41
115 108 30
124 118 30
124 119 39
120 115 30
131 123 42
130 124 37
129 123 42
125 118 36
124 117 30
118 113 32
126 120 42
123 118 41
128 121 45
119 113 36
129 123 47
200 224 255
200 224 255
200 224 255
200 224 255
200 224 255
201 224 255
201 224 255
201 224 255
201 224 255
201 225 255
201 225 255
201 225 255
201 225 255
202 225 255
202 225 255
202 225 255
202 225 255
202 225 255
202 225 255
202 225 255
202 225 255
202 225 255
202 225 255
202 225 255
202 225 255
202 225 255
203 225 255
203 225 255
203 225 255
203 225 255
203 225 255
203 225 255
203 225 255
203 225 255
203 225 255
203 225 255
203 225 255
203 225 255
203 225 255
203 225 255
203 225 255
203 225 255
203 225 255
203 225 255
203 225 255
203 225 255
203 225 255
203 225 255
203 225 255
203 225 255
203 225 255
203 225 255
203 225 255
203 225 255
203 225 255
202 225 255
202 225 255
202 225 255
202 225 255
202 225 255
202 225 255
202 225 255
202 225 255
202 225 255
202 225 255
202 225 255
202 225 255
201 225 255
201 225 255
201 225 255
201 224 255
201 224 255
201 224 255
201 224 255
201 224 255
200 224 255
200 224 255
200 224 255
200 224 255
200 224 255
199 223 255
199 223 255
199 223 255
199 223 255
198 223 255
198 223 255
198 223 255
198 223 255
197 222 255
197 222 255
196 222 255
196 222 255
196 221 255
195 221 255
194 221 255
194 221 255
194 220 255
193 220 255
192 220 255
191 219 255
191 219 255
190 218 255
188 218 255
187 217 255
179 209 228
170 199 147
160 188 25
162 190 0
161 188 0
162 189 0
160 187 0
158 185 0
160 186 0
159 185 0
159 186 0
159 185 0
158 184 0
156 182 0
160 185 0
164 189 0
160 185 0
156 182 0
159 184 0
157 182 0
157 181 0
157 181 0
160 184 0
157 180 0
148 171 0
155 178 0
158 181 0
155 178 0
153 176 0
159 183 0
146 169 0
147 171 0
153 177 0
150 173 0
157 180 0
148 171 0
155 176 0
157 179 0
150 172 0
145 167 0
151 173 0
146 168 0
147 169 0
141 162 0
145 166 0
144 166 0
150 171 0
136 157 0
137 157 0
144 164 0
139 159 0
139 160 0
129 150 0
139 159 0
133 154 0
132 151 0
140 159 0
127 147 0
137 156 0
120 140 0
126 145 0
127 146 0
134 153 0
111 130 0
114 131 0
120 138 0
113 130 0
123 142 0
113 130 0
110 128 0
115 132 0
117 134 0
102 119 0
101 116 0
78 95 0
96 112 0
98 114 0
91 105 0
99 115 0
73 87 0
92 108 0
78 94 0
75 90 0
85 98 0
81 95 0
84 98 0
77 89 0
74 87 0
74 86 0
82 93 0
80 91 0
69 80 0
68 81 0
65 76 0
72 82 0
70 81 0
74 84 0
67 76 0
59 70 0
73 84 0
55 68 0
59 70 0
74 86 0
78 87 0
68 82 0
85 97 0
69 82 0
74 86 0
74 84 0
85 97 0
80 92 0
93 106 0
90 101 0
88 99 0
94 105 0
82 93 0
81 93 0
77 89 0
91 103 0
92 105 0
99 113 0
98 108 0
95 107 0
96 109 0
88 100 0
92 105 0
95 108 0
104 117 0
96 108 0
108 121 0
107 119 0
112 124 0
109 123 0
110 123 0
119 133 0
107 121 0
112 124 0
113 126 0
115 126 0
126 138 0
114 127 0
107 121 0
118 130 0
114 124 0
112 124 0
126 139 0
120 133 0
101 112 0
112 123 0
128 142 0
117 127 0
121 131 0
114 123 0
116 125 0
121 132 0
120 131 0
116 127 0
115 123 0
111 122 0
121 131 0
123 132 0
111 120 0
124 134 0
124 135 0
122 134 0
123 132 0
109 114 0
113 120 0
115 120 0
111 118 0
119 124 0
110 118 0
114 121 0
115 121 0
113 118 0
115 118 0
100 100 0
113 116 0
110 113 0
107 112 0
109 107 0
104 103 0
113 115 0
99 99 0
97 92 0
88 86 0
99 96 0
94 92 0
94 91 0
86 84 0
71 65 0
84 78 16
74 66 0
72 63 0
89 80 11
83 77 0
87 79 0
89 78 0
91 83 0
97 87 0
89 80 0
99 91 0
97 89 0
86 80 0
98 89 0
93 87 0
108 99 0
96 87 0
102 93 0
99 93 0
107 98 0
102 94 0
103 95 0
113 105 0
105 96 0
97 91 0
95 88 0
110 101 0
109 100 0
107 100 0
116 108 0
113 105 0
119 110 11
106 100 0
106 99 19
115 106 11
107 99 19
114 108 0
114 107 16
118 112 0
107 100 11
117 112 0
122 115 0
114 107 16
114 109 11
102 97 11
121 113 11
123 117 16
117 109 16
119 112 19
120 113 11
129 122 11
118 111 19
119 114 11
118 111 22
128 122 11
117 109 0
128 120 22
116 109 25
116 110 19
116 108 22
126 119 22
119 111 22
127 118 22
125 119 32
117 113 22
125 120 32
123 117 34
125 118 25
131 125 32
126 118 30
131 124 34
114 107 25
125 118 32
127 120 30
116 110 16
124 118 34
131 123 36
119 110 34
132 123 30
122 116 16
127 119 32
125 119 22
132 126 37
118 112 28
129 122 34
121 113 19
125 118 28
131 123 41
121 115 22
126 120 36
126 121 36
120 114 30
126 119 34
117 110 37
126 120 34
117 111 25
121 113 34
125 118 37
123 116 37
116 111 25
115 108 34
112 105 30
116 110 37
108 102 34
115 109 32
198 223 255
199 223 255
199 223 255
199 223 255
199 224 255
200 224 255
200 224 255
200 224 255
200 224 255
200 224 255
200 224 255
200 224 255
201 224 255
201 224 255
201 224 255
201 224 255
201 224 255
201 224 255
201 224 255
201 225 255
201 225 255
201 225 255
201 225 255
202 225 255
202 225 255
202 225 255
202 225 255
202 225 255
202 225 255
202 225 255
202 225 255
202 225 255
202 225 255
202 225 255
202 225 255
202 225 255
202 225 255
202 225 255
202 225 255
202 225 255
202 225 255
202 225 255
202 225 255
202 225 255
202 225 255
202 225 255
202 225 255
202 225 255
202 225 255
202 225 255
202 225 255
202 225 255
202 225 255
202 225 255
202 225 255
202 225 255
201 225 255
201 225 255
201 225 255
201 225 255
201 224 255
201 224 255
201 224 255
201 224 255
201 224 255
201 224 255
201 224 255
200 224 255
200 224 255
200 224 255
200 224 255
200 224 255
200 224 255
200 224 255
199 224 255
199 223 255
199 223 255
199 223 255
199 223 255
198 223 255
198 223 255
198 223 255
198 223 255
197 222 255
197 222 255
197 222 255
196 222 255
196 222 255
196 222 255
195 221 255
195 221 255
194 221 255
194 221 255
193 220 255
193 220 255
192 220 255
191 219 255
191 219 255
190 218 255
189 218 255
187 217 255
185 215 248
179 209 212
167 196 102
161 190 0
164 191 0
160 188 0
160 187 0
163 190 0
162 189 0
163 189 0
158 184 0
160 186 0
163 189 0
159 185 0
161 187 0
156 182 0
158 183 0
159 183 0
159 185 0
159 184 0
160 185 0
156 180 0
159 183 0
158 183 0
156 180 0
156 180 0
153 177 0
159 183 0
157 180 0
149 173 0
157 180 0
152 176 0
153 176 0
154 177 0
148 171 0
151 174 0
149 172 0
160 183 0
148 171 0
151 174 0
155 178 0
154 177 0
144 165 0
147 169 0
138 159 0
145 167 0
133 155 0
144 165 0
145 166 0
149 170 0
147 167 0
144 164 0
139 160 0
141 162 0
134 155 0
145 165 0
133 152 0
133 153 0
138 158 0
136 156 0
135 155 0
131 150 0
133 152 0
131 151 0
117 136 0
120 138 0
121 140 0
121 140 0
119 137 0
114 134 0
114 132 0
104 122 0
115 132 0
120 137 0
118 136 0
113 129 0
104 122 0
107 123 0
111 127 0
108 123 0
96 112 0
103 119 0
106 122 0
84 100 0
88 104 0
85 99 0
84 100 0
93 108 0
94 107 0
81 95 0
88 102 0
79 94 0
67 80 0
65 76 0
77 91 0
79 92 0
76 89 0
71 83 0
72 82 0
68 80 0
57 69 0
72 86 0
70 80 0
64 76 0
81 91 0
85 98 0
77 90 0
75 88 0
83 93 0
71 83 0
89 101 0
75 89 0
84 98 0
87 98 0
73 84 0
87 99 0
93 105 0
79 92 0
84 96 0
84 99 0
92 106 0
96 109 0
89 102 0
85 99 0
94 107 0
95 106 0
93 105 0
92 105 0
97 111 0
107 120 0
109 123 0
98 112 0
111 124 0
111 123 0
111 124 0
120 134 0
115 128 0
110 123 0
102 115 0
115 127 0
106 119 0
119 129 0
120 134 0
96 107 0
116 129 0
111 124 0
123 136 0
114 126 0
116 128 0
112 124 0
116 126 0
116 129 0
121 135 0
124 136 0
114 126 0
115 124 0
120 132 0
114 126 0
131 145 0
118 128 0
114 124 0
101 111 0
117 125 0
117 123 0
109 116 0
114 122 0
123 133 0
107 115 0
123 130 0
110 114 0
123 132 0
119 125 0
104 108 0
115 122 0
116 122 0
100 104 0
112 116 0
117 124 0
120 125 0
105 109 0
105 106 0
110 110 0
106 108 0
105 105 0
106 106 0
102 104 0
86 83 0
92 92 0
98 99 0
101 99 0
106 107 0
98 95 0
90 86 0
75 73 0
84 78 0
81 77 0
65 57 0
82 71 11
73 64 0
76 67 0
82 73 0
73 63 0
84 73 0
84 74 0
98 87 0
100 92 0
109 100 0
92 83 0
94 87 0
91 83 0
97 90 0
102 95 0
105 95 0
93 85 0
108 100 0
108 101 0
101 91 0
110 99 11
103 94 0
112 103 0
104 96 0
107 100 0
107 99 0
107 98 0
108 100 11
101 95 0
109 101 0
106 97 0
108 98 11
117 111 11
122 113 0
113 105 16
119 112 11
117 110 11
111 104 16
116 109 11
118 111 0
118 110 16
120 113 22
119 111 19
129 122 22
124 116 19
115 109 19
115 105 19
122 113 22
122 113 11
113 107 19
113 106 22
122 114 16
127 120 19
128 120 25
122 116 19
123 117 22
124 115 19
122 115 25
114 105 25
127 120 28
119 113 22
120 113 28
122 116 19
130 122 22
124 118 32
120 113 22
115 108 25
122 116 25
129 123 30
123 118 28
126 119 22
118 112 28
132 124 34
127 121 25
121 115 25
125 118 30
124 115 30
125 119 32
113 107 34
121 114 36
122 116 25
127 120 37
117 112 32
120 115 28
118 111 28
125 118 34
125 117 39
119 113 22
128 121 42
118 112 30
130 123 45
115 109 25
127 119 44
128 120 41
125 117 41
121 113 36
123 118 37
130 123 41
118 113 32
115 109 34
111 104 28
119 112 39
192 216 223
197 222 254
198 223 255
198 223 255
198 223 255
198 223 255
199 223 255
199 223 255
199 223 255
199 223 255
199 223 255
199 224 255
200 224 255
200 224 255
200 224 255
200 224 255
200 224 255
200 224 255
200 224 255
200 224 255
200 224 255
200 224 255
201 224 255
201 224 255
201 224 255
201 224 255
201 224 255
201 224 255
201 224 255
201 224 255
201 224 255
201 224 255
201 224 255
201 224 255
201 224 255
201 224 255
201 224 255
201 224 255
201 224 255
201 224 255
201 224 255
201 224 255
201 224 255
201 224 255
201 224 255
201 224 255
201 224 255
201 224 255
201 224 255
201 224 255
201 224 255
201 224 255
201 224 255
201 224 255
201 224 255
201 224 255
201 224 255
201 224 255
200 224 255
200 224 255
200 224 255
200 224 255
200 224 255
200 224 255
200 224 255
200 224 255
200 224 255
199 224 255
199 223 255
199 223 255
199 223 255
199 223 255
199 223 255
198 223 255
198 223 255
198 223 255
198 223 255
198 223 255
197 222 255
197 222 255
197 222 255
197 222 255
196 222 255
196 222 255
196 222 255
195 221 255
195 221 255
194 221 255
194 221 255
194 220 255
193 220 255
192 220 255
192 220 255
191 219 255
190 219 255
190 218 255
189 218 255
188 217 255
186 217 255
181 211 223
173 202 169
164 193 57
164 192 0
161 188 0
164 192 0
163 191 0
160 187 0
162 190 0
161 188 0
164 190 0
157 183 0
158 184 0
165 191 0
158 184 0
163 189 0
160 186 0
156 181 0
163 188 0
163 188 0
158 182 0
156 180 0
158 181 0
157 181 0
155 179 0
157 181 0
151 175 0
152 176 0
154 178 0
157 180 0
160 184 0
155 178 0
157 181 0
153 177 0
154 177 0
154 177 0
150 172 0
148 171 0
157 179 0
149 171 0
155 178 0
151 173 0
148 170 0
141 163 0
150 171 0
155 177 0
141 162 0
152 173 0
150 172 0
144 164 0
141 162 0
142 163 0
143 163 0
138 159 0
146 167 0
137 157 0
137 157 0
135 155 0
140 160 0
137 157 0
140 160 0
133 153 0
133 152 0
132 151 0
126 146 0
142 163 0
132 151 0
116 136 0
124 143 0
118 137 0
113 132 0
120 138 0
129 148 0
120 136 0
128 146 0
102 119 0
113 130 0
111 128 0
111 128 0
102 119 0
87 104 0
95 110 0
103 119 0
103 119 0
108 125 0
96 113 0
106 121 0
81 96 0
88 104 0
88 103 0
93 109 0
88 103 0
102 117 0
78 92 0
90 105 0
86 101 0
87 101 0
80 93 0
86 102 0
80 94 0
68 81 0
83 96 0
87 99 0
88 101 0
88 103 0
85 99 0
79 92 0
86 100 0
101 114 0
75 87 0
73 83 0
78 90 0
90 103 0
82 94 0
80 93 0
95 108 0
94 108 0
94 108 0
88 102 0
107 121 0
102 114 0
89 101 0
90 104 0
98 109 0
94 106 0
94 108 0
97 111 0
99 110 0
110 121 0
100 114 0
109 123 0
108 122 0
106 118 0
86 98 0
97 109 0
112 126 0
111 124 0
112 124 0
106 118 0
122 136 0
107 120 0
109 122 0
109 123 0
120 134 0
114 128 0
117 129 0
111 124 0
117 130 0
119 133 0
120 132 0
125 137 0
107 119 0
118 131 0
118 131 0
110 123 0
116 129 0
122 133 0
120 135 0
121 134 0
121 134 0
121 132 0
114 126 0
119 130 0
123 136 0
113 122 0
125 136 0
110 121 0
120 128 0
127 134 0
113 122 0
116 124 0
114 123 0
120 129 0
118 127 0
121 128 0
114 120 0
119 126 0
117 124 0
114 123 0
115 121 0
107 111 0
111 115 0
99 100 0
117 124 0
112 113 0
105 109 0
98 98 0
109 111 0
91 90 0
104 105 0
97 96 0
92 90 0
88 87 0
99 98 0
89 86 0
89 87 0
98 96 0
81 75 0
86 78 0
84 78 0
68 61 0
81 73 0
88 78 0
84 74 0
84 74 0
84 75 0
88 80 0
77 69 0
93 84 0
83 77 0
86 76 0
99 89 0
100 91 0
90 83 0
91 81 0
94 85 0
101 94 0
100 92 0
102 94 0
99 90 0
111 102 11
99 91 0
116 107 11
108 101 11
102 92 0
98 92 0
97 90 0
112 106 11
112 106 16
114 107 11
109 100 16
106 101 11
120 109 0
112 104 0
112 105 11
107 99 11
112 106 11
113 106 0
115 107 16
110 102 16
118 110 19
117 110 0
121 113 19
124 115 19
118 108 11
124 117 16
118 112 0
103 95 16
119 113 22
121 115 11
112 104 19
115 109 16
114 107 19
120 113 32
121 114 22
125 117 28
117 109 22
128 121 28
113 105 25
118 111 19
113 105 22
116 111 16
118 112 30
121 113 32
127 120 19
114 107 30
109 103 16
120 112 25
123 114 28
118 111 22
112 106 22
118 110 25
116 109 28
126 120 30
114 108 16
119 111 28
121 113 28
119 110 28
131 124 36
120 112 28
118 111 30
119 111 34
128 119 42
111 105 16
116 111 30
123 117 36
119 114 28
118 112 30
117 111 41
124 118 36
121 114 37
117 111 32
115 110 36
124 118 44
115 109 37
125 117 36
127 121 42
122 115 41
107 103 19
121 114 39
134 137 32
175 197 0
174 198 92
183 207 159
194 219 241
197 222 255
197 222 255
197 222 255
197 222 255
198 223 255
198 223 255
198 223 255
198 223 255
199 223 255
199 223 255
199 223 255
199 223 255
199 223 255
199 223 255
199 223 255
199 223 255
199 224 255
199 224 255
200 224 255
200 224 255
200 224 255
200 224 255
200 224 255
200 224 255
200 224 255
200 224 255
200 224 255
200 224 255
200 224 255
200 224 255
200 224 255
200 224 255
200 224 255
200 224 255
200 224 255
200 224 255
200 224 255
200 224 255
200 224 255
200 224 255
200 224 255
200 224 255
200 224 255
200 224 255
200 224 255
200 224 255
200 224 255
200 224 255
200 224 255
200 224 255
200 224 255
200 224 255
200 224 255
199 224 255
199 224 255
199 224 255
199 223 255
199 223 255
199 223 255
199 223 255
199 223 255
199 223 255
199 223 255
198 223 255
198 223 255
198 223 255
198 223 255
198 223 255
197 222 255
197 222 255
197 222 255
197 222 255
197 222 255
196 222 255
196 222 255
196 222 255
195 221 255
195 221 255
195 221 255
194 221 255
194 221 255
194 220 255
193 220 255
193 220 255
192 220 255
192 219 255
191 219 255
190 219 255
189 218 255
188 218 255
188 217 255
187 217 255
181 211 234
175 204 182
166 195 95
163 192 0
160 188 0
163 190 0
163 190 0
164 191 0
161 189 0
160 187 0
160 188 0
161 188 0
158 185 0
159 186 0
161 187 0
159 186 0
153 178 0
159 185 0
161 186 0
160 185 0
156 182 0
159 184 0
163 187 0
156 180 0
153 178 0
162 186 0
161 184 0
159 183 0
160 185 0
162 186 0
153 176 0
158 181 0
157 181 0
151 175 0
154 177 0
150 173 0
153 176 0
162 186 0
158 181 0
148 171 0
151 173 0
147 170 0
150 173 0
153 175 0
146 168 0
152 174 0
157 179 0
140 162 0
149 170 0
154 175 0
147 169 0
142 163 0
143 163 0
139 161 0
146 166 0
139 159 0
135 156 0
148 169 0
142 163 0
127 148 0
145 165 0
131 151 0
125 145 0
139 160 0
138 157 0
131 151 0
122 141 0
125 143 0
132 151 0
125 145 0
122 141 0
126 144 0
135 155 0
119 138 0
123 142 0
112 131 0
115 134 0
114 132 0
109 127 0
115 133 0
92 108 0
111 128 0
118 136 0
111 129 0
117 134 0
96 114 0
113 129 0
101 118 0
108 124 0
98 114 0
110 125 0
92 106 0
89 105 0
105 121 0
89 103 0
93 109 0
88 103 0
88 103 0
85 99 0
81 96 0
96 112 0
85 99 0
89 104 0
80 94 0
96 110 0
86 98 0
86 100 0
86 99 0
84 96 0
84 98 0
94 105 0
101 114 0
84 98 0
84 95 0
97 109 0
90 103 0
94 108 0
94 107 0
98 113 0
90 103 0
91 105 0
102 116 0
96 109 0
85 98 0
104 118 0
101 114 0
94 105 0
103 115 0
96 109 0
117 132 0
112 125 0
104 118 0
102 115 0
106 120 0
107 121 0
105 118 0
106 120 0
101 117 0
116 130 0
88 101 0
120 134 0
109 124 0
110 124 0
115 129 0
115 127 0
94 105 0
111 121 0
110 121 0
111 122 0
107 119 0
107 119 0
114 127 0
109 122 0
120 132 0
120 134 0
121 135 0
116 128 0
128 143 0
126 138 0
114 128 0
108 120 0
111 122 0
127 141 0
120 129 0
114 127 0
117 128 0
122 134 0
130 139 0
114 123 0
124 135 0
123 135 0
118 129 0
127 136 0
117 126 0
121 129 0
120 129 0
109 117 0
114 121 0
120 124 0
133 142 0
119 126 0
108 111 0
116 123 0
118 125 0
103 108 0
116 120 0
123 128 0
107 108 0
107 114 0
105 109 0
101 102 0
107 111 0
104 102 0
102 100 0
110 107 0
100 99 0
100 98 0
101 103 0
97 100 0
101 99 0
99 93 0
93 87 0
88 85 0
88 84 0
85 81 0
77 71 0
59 51 0
75 65 0
71 62 0
75 65 0
76 68 0
76 67 0
79 71 0
89 78 0
91 81 0
89 82 0
91 82 0
83 77 0
94 84 0
96 85 0
96 86 0
96 88 0
110 102 0
102 95 0
107 98 0
95 87 0
105 96 0
120 111 11
102 94 0
102 94 11
102 94 0
111 105 11
105 98 11
111 103 11
106 99 0
103 95 0
113 106 0
116 108 11
108 101 0
105 98 11
95 90 0
122 111 11
118 110 16
120 113 11
105 96 0
109 101 0
114 107 19
112 103 11
113 106 19
116 108 19
118 111 22
119 112 19
116 108 16
120 113 25
109 102 16
113 106 11
116 110 11
108 102 11
114 107 11
112 105 25
111 104 16
113 106 16
110 105 11
116 107 28
115 110 19
111 106 16
116 109 25
119 112 16
116 110 25
113 106 25
113 106 28
117 111 19
121 116 22
128 121 19
116 109 25
112 105 19
116 112 28
124 118 36
127 118 32
119 112 30
121 116 30
119 112 25
120 114 37
107 100 32
116 109 34
116 108 32
108 101 25
112 105 22
117 110 32
122 115 37
120 113 36
104 98 32
111 103 25
115 107 28
117 109 32
116 109 34
124 117 37
123 117 37
115 108 32
106 99 30
129 125 41
143 157 0
160 176 22
170 190 0
171 195 0
172 196 0
171 195 0
174 197 0
179 203 117
183 208 169
192 217 233
196 222 255
196 222 255
197 222 255
197 222 255
197 222 255
197 222 255
197 222 255
197 222 255
198 223 255
198 223 255
198 223 255
198 223 255
198 223 255
198 223 255
198 223 255
198 223 255
199 223 255
199 223 255
199 223 255
199 223 255
199 223 255
199 223 255
199 223 255
199 223 255
199 223 255
199 223 255
199 223 255
199 223 255
199 223 255
199 223 255
199 223 255
199 223 255
199 223 255
199 223 255
199 223 255
199 223 255
199 223 255
199 223 255
199 223 255
199 223 255
199 223 255
199 223 255
199 223 255
199 223 255
199 223 255
199 223 255
199 223 255
199 223 255
199 223 255
198 223 255
198 223 255
198 223 255
198 223 255
198 223 255
198 223 255
198 223 255
198 223 255
198 223 255
197 222 255
197 222 255
197 222 255
197 222 255
197 222 255
197 222 255
196 222 255
196 222 255
196 222 255
196 221 255
195 221 255
195 221 255
195 221 255
194 221 255
194 221 255
194 221 255
193 220 255
193 220 255
193 220 255
192 220 255
192 219 255
191 219 255
190 219 255
190 218 255
189 218 255
188 218 255
187 217 255
186 217 255
182 213 237
177 207 199
166 196 125
163 191 0
161 189 0
160 188 0
163 190 0
161 189 0
160 188 0
159 187 0
160 187 0
161 188 0
156 183 0
163 189 0
162 187 0
162 188 0
159 186 0
157 182 0
157 184 0
158 184 0
162 188 0
162 187 0
160 185 0
162 187 0
159 183 0
160 184 0
158 182 0
159 183 0
161 186 0
159 183 0
153 176 0
153 177 0
154 178 0
150 173 0
158 180 0
152 174 0
153 176 0
149 173 0
160 183 0
161 184 0
152 173 0
154 177 0
150 172 0
155 177 0
147 169 0
157 179 0
156 179 0
144 166 0
146 168 0
152 174 0
145 167 0
152 174 0
152 174 0
152 174 0
149 170 0
146 167 0
137 158 0
142 163 0
141 161 0
141 161 0
148 169 0
135 155 0
145 166 0
130 151 0
147 167 0
131 151 0
143 163 0
132 152 0
130 150 0
132 152 0
130 150 0
132 152 0
136 156 0
124 144 0
121 139 0
127 146 0
124 142 0
121 141 0
117 135 0
117 135 0
115 133 0
107 125 0
122 140 0
112 130 0
114 132 0
104 122 0
112 129 0
106 123 0
112 131 0
116 134 0
108 125 0
91 108 0
107 123 0
106 122 0
95 112 0
95 111 0
88 104 0
92 109 0
98 114 0
102 116 0
102 118 0
87 103 0
99 115 0
96 110 0
99 114 0
89 102 0
87 101 0
85 101 0
106 122 0
82 97 0
106 121 0
95 110 0
84 98 0
87 100 0
90 103 0
94 107 0
101 114 0
81 96 0
99 113 0
98 112 0
98 111 0
86 101 0
95 108 0
98 113 0
105 121 0
93 106 0
100 115 0
100 114 0
99 112 0
96 111 0
95 109 0
107 121 0
100 114 0
107 121 0
99 113 0
104 120 0
110 126 0
97 112 0
93 108 0
102 117 0
113 126 0
110 124 0
113 128 0
119 132 0
109 123 0
116 132 0
112 125 0
111 125 0
104 120 0
119 134 0
113 129 0
113 128 0
118 133 0
120 133 0
114 127 0
109 122 0
127 141 0
122 133 0
114 127 0
122 136 0
118 133 0
121 134 0
113 124 0
124 136 0
129 141 0
114 126 0
118 130 0
112 122 0
123 135 0
112 121 0
121 132 0
125 134 0
117 128 0
127 135 0
121 131 0
109 119 0
121 127 0
128 138 0
115 124 0
119 127 0
118 124 0
124 133 0
114 124 0
111 117 0
116 122 0
111 118 0
123 128 0
118 126 0
106 112 0
113 120 0
115 120 0
109 114 0
120 125 0
118 119 0
113 115 0
109 108 0
104 102 0
101 101 0
104 105 0
103 101 0
99 96 0
97 98 0
86 82 0
94 90 0
94 94 0
97 98 0
87 83 0
96 92 0
84 80 0
77 71 0
83 78 0
83 78 0
63 57 0
84 75 0
79 69 0
78 69 0
72 62 0
90 80 0
85 75 0
79 72 0
85 76 0
93 81 0
89 80 0
89 78 0
96 85 0
98 90 11
104 94 11
104 95 0
109 97 0
101 93 0
102 93 0
111 102 0
95 85 0
102 93 0
96 90 0
110 101 11
105 96 0
104 94 11
106 98 0
96 88 0
102 95 11
109 100 0
106 98 0
103 93 0
115 106 0
114 107 16
104 98 16
107 97 16
106 97 0
112 106 11
121 112 19
116 108 16
114 106 16
113 105 16
115 105 0
110 104 19
126 117 22
118 109 22
120 113 19
113 105 16
116 109 22
116 110 16
119 111 19
113 106 16
119 112 16
115 108 19
115 107 25
108 102 25
114 107 19
121 114 25
118 110 19
128 121 25
119 111 22
120 115 22
122 114 19
117 110 22
117 110 30
119 113 30
115 109 25
124 116 28
110 102 28
124 117 19
122 116 34
113 106 28
122 115 25
112 105 28
115 109 25
125 119 36
107 102 25
118 109 34
122 115 28
116 111 19
115 108 34
123 117 44
108 102 30
119 113 30
103 96 28
115 107 25
123 116 37
118 111 36
128 129 25
135 142 19
155 171 16
170 188 0
165 185 0
169 188 0
165 185 0
175 198 0
174 197 0
176 198 0
174 196 0
173 197 0
175 197 0
176 198 0
179 203 122
185 209 175
190 215 218
194 221 253
195 221 255
196 222 255
196 222 255
196 222 255
196 222 255
196 222 255
197 222 255
197 222 255
197 222 255
197 222 255
197 222 255
197 222 255
197 222 255
197 223 255
198 223 255
198 223 255
198 223 255
198 223 255
198 223 255
198 223 255
198 223 255
198 223 255
198 223 255
198 223 255
198 223 255
198 223 255
198 223 255
198 223 255
198 223 255
198 223 255
198 223 255
198 223 255
198 223 255
198 223 255
198 223 255
198 223 255
198 223 255
198 223 255
198 223 255
198 223 255
198 223 255
198 223 255
198 223 255
197 222 255
197 222 255
197 222 255
197 222 255
197 222 255
197 222 255
197 222 255
197 222 255
197 222 255
196 222 255
196 222 255
196 222 255
196 222 255
196 222 255
195 221 255
195 221 255
195 221 255
195 221 255
194 221 255
194 221 255
194 221 255
194 220 255
193 220 255
193 220 255
193 220 255
192 220 255
192 220 255
191 219 255
191 219 255
190 219 255
190 218 255
189 218 255
188 218 255
188 217 255
187 217 255
186 216 254
181 212 233
177 206 193
165 194 95
163 191 25
163 191 0
163 191 0
161 189 0
160 187 0
166 193 0
163 190 0
160 188 0
162 189 0
165 192 0
162 188 0
160 187 0
160 187 0
159 186 0
166 192 0
158 184 0
158 185 0
164 190 0
159 185 0
165 190 0
160 184 0
163 187 0
162 187 0
157 182 0
162 186 0
160 184 0
152 176 0
161 185 0
158 182 0
159 183 0
160 184 0
153 176 0
160 184 0
156 179 0
151 175 0
153 176 0
155 177 0
157 179 0
154 177 0
155 177 0
155 178 0
156 177 0
155 177 0
152 174 0
155 178 0
147 169 0
145 166 0
151 173 0
145 167 0
149 170 0
148 170 0
146 168 0
146 167 0
150 171 0
141 162 0
149 170 0
136 157 0
152 173 0
139 159 0
153 173 0
150 171 0
138 159 0
146 168 0
137 158 0
141 161 0
133 154 0
134 153 0
137 156 0
134 154 0
133 152 0
131 151 0
142 162 0
137 156 0
132 152 0
121 141 0
131 151 0
129 148 0
125 145 0
125 144 0
118 136 0
124 142 0
117 135 0
117 135 0
113 131 0
114 133 0
115 133 0
111 130 0
117 136 0
105 122 0
117 134 0
111 128 0
118 135 0
114 131 0
107 123 0
102 117 0
99 116 0
102 118 0
108 124 0
102 118 0
101 116 0
102 119 0
89 104 0
107 123 0
102 118 0
97 113 0
96 112 0
96 112 0
106 122 0
105 122 0
103 118 0
91 105 0
100 114 0
104 118 0
101 116 0
86 101 0
97 111 0
93 107 0
108 122 0
94 108 0
109 124 0
94 109 0
100 115 0
101 115 0
109 124 0
98 114 0
99 112 0
98 111 0
103 117 0
82 97 0
101 116 0
95 111 0
106 120 0
115 132 0
106 122 0
106 119 0
123 138 0
123 139 0
110 125 0
114 129 0
110 126 0
115 130 0
113 125 0
104 117 0
120 135 0
109 124 0
124 137 0
115 128 0
110 125 0
112 127 0
116 131 0
121 134 0
122 137 0
124 137 0
115 129 0
115 127 0
116 127 0
126 142 0
119 134 0
121 135 0
119 131 0
122 136 0
121 133 0
119 129 0
118 130 0
124 138 0
122 134 0
120 133 0
121 132 0
131 144 0
120 133 0
119 131 0
126 139 0
111 119 0
123 135 0
115 126 0
129 139 0
118 128 0
116 125 0
114 123 0
122 131 0
116 123 0
121 132 0
123 132 0
115 121 0
115 124 0
107 112 0
109 115 0
122 129 0
119 125 0
122 130 0
123 130 0
102 109 0
121 125 0
113 117 0
114 116 0
109 110 0
112 112 0
113 117 0
100 101 0
109 108 0
95 96 0
102 103 0
95 92 0
107 105 0
100 96 0
107 103 0
102 98 0
84 82 0
95 92 0
96 93 0
81 71 0
83 77 0
77 72 0
90 82 0
77 72 0
75 70 0
73 65 0
78 68 0
82 73 0
84 73 0
85 77 0
88 79 0
80 71 0
86 76 0
106 98 0
91 84 0
88 81 0
96 87 0
104 95 0
93 81 11
88 80 0
99 89 0
104 95 0
99 90 11
101 91 11
100 93 0
95 86 0
88 79 11
103 94 0
102 97 0
100 91 11
106 98 0
117 108 0
107 94 11
106 98 11
106 98 11
105 97 11
116 108 11
96 89 11
112 105 11
109 101 16
104 97 19
101 93 16
102 95 16
102 95 11
114 106 11
99 94 16
113 105 16
113 104 19
107 99 11
113 102 11
121 116 25
116 108 22
118 109 19
111 103 19
111 103 30
116 108 25
110 104 19
113 106 25
113 106 16
111 105 22
108 102 19
116 109 22
110 103 25
116 108 19
108 100 19
115 109 19
118 112 25
112 104 19
115 108 30
113 107 25
115 108 19
122 114 32
112 105 19
122 115 34
112 105 28
111 106 22
108 102 25
119 113 28
115 107 25
112 105 25
110 104 25
112 105 36
121 114 36
123 115 34
110 104 34
109 101 32
126 130 28
140 149 19
159 174 11
166 185 0
164 181 0
167 187 0
171 189 0
174 194 0
169 189 0
170 189 0
172 195 0
171 195 0
173 197 0
173 197 0
174 197 0
171 194 0
173 195 0
177 199 0
172 196 0
174 197 0
177 200 80
179 203 151
187 212 198
192 218 242
194 221 255
195 221 255
195 221 255
195 221 255
195 221 255
195 221 255
196 222 255
196 222 255
196 222 255
196 222 255
196 222 255
196 222 255
196 222 255
196 222 255
197 222 255
196 222 255
197 222 255
197 222 255
197 222 255
197 222 255
197 222 255
197 222 255
197 222 255
197 222 255
197 222 255
197 222 255
197 222 255
197 222 255
197 222 255
197 222 255
197 222 255
197 222 255
197 222 255
197 222 255
197 222 255
197 222 255
196 222 255
196 222 255
196 222 255
196 222 255
196 222 255
196 222 255
196 222 255
196 222 255
196 222 255
196 221 255
195 221 255
195 221 255
195 221 255
195 221 255
195 221 255
195 221 255
194 221 255
194 221 255
194 221 255
194 220 255
193 220 255
193 220 255
193 220 255
193 220 255
192 220 255
192 220 255
191 219 255
191 219 255
190 219 255
190 219 255
190 218 255
189 218 255
188 218 255
188 217 255
187 217 255
186 217 255
183 214 244
176 206 191
171 200 151
165 194 80
163 192 0
162 191 0
161 189 0
163 190 0
163 191 0
164 191 0
160 187 0
165 193 0
162 190 0
164 190 0
162 189 0
166 192 0
156 182 0
163 189 0
163 189 0
163 190 0
162 188 0
159 185 0
161 186 0
165 190 0
159 184 0
157 182 0
158 183 0
161 186 0
164 189 0
157 182 0
164 188 0
159 183 0
159 184 0
162 187 0
156 180 0
153 177 0
158 181 0
160 183 0
155 179 0
156 178 0
152 175 0
159 182 0
159 182 0
160 182 0
156 178 0
158 181 0
152 174 0
159 181 0
158 180 0
151 173 0
152 174 0
154 176 0
157 179 0
153 175 0
153 175 0
147 168 0
154 175 0
147 169 0
153 174 0
140 161 0
156 178 0
146 167 0
145 166 0
143 164 0
136 156 0
140 161 0
136 156 0
141 162 0
144 164 0
137 157 0
138 157 0
128 149 0
136 155 0
139 159 0
135 154 0
145 165 0
132 152 0
132 152 0
124 143 0
132 151 0
128 148 0
135 154 0
130 149 0
120 140 0
123 142 0
119 138 0
124 141 0
118 136 0
126 145 0
119 138 0
119 136 0
128 146 0
118 134 0
123 141 0
124 142 0
108 126 0
110 127 0
101 119 0
101 118 0
106 123 0
112 130 0
115 132 0
101 116 0
98 114 0
108 125 0
107 122 0
103 119 0
119 135 0
100 115 0
108 125 0
101 116 0
107 123 0
85 100 0
99 116 0
100 115 0
100 115 0
95 110 0
106 120 0
101 116 0
111 127 0
103 117 0
105 121 0
98 112 0
101 116 0
98 113 0
105 121 0
89 103 0
100 114 0
95 111 0
100 114 0
95 110 0
105 119 0
105 120 0
112 128 0
102 116 0
104 120 0
102 118 0
110 122 0
99 114 0
101 114 0
104 118 0
122 136 0
116 131 0
113 127 0
102 116 0
116 129 0
111 126 0
113 126 0
118 134 0
112 127 0
110 125 0
106 119 0
114 131 0
119 133 0
117 132 0
123 138 0
114 127 0
124 140 0
115 128 0
109 123 0
120 133 0
124 139 0
116 129 0
109 123 0
122 137 0
121 137 0
124 139 0
115 127 0
118 131 0
118 131 0
116 129 0
113 125 0
130 143 0
124 136 0
122 132 0
128 139 0
127 139 0
108 119 0
131 145 0
122 135 0
120 132 0
125 137 0
127 135 0
121 132 0
119 131 0
124 133 0
118 127 0
126 135 0
118 128 0
112 119 0
124 133 0
113 119 0
116 123 0
127 132 0
116 124 0
120 127 0
107 115 0
111 117 0
123 125 0
109 111 0
114 120 0
123 128 0
114 119 0
118 121 0
118 122 0
101 100 0
109 110 0
112 116 0
113 113 0
105 104 0
99 98 0
106 108 0
100 100 0
97 95 0
111 110 0
94 90 0
87 82 0
95 88 0
98 94 0
95 90 0
80 73 0
79 75 0
81 77 0
87 82 0
60 53 0
72 64 0
71 65 0
82 74 0
74 64 0
78 66 0
94 84 0
89 79 11
92 81 0
91 82 0
95 86 0
82 71 0
90 80 0
88 81 0
97 87 11
92 84 0
98 89 11
95 87 0
94 86 0
109 98 11
104 95 0
101 92 0
100 92 0
91 84 0
91 84 0
99 90 11
101 94 11
103 95 0
96 88 0
95 86 16
107 99 19
95 88 16
109 102 16
110 101 11
107 97 0
116 108 11
108 101 0
108 101 19
101 95 0
117 109 0
114 106 19
113 105 16
108 100 16
105 97 0
113 104 25
108 101 11
113 104 19
124 116 32
109 101 22
112 105 19
114 106 11
112 105 22
113 107 22
113 106 19
116 108 11
109 101 25
117 109 25
104 96 19
118 111 25
109 102 22
120 112 25
105 99 22
113 105 22
121 112 34
109 101 30
113 104 32
116 107 30
113 106 30
123 114 30
110 104 32
111 105 25
106 99 22
120 115 32
105 98 28
107 100 36
109 102 28
118 115 25
134 138 32
146 155 22
162 180 0
163 183 0
167 185 0
162 181 0
167 185 0
168 186 0
169 187 0
168 187 0
170 190 0
169 188 0
172 192 0
173 196 0
175 198 0
174 196 0
174 197 0
175 197 0
175 198 0
175 198 0
173 196 0
172 196 0
174 197 0
174 197 0
175 198 0
174 198 0
173 196 0
178 201 92
182 206 159
185 211 198
191 217 241
193 220 255
194 220 255
194 221 255
194 221 255
194 221 255
194 221 255
195 221 255
195 221 255
195 221 255
195 221 255
195 221 255
195 221 255
195 221 255
195 221 255
195 221 255
195 221 255
195 221 255
195 221 255
196 221 255
195 221 255
196 221 255
195 221 255
195 221 255
195 221 255
195 221 255
195 221 255
195 221 255
195 221 255
195 221 255
195 221 255
195 221 255
195 221 255
195 221 255
195 221 255
195 221 255
195 221 255
195 221 255
195 221 255
194 221 255
194 221 255
194 221 255
194 221 255
194 221 255
194 221 255
193 220 255
193 220 255
193 220 255
193 220 255
193 220 255
192 220 255
192 220 255
192 219 255
192 219 255
191 219 255
191 219 255
190 219 255
190 219 255
190 218 255
189 218 255
189 218 255
188 218 255
187 217 255
187 217 255
186 216 255
182 212 234
178 208 209
173 203 169
165 194 92
161 189 0
162 190 0
165 192 0
161 189 0
161 189 0
163 190 0
163 190 0
162 190 0
162 189 0
160 188 0
159 187 0
161 187 0
163 190 0
164 189 0
160 186 0
163 189 0
164 190 0
161 187 0
162 188 0
162 187 0
158 184 0
162 187 0
161 186 0
167 191 0
159 184 0
159 184 0
164 189 0
155 179 0
165 190 0
160 184 0
153 178 0
156 180 0
162 185 0
158 182 0
156 180 0
164 188 0
161 184 0
152 175 0
157 179 0
153 176 0
155 178 0
158 181 0
157 179 0
153 176 0
157 179 0
155 178 0
141 162 0
153 175 0
159 181 0
159 181 0
160 182 0
151 172 0
149 170 0
148 171 0
144 166 0
152 173 0
149 171 0
151 173 0
151 171 0
149 170 0
143 165 0
143 164 0
139 161 0
146 168 0
138 159 0
138 159 0
145 165 0
141 161 0
138 159 0
135 156 0
135 156 0
138 158 0
132 152 0
127 148 0
131 151 0
136 157 0
143 164 0
124 143 0
126 146 0
132 151 0
139 159 0
129 149 0
124 145 0
124 144 0
127 145 0
113 131 0
128 147 0
118 136 0
128 147 0
132 152 0
125 143 0
111 129 0
98 117 0
117 134 0
109 126 0
118 135 0
121 139 0
123 142 0
116 135 0
105 124 0
107 125 0
108 125 0
114 131 0
106 123 0
104 120 0
113 128 0
95 112 0
115 133 0
121 138 0
115 131 0
108 124 0
102 117 0
109 126 0
117 134 0
106 122 0
101 117 0
102 118 0
109 125 0
97 114 0
105 119 0
109 126 0
108 124 0
88 102 0
102 117 0
113 130 0
110 125 0
99 114 0
102 118 0
104 119 0
109 124 0
115 129 0
103 120 0
100 115 0
108 123 0
102 118 0
113 126 0
110 126 0
98 113 0
106 121 0
115 130 0
110 125 0
114 128 0
110 125 0
119 132 0
113 130 0
118 135 0
116 132 0
112 127 0
115 131 0
116 130 0
110 124 0
104 119 0
113 128 0
124 141 0
116 129 0
120 132 0
118 133 0
119 134 0
130 145 0
125 142 0
119 135 0
133 148 0
135 150 0
128 142 0
119 135 0
125 140 0
119 130 0
121 134 0
119 133 0
124 140 0
126 136 0
133 147 0
123 137 0
132 146 0
128 142 0
117 128 0
124 137 0
131 143 0
128 141 0
124 133 0
123 135 0
133 145 0
128 141 0
120 131 0
130 142 0
126 137 0
122 132 0
124 134 0
119 128 0
116 124 0
113 120 0
121 130 0
125 134 0
119 128 0
124 134 0
105 111 0
128 133 0
114 119 0
121 127 0
128 134 0
115 117 0
120 128 0
111 114 0
120 126 0
115 120 0
123 128 0
106 107 0
122 125 0
116 118 0
113 116 0
114 115 0
109 108 0
108 105 0
104 100 0
109 110 0
98 98 0
103 102 0
108 108 0
107 105 0
95 90 0
91 87 0
93 90 0
90 86 0
88 83 0
79 74 0
71 65 0
94 87 0
77 70 0
85 75 0
78 69 0
83 74 0
71 62 0
81 70 11
72 62 0
91 80 0
95 85 0
87 77 0
96 88 0
96 87 0
85 74 0
86 75 0
99 90 0
98 87 11
91 82 0
95 86 0
89 81 19
84 77 0
95 85 0
104 95 11
99 91 16
89 80 0
110 100 0
105 98 19
104 96 11
102 93 16
103 95 0
101 94 11
104 97 11
108 100 11
107 99 0
104 94 11
101 92 16
107 98 16
107 98 16
102 93 11
98 91 0
119 109 22
106 98 16
109 102 25
105 96 19
121 114 25
114 105 25
113 104 19
96 90 11
97 90 0
102 94 11
110 102 25
102 94 19
102 95 25
110 101 22
110 103 16
114 105 34
109 103 22
114 106 25
100 94 16
113 106 19
115 106 30
109 102 32
103 96 25
119 112 34
118 110 34
116 110 25
114 107 32
109 101 32
110 105 28
117 109 37
112 108 34
127 128 22
138 146 16
161 175 22
163 180 0
167 184 0
170 189 0
165 182 0
168 188 0
162 179 0
169 188 0
162 179 0
165 181 0
167 184 0
167 184 0
164 181 0
167 187 0
170 188 0
174 197 0
175 198 0
173 196 0
175 197 0
175 198 0
174 197 0
173 196 0
172 195 0
174 197 0
175 198 0
172 194 0
175 198 0
176 199 0
175 198 0
172 194 0
173 197 0
175 197 0
174 197 0
178 201 76
180 204 142
184 209 182
188 214 218
191 218 244
192 220 255
193 220 255
193 220 255
193 220 255
193 220 255
193 220 255
193 220 255
194 220 255
194 220 255
194 220 255
194 221 255
194 221 255
194 221 255
194 221 255
194 221 255
194 221 255
194 221 255
194 221 255
194 221 255
194 221 255
194 221 255
194 221 255
194 221 255
194 221 255
194 220 255
194 220 255
194 220 255
193 220 255
193 220 255
193 220 255
193 220 255
193 220 255
193 220 255
193 220 255
193 220 255
192 220 255
192 220 255
192 220 255
192 220 255
192 219 255
191 219 255
191 219 255
191 219 255
190 219 255
190 219 255
190 218 255
190 218 255
189 218 255
189 218 255
188 218 255
188 217 255
187 217 255
186 217 255
186 217 255
184 214 245
178 208 207
173 203 175
169 199 140
165 193 67
164 192 0
162 191 0
163 192 0
164 192 0
165 193 0
164 192 0
162 190 0
163 190 0
162 189 0
164 191 0
161 188 0
164 191 0
162 189 0
163 191 0
162 188 0
166 193 0
160 186 0
161 187 0
161 187 0
165 191 0
160 185 0
162 188 0
162 187 0
158 184 0
160 186 0
165 190 0
158 182 0
162 187 0
156 179 0
163 187 0
162 187 0
160 184 0
161 186 0
163 187 0
154 177 0
153 177 0
163 186 0
158 182 0
150 174 0
162 185 0
158 181 0
159 181 0
159 182 0
158 182 0
158 181 0
157 179 0
156 179 0
154 177 0
154 176 0
156 179 0
162 184 0
154 176 0
155 178 0
152 174 0
155 177 0
153 175 0
152 173 0
155 177 0
153 176 0
149 171 0
152 174 0
152 173 0
150 172 0
150 171 0
142 163 0
144 166 0
148 169 0
146 167 0
151 172 0
150 171 0
144 165 0
134 156 0
139 160 0
150 171 0
133 154 0
129 150 0
129 148 0
133 152 0
137 157 0
135 155 0
132 152 0
137 157 0
132 152 0
129 148 0
128 147 0
139 159 0
142 162 0
121 140 0
137 157 0
132 151 0
120 138 0
120 138 0
121 140 0
123 142 0
118 137 0
126 145 0
130 148 0
127 145 0
108 126 0
111 129 0
116 134 0
114 132 0
126 144 0
117 134 0
112 131 0
122 141 0
115 132 0
116 133 0
116 133 0
101 118 0
104 120 0
113 130 0
94 112 0
104 121 0
106 123 0
103 120 0
120 139 0
109 126 0
99 115 0
117 133 0
93 107 0
95 112 0
103 118 0
103 121 0
96 112 0
99 115 0
108 123 0
122 137 0
114 130 0
101 116 0
110 125 0
108 123 0
105 121 0
101 117 0
112 127 0
105 121 0
108 125 0
121 138 0
110 126 0
106 122 0
107 122 0
112 127 0
121 136 0
117 132 0
109 124 0
121 140 0
124 140 0
108 124 0
122 138 0
108 121 0
127 144 0
119 134 0
124 139 0
118 131 0
113 128 0
121 137 0
118 132 0
114 129 0
105 119 0
111 126 0
118 134 0
127 141 0
121 136 0
132 148 0
116 130 0
129 144 0
121 135 0
119 133 0
103 118 0
128 143 0
127 142 0
120 135 0
125 140 0
121 135 0
124 139 0
118 131 0
121 134 0
133 145 0
125 138 0
131 144 0
121 132 0
126 140 0
130 142 0
124 136 0
124 136 0
124 137 0
124 136 0
120 134 0
125 137 0
121 130 0
121 130 0
120 132 0
126 137 0
124 134 0
119 128 0
125 134 0
119 129 0
116 123 0
128 137 0
118 124 0
114 119 0
125 132 0
118 127 0
119 126 0
121 127 0
116 122 0
121 127 0
112 116 0
121 126 0
114 119 0
112 117 0
112 115 0
110 114 0
112 114 0
114 114 0
112 115 0
104 104 0
112 115 0
108 110 0
116 118 0
97 94 0
97 93 0
101 99 0
108 106 0
96 95 0
98 96 0
111 110 0
102 98 0
103 100 0
95 89 0
90 81 0
95 87 0
99 93 0
87 82 0
79 72 0
82 73 0
80 74 0
87 83 0
89 82 0
83 73 0
92 81 0
81 72 0
74 65 11
75 67 0
81 73 0
85 77 0
93 83 0
86 74 0
105 95 11
93 83 0
96 85 0
86 77 11
93 84 11
101 92 16
98 89 11
101 93 11
91 85 16
94 85 0
99 92 16
106 96 11
100 91 0
109 100 16
96 86 11
105 97 16
104 95 0
104 96 19
105 98 11
101 91 19
106 96 11
112 105 0
108 100 16
99 91 22
104 95 19
122 113 25
104 95 16
104 96 22
117 106 16
90 84 0
104 97 22
102 95 11
104 96 19
95 89 11
103 97 19
112 103 30
111 104 22
117 108 22
108 99 30
101 94 19
101 95 28
107 99 28
107 99 25
110 101 22
109 103 37
108 96 25
103 96 22
112 109 25
128 132 25
133 139 19
150 161 11
159 172 11
162 176 0
157 170 0
164 177 0
162 176 0
165 183 0
167 183 0
164 179 0
167 184 0
165 180 0
170 189 0
166 182 0
165 181 0
164 182 0
164 182 0
171 189 0
164 183 0
169 188 0
171 190 0
175 197 0
175 197 0
175 197 0
175 198 0
174 197 0
176 198 0
172 196 0
174 197 0
171 194 0
173 196 0
174 197 0
174 197 0
175 198 0
175 198 0
174 197 0
174 197 0
175 198 0
172 195 0
174 197 0
175 198 0
176 199 0
176 198 0
172 195 0
173 198 72
179 204 140
182 208 175
184 210 198
187 214 220
189 217 242
191 219 255
191 219 255
191 219 255
192 219 255
192 220 255
192 220 255
192 220 255
192 220 255
192 220 255
192 220 255
192 220 255
192 220 255
192 220 255
192 220 255
192 220 255
192 220 255
192 220 255
192 220 255
192 220 255
192 220 255
192 219 255
192 219 255
192 219 255
191 219 255
191 219 255
191 219 255
191 219 255
191 219 255
191 219 255
190 219 255
190 219 255
190 219 255
190 218 255
189 218 255
189 218 255
189 218 255
188 218 255
188 218 255
188 217 255
187 217 255
187 217 255
186 216 255
184 214 245
181 212 228
179 209 209
174 203 173
170 200 140
166 194 80
163 191 0
165 193 0
164 192 0
164 192 0
165 193 0
164 192 0
166 193 0
163 191 0
163 191 0
166 193 0
164 191 0
163 191 0
166 192 0
164 190 0
162 189 0
160 187 0
166 192 0
161 188 0
162 188 0
165 192 0
163 189 0
165 190 0
162 188 0
157 182 0
162 188 0
159 185 0
162 187 0
163 188 0
163 188 0
160 184 0
158 183 0
164 189 0
160 185 0
163 188 0
162 185 0
161 185 0
161 185 0
160 185 0
154 177 0
157 180 0
157 180 0
163 187 0
158 182 0
159 182 0
153 176 0
159 182 0
163 186 0
155 177 0
159 182 0
151 173 0
158 181 0
158 181 0
152 175 0
151 174 0
155 177 0
154 177 0
158 180 0
153 176 0
151 173 0
156 178 0
149 171 0
155 177 0
148 170 0
148 169 0
153 175 0
150 172 0
146 167 0
151 173 0
155 176 0
143 165 0
156 177 0
142 163 0
148 168 0
137 156 0
143 163 0
146 168 0
146 166 0
145 166 0
144 166 0
148 168 0
150 172 0
146 167 0
135 155 0
135 156 0
138 158 0
139 159 0
146 166 0
139 159 0
128 148 0
130 149 0
133 153 0
133 152 0
127 147 0
131 150 0
137 156 0
135 155 0
120 140 0
126 145 0
135 155 0
129 149 0
121 139 0
115 134 0
115 133 0
131 149 0
110 129 0
122 140 0
115 131 0
108 127 0
119 138 0
117 136 0
122 140 0
116 135 0
112 130 0
108 126 0
114 133 0
115 132 0
109 126 0
117 135 0
106 123 0
111 127 0
119 137 0
110 126 0
118 135 0
122 138 0
117 133 0
106 123 0
110 126 0
116 133 0
111 127 0
102 118 0
118 135 0
96 114 0
101 118 0
99 115 0
108 125 0
104 119 0
96 112 0
114 131 0
113 129 0
113 129 0
119 137 0
105 121 0
108 125 0
104 119 0
112 127 0
115 131 0
108 123 0
119 136 0
115 131 0
105 121 0
117 132 0
115 130 0
108 124 0
110 128 0
113 128 0
115 132 0
107 123 0
123 139 0
114 129 0
117 134 0
116 131 0
117 132 0
115 132 0
121 136 0
127 144 0
118 134 0
124 139 0
121 137 0
126 141 0
121 138 0
118 132 0
120 134 0
120 135 0
123 137 0
126 140 0
137 152 0
122 138 0
123 139 0
128 143 0
120 132 0
124 135 0
131 146 0
121 136 0
133 146 0
130 143 0
129 144 0
128 142 0
125 137 0
131 145 0
131 143 0
122 133 0
130 142 0
125 137 0
129 141 0
126 138 0
123 137 0
127 136 0
134 143 0
110 118 0
129 138 0
122 131 0
115 124 0
121 132 0
123 133 0
120 128 0
123 132 0
126 135 0
126 132 0
113 121 0
126 132 0
123 130 0
121 129 0
121 128 0
106 113 0
112 114 0
113 118 0
117 120 0
117 120 0
110 113 0
113 116 0
112 112 0
109 109 0
123 126 0
119 120 0
108 109 0
116 116 0
93 92 0
98 99 0
103 100 0
105 102 0
110 108 0
110 106 0
103 103 0
98 94 0
88 83 0
96 91 0
102 100 0
84 79 0
96 88 0
101 98 0
94 86 0
84 76 0
94 88 0
98 89 0
88 83 0
89 83 0
98 91 0
85 79 11
90 80 0
98 92 0
91 81 0
82 71 0
76 65 0
93 83 0
85 77 19
76 68 0
89 79 19
88 79 11
103 92 11
99 89 16
92 81 0
93 82 0
93 84 0
103 91 16
104 97 0
97 89 0
88 79 0
81 73 16
107 100 0
95 85 16
96 87 11
101 90 11
105 94 16
97 88 22
104 95 16
107 98 19
108 99 16
105 96 16
108 99 25
107 99 16
104 96 22
103 94 16
99 90 11
114 107 22
105 96 19
108 100 19
105 97 30
105 100 19
104 97 28
110 101 25
104 94 22
110 102 19
102 95 28
103 94 16
114 108 28
132 134 25
122 125 16
135 140 0
136 143 11
152 163 0
163 177 0
157 170 0
158 169 0
160 173 0
161 176 0
161 173 0
160 172 0
162 179 0
160 175 0
161 177 0
168 184 0
164 180 0
166 183 0
165 182 0
163 179 0
164 179 0
167 185 0
166 183 0
168 187 0
162 178 0
169 186 0
161 179 0
166 183 0
173 196 0
174 197 0
171 195 0
175 198 0
171 194 0
175 197 0
175 198 0
173 197 0
173 196 0
176 198 0
173 195 0
176 198 0
173 196 0
173 197 0
173 195 0
175 198 0
173 196 0
175 197 0
173 197 0
175 198 0
175 197 0
175 198 0
172 195 0
175 198 0
174 197 0
175 198 0
174 197 0
172 196 0
174 198 0
176 199 67
177 202 117
179 205 155
179 205 167
183 209 189
185 213 220
186 213 220
187 215 237
187 215 238
189 218 254
190 218 255
190 218 255
190 218 255
190 218 255
190 218 255
190 218 255
190 218 255
190 218 255
190 218 255
189 218 255
189 218 255
189 218 255
189 218 255
189 218 255
189 218 255
189 218 255
188 218 255
188 218 255
188 217 255
188 217 255
187 217 255
187 217 255
186 216 253
186 216 250
183 213 236
181 210 215
178 207 201
178 207 194
176 205 181
171 199 122
168 196 102
167 195 67
165 193 0
165 193 0
165 193 0
166 193 0
165 193 0
164 193 0
164 193 0
163 191 0
165 192 0
165 192 0
165 192 0
164 191 0
163 191 0
166 192 0
165 191 0
163 190 0
163 190 0
161 188 0
164 190 0
165 192 0
162 189 0
162 188 0
164 190 0
164 190 0
158 184 0
161 187 0
164 190 0
165 191 0
162 188 0
163 188 0
162 187 0
163 188 0
162 188 0
161 186 0
160 185 0
163 187 0
163 187 0
164 188 0
161 185 0
159 183 0
161 184 0
162 186 0
153 177 0
158 183 0
158 182 0
162 186 0
149 173 0
159 182 0
153 176 0
157 181 0
150 173 0
157 180 0
159 182 0
163 186 0
159 181 0
159 182 0
162 184 0
157 179 0
156 179 0
156 177 0
157 179 0
159 181 0
158 180 0
148 169 0
154 176 0
151 172 0
156 179 0
149 170 0
145 166 0
154 175 0
150 170 0
152 174 0
148 169 0
149 170 0
142 164 0
150 171 0
148 169 0
142 163 0
149 170 0
144 166 0
144 166 0
145 166 0
150 171 0
134 155 0
138 159 0
151 171 0
137 158 0
138 158 0
142 162 0
129 149 0
128 148 0
137 157 0
138 159 0
137 157 0
139 158 0
127 147 0
121 141 0
141 159 0
133 153 0
136 155 0
128 148 0
135 154 0
126 144 0
131 149 0
122 141 0
132 151 0
127 146 0
124 144 0
117 136 0
119 138 0
126 144 0
118 137 0
120 139 0
116 135 0
130 148 0
129 148 0
108 127 0
110 127 0
112 131 0
113 132 0
123 141 0
126 144 0
102 119 0
112 129 0
119 137 0
120 137 0
108 125 0
112 130 0
119 138 0
112 130 0
122 138 0
124 140 0
105 123 0
108 124 0
113 130 0
107 123 0
116 133 0
120 136 0
108 125 0
108 126 0
112 130 0
112 127 0
117 133 0
112 128 0
122 138 0
115 132 0
105 123 0
116 133 0
122 136 0
110 128 0
120 138 0
115 131 0
122 138 0
122 138 0
110 124 0
122 140 0
111 126 0
122 139 0
120 137 0
107 123 0
117 133 0
122 137 0
127 143 0
118 136 0
119 135 0
121 137 0
129 145 0
121 138 0
115 130 0
115 130 0
121 135 0
125 142 0
120 135 0
120 135 0
122 137 0
127 140 0
121 136 0
125 139 0
138 154 0
126 141 0
130 146 0
119 135 0
135 151 0
131 145 0
138 153 0
132 148 0
125 139 0
134 148 0
124 139 0
124 140 0
145 160 0
133 149 0
123 135 0
131 145 0
132 146 0
133 147 0
123 135 0
127 142 0
129 142 0
130 142 0
133 142 0
126 136 0
115 126 0
132 143 0
124 135 0
128 139 0
129 139 0
117 125 0
119 127 0
129 139 0
118 127 0
127 134 0
128 138 0
118 124 0
117 122 0
128 135 0
125 130 0
125 131 0
128 137 0
127 134 0
125 131 0
123 126 0
116 121 0
116 117 0
118 122 0
110 113 0
110 115 0
108 110 0
124 129 0
124 130 0
113 114 0
111 114 0
107 108 0
108 108 0
110 107 0
110 109 0
105 108 0
112 110 0
111 109 0
112 110 0
98 95 0
103 99 0
104 100 0
97 95 0
92 89 0
110 106 0
96 93 0
94 89 0
104 100 0
89 84 0
103 98 0
95 87 0
103 98 0
100 95 0
102 95 0
104 101 0
95 90 0
83 75 0
98 93 0
104 99 0
93 87 0
88 81 0
97 87 0
97 90 11
106 98 16
97 87 0
91 81 11
88 79 16
90 79 0
81 72 11
96 85 11
89 79 11
94 85 11
98 87 16
91 81 11
90 80 11
93 82 11
102 93 11
87 77 16
100 91 19
101 92 11
100 90 11
90 81 19
96 85 25
96 88 16
101 92 22
107 99 19
107 98 25
108 100 11
98 91 16
100 91 19
108 104 25
118 111 30
127 123 19
118 116 11
126 126 0
124 125 22
133 141 11
145 150 11
150 160 0
154 165 0
155 168 0
160 173 0
157 169 0
159 169 0
162 174 0
159 172 0
157 172 0
156 170 0
155 165 0
161 175 0
161 176 0
164 181 0
169 184 0
159 173 0
162 179 0
161 176 0
166 182 0
160 175 0
162 179 0
166 182 0
163 178 0
164 181 0
165 181 0
166 184 0
164 184 0
166 185 0
165 181 0
165 182 0
174 197 0
173 196 0
175 198 0
175 197 0
174 197 0
173 196 0
171 194 0
173 196 0
175 197 0
173 197 0
172 194 0
174 197 0
171 194 0
175 198 0
174 198 0
174 197 0
174 197 0
174 197 0
174 197 0
175 198 0
174 197 0
174 197 0
173 196 0
175 198 0
174 198 0
174 198 0
173 197 0
172 196 0
174 198 0
171 195 0
171 195 0
172 196 0
174 198 0
172 196 0
173 197 0
171 196 0
171 196 0
173 197 0
173 197 44
174 199 84
175 201 111
175 201 130
175 201 122
177 203 140
177 204 155
174 202 144
177 205 165
177 205 175
178 206 173
177 204 161
178 205 173
178 206 175
175 203 155
176 205 171
175 203 157
175 203 151
176 203 151
173 201 144
170 199 122
169 197 108
169 196 67
167 194 51
166 193 0
167 193 0
167 194 0
164 192 0
166 193 0
167 194 0
166 193 0
166 193 0
167 194 0
165 193 0
166 194 0
164 191 0
165 193 0
166 193 0
166 194 0
165 193 0
163 190 0
165 193 0
164 192 0
164 191 0
163 190 0
164 191 0
166 193 0
163 191 0
167 193 0
164 191 0
162 189 0
161 187 0
163 190 0
168 194 0
165 192 0
160 186 0
162 188 0
164 190 0
163 188 0
159 184 0
166 191 0
164 190 0
161 187 0
165 190 0
165 190 0
160 185 0
161 185 0
162 187 0
165 190 0
162 186 0
158 183 0
158 181 0
163 187 0
158 182 0
161 186 0
160 183 0
161 186 0
165 188 0
158 182 0
157 180 0
155 179 0
153 175 0
159 182 0
155 178 0
156 179 0
157 180 0
154 176 0
159 182 0
158 181 0
156 179 0
153 175 0
157 180 0
158 180 0
151 173 0
152 174 0
148 171 0
152 174 0
158 180 0
154 176 0
152 175 0
151 174 0
154 176 0
146 167 0
141 163 0
151 173 0
155 176 0
146 168 0
157 179 0
145 166 0
153 174 0
154 175 0
140 161 0
145 166 0
149 169 0
147 167 0
150 171 0
142 162 0
139 160 0
135 156 0
138 158 0
135 155 0
138 159 0
132 152 0
142 162 0
132 152 0
141 161 0
125 146 0
129 149 0
138 159 0
133 154 0
132 151 0
130 149 0
130 150 0
129 149 0
135 154 0
134 153 0
135 154 0
133 153 0
127 146 0
135 154 0
124 143 0
140 159 0
118 137 0
127 145 0
114 131 0
113 132 0
121 140 0
127 145 0
118 137 0
124 142 0
125 143 0
119 137 0
112 129 0
123 141 0
108 126 0
119 137 0
93 110 0
113 130 0
107 125 0
108 126 0
114 133 0
119 136 0
104 122 0
118 136 0
120 139 0
96 114 0
115 132 0
124 142 0
126 145 0
110 127 0
121 139 0
120 137 0
108 125 0
114 131 0
134 151 0
109 124 0
121 139 0
122 139 0
110 126 0
118 134 0
105 121 0
111 127 0
115 130 0
110 125 0
108 125 0
116 132 0
110 127 0
122 139 0
125 141 0
127 144 0
120 137 0
121 137 0
119 135 0
118 134 0
117 133 0
109 126 0
124 143 0
111 125 0
125 141 0
120 137 0
123 140 0
121 135 0
127 143 0
122 140 0
119 135 0
127 142 0
111 125 0
123 139 0
119 133 0
119 137 0
131 149 0
119 135 0
130 146 0
124 140 0
119 134 0
130 147 0
125 139 0
117 131 0
127 144 0
133 147 0
129 144 0
133 146 0
124 139 0
119 132 0
139 154 0
139 155 0
128 143 0
127 140 0
124 138 0
125 139 0
117 129 0
135 149 0
131 144 0
127 139 0
124 136 0
129 138 0
129 140 0
110 118 0
121 130 0
121 133 0
127 138 0
123 133 0
120 129 0
117 125 0
137 145 0
120 127 0
121 129 0
131 139 0
111 114 0
113 122 0
122 129 0
134 146 0
117 123 0
125 130 0
127 135 0
113 116 0
121 127 0
117 121 0
115 119 0
121 127 0
114 118 0
130 135 0
124 126 0
122 121 0
115 116 0
117 123 0
122 125 0
120 123 0
109 108 0
114 117 0
110 110 0
119 120 0
102 104 0
113 112 0
108 105 0
94 95 0
114 112 0
110 107 0
102 97 0
115 113 0
116 114 0
92 88 0
91 88 0
106 102 0
102 97 0
108 104 0
107 102 0
106 99 0
93 87 0
94 87 0
99 95 0
109 103 0
106 102 0
110 104 0
110 103 0
106 101 0
111 108 0
114 109 0
106 100 0
107 104 0
121 116 0
119 118 0
106 104 0
108 100 0
118 114 0
109 105 0
110 107 0
113 109 0
109 103 0
113 107 16
99 93 0
123 119 0
119 117 16
110 107 16
126 125 11
122 119 0
128 126 11
126 126 0
118 117 11
133 133 11
135 136 0
137 141 0
142 146 0
145 148 0
146 151 0
148 157 0
148 155 0
147 154 0
156 163 0
148 154 0
148 157 0
155 161 0
155 166 0
152 161 0
160 171 0
154 161 0
155 166 0
157 169 0
159 170 0
160 172 0
155 164 0
161 175 0
160 173 0
156 168 0
160 173 0
164 179 0
162 175 0
156 168 0
159 168 0
162 180 0
160 173 0
162 179 0
168 183 0
166 182 0
161 175 0
165 181 0
160 179 0
164 180 0
161 178 0
166 182 0
163 180 0
162 179 0
175 198 0
176 198 0
171 194 0
174 197 0
174 197 0
173 197 0
175 198 0
175 198 0
174 197 0
175 198 0
173 196 0
175 198 0
173 197 0
173 196 0
174 197 0
174 198 0
173 197 0
173 197 0
172 196 0
170 194 0
174 197 0
174 197 0
175 198 0
173 196 0
172 195 0
173 196 0
173 197 0
172 195 0
174 198 0
171 195 0
172 196 0
173 197 0
171 195 0
173 197 0
172 196 0
172 196 0
172 196 0
172 197 0
171 196 0
171 196 0
171 196 0
171 196 0
171 196 0
172 197 0
170 195 0
171 196 0
169 194 0
168 194 0
169 195 0
168 195 0
169 195 0
169 195 0
168 194 0
168 195 0
169 195 0
170 195 0
168 194 0
168 194 0
168 195 0
167 193 0
167 194 0
167 193 0
166 194 0
167 193 0
166 193 0
166 194 0
165 192 0
165 192 0
166 193 0
165 192 0
166 193 0
166 193 0
164 192 0
166 192 0
168 194 0
166 193 0
165 193 0
165 191 0
167 193 0
162 189 0
165 193 0
167 193 0
166 193 0
166 192 0
167 193 0
164 191 0
162 189 0
166 191 0
161 187 0
166 192 0
164 190 0
164 190 0
161 188 0
160 186 0
164 189 0
163 188 0
164 189 0
163 187 0
163 188 0
163 188 0
163 188 0
162 187 0
164 189 0
166 191 0
160 185 0
163 187 0
158 182 0
166 191 0
166 190 0
165 189 0
159 183 0
161 184 0
159 183 0
162 186 0
155 179 0
165 188 0
163 186 0
156 179 0
162 186 0
154 177 0
159 182 0
153 176 0
157 179 0
159 182 0
156 178 0
157 180 0
156 179 0
165 187 0
158 180 0
155 178 0
153 174 0
153 175 0
158 180 0
160 182 0
153 175 0
153 175 0
153 175 0
154 176 0
153 175 0
158 180 0
154 176 0
154 175 0
154 176 0
153 175 0
148 170 0
145 166 0
151 171 0
142 164 0
156 177 0
142 164 0
144 166 0
147 169 0
144 165 0
147 168 0
138 159 0
136 156 0
143 164 0
134 155 0
131 151 0
144 163 0
143 164 0
137 157 0
133 154 0
132 153 0
142 163 0
140 160 0
136 157 0
130 149 0
136 156 0
121 142 0
136 156 0
132 151 0
141 160 0
127 147 0
127 147 0
127 146 0
134 155 0
134 154 0
127 148 0
142 161 0
128 147 0
132 152 0
120 137 0
120 140 0
129 147 0
120 138 0
112 130 0
124 143 0
128 147 0
120 138 0
126 145 0
124 143 0
113 131 0
110 129 0
102 121 0
133 151 0
125 142 0
116 134 0
111 127 0
118 136 0
110 128 0
119 135 0
117 136 0
106 122 0
122 140 0
125 143 0
116 135 0
124 141 0
121 139 0
120 138 0
115 132 0
122 140 0
122 139 0
119 137 0
122 140 0
124 142 0
123 141 0
122 140 0
117 134 0
127 144 0
117 134 0
124 142 0
122 141 0
119 137 0
120 137 0
128 146 0
123 139 0
112 130 0
120 137 0
120 135 0
126 144 0
124 141 0
113 129 0
133 151 0
123 139 0
132 149 0
113 130 0
129 146 0
126 143 0
121 136 0
129 146 0
127 146 0
132 146 0
121 135 0
119 137 0
125 143 0
119 133 0
143 159 0
126 141 0
131 147 0
133 148 0
125 139 0
129 146 0
126 143 0
119 133 0
125 139 0
134 150 0
124 138 0
129 143 0
131 144 0
131 144 0
134 148 0
137 151 0
135 150 0
126 140 0
115 130 0
122 135 0
133 148 0
135 149 0
122 135 0
124 138 0
126 137 0
126 137 0
130 142 0
143 159 0
128 141 0
131 142 0
133 144 0
132 144 0
137 147 0
117 127 0
131 144 0
127 140 0
121 130 0
120 129 0
132 140 0
138 148 0
127 133 0
135 144 0
136 144 0
123 131 0
134 140 0
119 125 0
133 141 0
124 131 0
122 128 0
124 128 0
120 124 0
113 116 0
125 128 0
122 125 0
124 128 0
118 118 0
118 121 0
116 119 0
113 114 0
115 113 0
125 130 0
118 117 0
108 105 0
111 114 0
109 111 0
114 116 0
119 121 0
115 115 0
110 110 0
97 95 0
122 118 0
113 112 0
109 106 0
110 104 0
102 97 0
107 101 0
116 113 0
101 98 0
113 108 0
110 105 0
115 114 0
109 102 0
105 97 0
112 111 0
110 103 0
117 113 0
101 93 0
114 109 0
116 112 0
115 113 0
110 105 0
123 119 0
118 115 0
118 114 0
118 116 0
123 122 0
121 121 0
123 122 0
126 124 0
124 123 0
126 127 0
123 118 0
127 127 0
128 127 0
142 143 0
140 143 0
132 132 0
142 146 0
139 144 0
137 140 0
133 134 0
138 138 0
145 149 0
138 144 0
143 147 0
149 154 0
144 152 0
144 151 0
149 156 0
149 155 0
146 152 0
153 161 0
152 159 0
154 164 0
151 159 0
161 171 0
155 165 0
150 161 0
153 161 0
153 163 0
158 168 0
158 171 0
156 166 0
158 170 0
161 173 0
161 174 0
158 169 0
157 168 0
164 179 0
163 176 0
158 172 0
160 173 0
162 178 0
162 177 0
164 180 0
155 168 0
164 180 0
164 182 0
166 182 0
164 182 0
168 185 0
165 182 0
165 180 0
173 196 0
176 198 0
175 198 0
173 196 0
175 198 0
175 198 0
175 198 0
173 195 0
174 197 0
174 197 0
174 197 0
172 195 0
174 197 0
175 198 0
174 197 0
173 195 0
174 197 0
175 198 0
172 195 0
172 196 0
174 198 0
174 198 0
173 197 0
172 196 0
172 196 0
173 197 0
175 198 0
173 197 0
172 196 0
172 196 0
171 195 0
171 196 0
172 197 0
173 197 0
171 196 0
172 196 0
172 197 0
171 195 0
173 197 0
171 196 0
170 195 0
171 196 0
169 195 0
169 195 0
171 196 0
169 195 0
168 195 0
169 195 0
170 195 0
168 194 0
169 195 0
170 195 0
167 194 0
168 194 0
167 194 0
169 195 0
169 195 0
166 193 0
167 193 0
168 195 0
167 194 0
168 195 0
166 193 0
166 193 0
166 193 0
167 194 0
166 194 0
164 191 0
168 194 0
166 194 0
167 194 0
165 193 0
164 191 0
166 192 0
166 193 0
166 193 0
166 192 0
165 192 0
165 191 0
166 193 0
164 192 0
166 192 0
164 191 0
165 191 0
165 192 0
162 188 0
164 190 0
165 192 0
165 191 0
165 190 0
162 188 0
164 190 0
162 187 0
169 194 0
165 191 0
166 191 0
164 190 0
160 184 0
164 188 0
159 184 0
162 187 0
166 190 0
167 191 0
159 183 0
153 178 0
160 182 0
163 186 0
161 185 0
165 188 0
160 183 0
161 184 0
160 183 0
166 189 0
165 189 0
166 188 0
162 185 0
160 183 0
158 181 0
150 173 0
158 180 0
161 183 0
156 179 0
155 178 0
158 181 0
154 177 0
158 181 0
161 183 0
153 176 0
161 183 0
153 175 0
156 179 0
156 178 0
152 174 0
148 171 0
157 179 0
153 175 0
157 179 0
153 176 0
154 176 0
148 169 0
143 165 0
151 172 0
155 178 0
151 172 0
146 168 0
148 169 0
150 171 0
139 161 0
157 178 0
151 172 0
148 168 0
144 165 0
141 163 0
145 165 0
138 160 0
146 167 0
146 166 0
138 159 0
135 155 0
145 165 0
132 153 0
140 161 0
143 163 0
139 160 0
145 166 0
142 163 0
144 165 0
135 155 0
125 144 0
145 165 0
135 156 0
130 149 0
136 156 0
133 154 0
134 153 0
127 146 0
137 157 0
134 154 0
128 147 0
130 150 0
141 162 0
124 142 0
115 134 0
132 150 0
122 141 0
135 155 0
133 151 0
122 140 0
128 146 0
122 140 0
122 140 0
129 148 0
116 135 0
121 139 0
104 121 0
119 137 0
131 149 0
113 130 0
120 138 0
112 129 0
129 147 0
106 124 0
134 153 0
116 134 0
117 134 0
117 135 0
116 132 0
115 133 0
123 141 0
130 147 0
115 133 0
114 130 0
125 144 0
111 127 0
127 143 0
123 140 0
124 142 0
132 150 0
117 133 0
121 137 0
120 138 0
113 130 0
117 133 0
121 138 0
122 140 0
121 138 0
111 130 0
127 146 0
119 138 0
124 142 0
122 140 0
116 132 0
123 141 0
126 144 0
125 141 0
116 131 0
129 146 0
137 153 0
132 150 0
121 135 0
126 142 0
125 143 0
126 143 0
132 148 0
130 146 0
123 138 0
128 146 0
124 139 0
129 144 0
127 142 0
116 131 0
130 145 0
124 140 0
138 156 0
135 151 0
134 150 0
138 152 0
133 149 0
131 147 0
137 153 0
131 143 0
135 150 0
131 145 0
131 145 0
134 149 0
129 145 0
119 130 0
128 144 0
129 142 0
131 143 0
128 140 0
135 149 0
123 136 0
123 134 0
121 135 0
131 144 0
139 151 0
126 139 0
137 148 0
124 137 0
134 147 0
130 142 0
137 146 0
130 140 0
135 146 0
130 142 0
129 139 0
131 141 0
127 135 0
118 126 0
124 132 0
128 135 0
128 135 0
126 135 0
135 142 0
125 134 0
119 126 0
128 134 0
124 132 0
126 131 0
122 128 0
117 120 0
122 127 0
116 119 0
117 119 0
124 130 0
114 114 0
126 128 0
129 136 0
116 120 0
115 115 0
118 120 0
118 120 0
115 115 0
123 124 0
117 115 0
115 117 0
109 109 0
122 123 0
115 114 0
110 108 0
110 106 0
113 114 0
103 98 0
116 117 0
120 118 0
108 104 0
116 116 0
110 110 0
104 102 0
123 123 0
98 93 0
113 110 0
111 107 0
119 117 0
115 109 0
110 106 0
113 109 0
115 113 0
122 118 0
115 115 0
123 119 0
118 118 0
125 124 0
123 118 0
120 116 0
130 129 0
128 128 0
133 132 0
126 122 0
128 126 0
125 124 0
132 135 0
142 144 0
134 133 0
141 148 0
151 155 0
146 149 0
140 143 0
143 144 0
148 153 0
149 153 0
148 153 0
145 149 0
142 147 0
148 154 0
138 141 0
142 146 0
156 163 0
148 155 0
151 160 0
154 164 0
148 155 0
156 165 0
153 165 0
158 169 0
151 160 0
156 165 0
158 170 0
161 168 0
155 163 0
160 172 0
157 169 0
163 176 0
156 168 0
158 172 0
156 167 0
161 174 0
160 174 0
160 174 0
159 174 0
162 176 0
163 177 0
162 177 0
163 177 0
162 176 0
165 180 0
161 178 0
159 172 0
169 185 0
174 197 0
173 196 0
173 197 0
174 197 0
175 198 0
175 198 0
174 197 0
174 197 0
174 197 0
175 198 0
175 198 0
173 196 0
175 198 0
174 198 0
173 196 0
173 196 0
174 197 0
172 195 0
174 197 0
176 198 0
175 198 0
173 196 0
173 197 0
174 197 0
173 197 0
173 197 0
173 196 0
175 198 0
172 196 0
173 197 0
173 197 0
172 197 0
173 197 0
171 196 0
171 196 0
173 197 0
172 197 0
171 196 0
172 197 0
172 196 0
171 196 0
172 196 0
170 195 0
169 195 0
170 195 0
168 194 0
168 195 0
171 196 0
170 196 0
169 195 0
169 195 0
168 194 0
168 194 0
168 194 0
167 194 0
168 195 0
168 195 0
167 194 0
167 194 0
168 195 0
167 194 0
168 194 0
164 191 0
166 193 0
166 194 0
168 194 0
166 193 0
167 194 0
167 194 0
165 192 0
168 194 0
169 195 0
164 191 0
164 191 0
165 191 0
168 194 0
166 191 0
167 194 0
164 190 0
166 192 0
165 191 0
167 193 0
164 190 0
167 193 0
167 193 0
165 191 0
159 184 0
165 190 0
164 189 0
161 186 0
163 188 0
166 191 0
165 190 0
164 189 0
163 188 0
164 189 0
162 187 0
164 188 0
166 190 0
162 186 0
158 183 0
161 185 0
167 190 0
164 188 0
157 181 0
162 185 0
163 187 0
162 186 0
161 185 0
159 182 0
159 182 0
161 185 0
163 186 0
158 181 0
157 180 0
163 186 0
159 182 0
160 183 0
154 177 0
156 179 0
152 175 0
160 182 0
160 182 0
158 180 0
161 183 0
161 184 0
157 178 0
154 177 0
158 180 0
155 176 0
149 171 0
155 177 0
151 173 0
155 177 0
155 177 0
158 180 0
154 176 0
150 172 0
154 176 0
151 172 0
152 174 0
144 166 0
152 173 0
154 175 0
147 169 0
153 175 0
150 172 0
139 161 0
142 164 0
151 172 0
150 171 0
146 166 0
148 169 0
143 163 0
139 160 0
138 158 0
144 166 0
141 161 0
158 178 0
147 167 0
147 167 0
147 167 0
134 154 0
146 165 0
140 161 0
139 159 0
125 145 0
137 157 0
135 156 0
141 161 0
139 159 0
139 159 0
141 162 0
123 142 0
136 156 0
130 149 0
126 146 0
130 150 0
135 155 0
123 143 0
127 148 0
118 136 0
126 146 0
122 142 0
127 146 0
135 154 0
126 147 0
124 145 0
119 137 0
133 152 0
139 159 0
130 148 0
126 146 0
117 135 0
122 140 0
133 152 0
122 141 0
118 137 0
123 141 0
122 140 0
123 143 0
118 136 0
127 146 0
120 138 0
118 136 0
126 144 0
124 142 0
124 143 0
122 140 0
118 135 0
122 140 0
133 151 0
123 141 0
118 137 0
120 139 0
129 146 0
118 134 0
130 149 0
122 138 0
128 146 0
119 136 0
123 141 0
133 150 0
119 136 0
128 145 0
122 141 0
125 143 0
110 127 0
116 131 0
127 145 0
125 142 0
131 148 0
131 149 0
124 141 0
127 143 0
126 143 0
129 146 0
134 151 0
125 141 0
117 135 0
123 139 0
128 143 0
122 138 0
130 148 0
128 143 0
139 156 0
130 146 0
130 145 0
132 150 0
122 135 0
130 147 0
129 145 0
125 141 0
132 148 0
134 151 0
129 144 0
131 145 0
121 137 0
141 156 0
136 152 0
133 150 0
123 137 0
136 151 0
135 150 0
133 149 0
133 149 0
122 137 0
136 150 0
136 152 0
128 140 0
117 132 0
145 160 0
132 145 0
133 148 0
126 138 0
129 144 0
121 134 0
131 142 0
138 150 0
122 134 0
132 145 0
128 137 0
137 147 0
132 142 0
134 146 0
129 138 0
132 144 0
132 142 0
127 136 0
133 143 0
120 128 0
125 133 0
133 142 0
122 127 0
126 132 0
119 125 0
134 140 0
130 137 0
121 127 0
130 136 0
128 133 0
120 126 0
125 131 0
128 134 0
132 136 0
124 125 0
124 128 0
129 133 0
115 118 0
118 119 0
120 124 0
121 121 0
122 126 0
124 127 0
113 115 0
115 115 0
118 114 0
114 115 0
112 111 0
122 121 0
110 109 0
119 120 0
115 113 0
110 108 0
114 113 0
113 111 0
109 104 0
121 120 0
111 106 0
120 116 0
104 95 0
106 104 0
108 105 0
111 105 0
122 122 0
122 119 0
107 100 0
114 110 0
116 115 0
130 130 0
118 113 0
121 120 0
122 120 0
122 120 0
122 119 0
122 124 0
125 123 0
121 118 0
132 130 0
133 130 0
133 134 0
131 133 0
136 138 0
130 131 0
137 136 0
139 140 0
128 127 0
141 147 0
145 149 0
143 146 0
141 146 0
141 141 0
139 144 0
142 144 0
138 143 0
149 153 0
151 160 0
150 155 0
150 158 0
146 153 0
151 155 0
150 158 0
153 159 0
153 161 0
154 163 0
152 161 0
150 161 0
158 171 0
157 167 0
157 168 0
157 169 0
157 168 0
158 170 0
157 170 0
158 168 0
154 165 0
161 175 0
154 166 0
160 174 0
164 178 0
157 172 0
161 174 0
163 177 0
165 179 0
158 171 0
165 180 0
159 172 0
162 178 0
164 179 0
162 176 0
173 196 0
173 196 0
174 197 0
177 199 0
174 198 0
176 198 0
174 197 0
174 198 0
173 196 0
174 197 0
175 198 0
174 197 0
175 198 0
172 195 0
173 196 0
173 197 0
175 198 0
173 196 0
173 196 0
173 196 0
175 198 0
173 197 0
173 197 0
173 196 0
173 197 0
172 196 0
172 197 0
174 197 0
170 194 0
171 196 0
171 196 0
173 197 0
171 196 0
172 196 0
173 197 0
172 197 0
169 195 0
171 196 0
171 196 0
172 196 0
169 195 0
170 195 0
170 195 0
170 196 0
169 195 0
169 195 0
168 195 0
169 195 0
167 194 0
169 195 0
168 194 0
169 195 0
166 193 0
166 193 0
167 193 0
169 195 0
169 195 0
166 193 0
168 194 0
168 194 0
168 194 0
166 193 0
166 192 0
167 194 0
168 194 0
168 194 0
168 194 0
165 192 0
165 191 0
167 193 0
167 193 0
165 192 0
166 193 0
166 192 0
167 193 0
168 194 0
169 195 0
165 191 0
166 193 0
168 194 0
163 188 0
165 190 0
165 190 0
166 192 0
166 191 0
164 190 0
165 190 0
164 189 0
160 184 0
161 186 0
164 189 0
161 185 0
167 191 0
166 191 0
160 184 0
163 188 0
165 189 0
164 187 0
165 190 0
161 186 0
165 190 0
158 182 0
162 186 0
167 191 0
153 176 0
160 184 0
163 188 0
164 188 0
166 189 0
161 184 0
163 187 0
157 179 0
160 184 0
162 185 0
154 177 0
161 184 0
152 174 0
151 173 0
164 187 0
159 182 0
157 179 0
157 179 0
157 180 0
158 180 0
160 182 0
153 176 0
152 176 0
158 180 0
154 176 0
144 166 0
152 174 0
158 179 0
150 171 0
157 179 0
147 170 0
161 183 0
152 174 0
155 177 0
152 173 0
140 162 0
157 179 0
148 169 0
145 166 0
146 168 0
145 165 0
148 169 0
140 161 0
147 169 0
144 165 0
138 160 0
150 172 0
155 176 0
135 156 0
146 167 0
145 166 0
140 161 0
142 162 0
154 175 0
131 151 0
144 165 0
148 169 0
139 159 0
148 168 0
133 154 0
149 170 0
147 169 0
135 156 0
145 165 0
142 161 0
130 150 0
128 147 0
135 157 0
144 164 0
138 156 0
132 153 0
132 151 0
133 152 0
136 155 0
126 145 0
140 159 0
130 149 0
137 159 0
140 161 0
138 157 0
127 146 0
135 154 0
132 152 0
131 150 0
124 143 0
113 132 0
127 146 0
126 144 0
126 145 0
119 139 0
123 141 0
116 136 0
128 147 0
108 126 0
123 139 0
120 140 0
130 148 0
117 136 0
121 139 0
140 159 0
135 154 0
123 140 0
123 143 0
131 150 0
133 152 0
123 143 0
126 145 0
126 145 0
118 138 0
121 137 0
121 138 0
127 143 0
135 152 0
119 137 0
120 137 0
124 142 0
126 143 0
122 140 0
124 141 0
127 144 0
125 142 0
128 145 0
125 143 0
132 149 0
123 141 0
128 145 0
121 139 0
132 149 0
128 147 0
132 152 0
130 148 0
124 141 0
120 136 0
127 146 0
134 152 0
127 144 0
125 143 0
124 141 0
131 148 0
118 136 0
123 141 0
133 150 0
124 139 0
136 153 0
128 144 0
122 138 0
143 162 0
127 143 0
130 144 0
138 153 0
123 138 0
136 153 0
128 143 0
131 147 0
148 164 0
127 142 0
135 152 0
142 158 0
134 150 0
123 138 0
139 157 0
130 139 0
136 151 0
135 148 0
135 150 0
138 154 0
136 150 0
141 156 0
133 148 0
135 150 0
141 158 0
143 157 0
126 135 0
131 144 0
141 156 0
132 145 0
131 143 0
127 140 0
145 157 0
130 139 0
131 140 0
127 141 0
126 133 0
133 143 0
131 143 0
124 134 0
125 135 0
133 140 0
129 138 0
129 138 0
134 144 0
132 138 0
129 137 0
124 131 0
125 131 0
117 126 0
132 142 0
126 135 0
123 129 0
130 136 0
116 120 0
122 126 0
129 132 0
129 137 0
118 122 0
121 123 0
122 128 0
114 114 0
120 122 0
119 121 0
125 130 0
118 120 0
122 126 0
121 123 0
119 117 0
122 122 0
132 132 0
118 119 0
118 120 0
116 114 0
124 124 0
125 123 0
116 113 0
113 111 0
123 118 0
118 118 0
127 126 0
122 118 0
114 114 0
116 118 0
117 117 0
111 113 0
115 114 0
132 131 0
124 122 0
128 127 0
120 116 0
125 122 0
129 129 0
122 119 0
119 117 0
119 119 0
120 118 0
132 131 0
132 132 0
129 131 0
129 130 0
137 137 0
134 136 0
133 134 0
128 127 0
143 148 0
134 134 0
134 136 0
144 145 0
143 147 0
136 137 0
139 143 0
141 147 0
149 154 0
139 143 0
151 158 0
146 150 0
145 151 0
150 156 0
149 154 0
145 149 0
147 155 0
147 156 0
150 159 0
149 158 0
148 158 0
152 162 0
150 159 0
146 154 0
156 165 0
154 164 0
158 170 0
154 165 0
160 172 0
157 168 0
163 175 0
155 166 0
161 175 0
154 166 0
159 171 0
156 166 0
161 175 0
157 170 0
151 163 0
161 175 0
160 175 0
167 182 0
164 179 0
166 182 0
157 173 0
175 198 0
174 197 0
176 199 0
176 198 0
175 198 0
175 198 0
174 198 0
173 196 0
175 198 0
172 196 0
174 197 0
174 197 0
174 197 0
174 197 0
174 198 0
175 198 0
173 197 0
174 197 0
175 198 0
173 197 0
172 196 0
173 197 0
174 198 0
172 196 0
172 196 0
173 197 0
172 196 0
170 195 0
172 196 0
173 197 0
171 196 0
171 196 0
171 195 0
171 196 0
172 196 0
171 196 0
173 197 0
171 196 0
171 196 0
170 195 0
171 196 0
168 194 0
169 195 0
170 195 0
171 196 0
170 196 0
171 195 0
169 195 0
170 195 0
169 195 0
169 195 0
169 195 0
169 194 0
169 195 0
168 194 0
167 194 0
168 195 0
166 192 0
168 194 0
166 193 0
168 194 0
169 195 0
168 194 0
167 192 0
167 193 0
169 195 0
166 193 0
166 193 0
167 193 0
166 192 0
166 193 0
168 194 0
168 194 0
167 193 0
165 191 0
163 189 0
163 188 0
168 192 0
166 191 0
167 192 0
163 189 0
164 188 0
168 194 0
165 189 0
164 190 0
166 191 0
164 189 0
165 190 0
163 189 0
163 188 0
160 185 0
165 188 0
159 184 0
166 191 0
167 192 0
167 191 0
164 188 0
165 189 0
163 188 0
168 192 0
162 186 0
163 186 0
162 186 0
161 185 0
160 184 0
159 182 0
159 182 0
157 181 0
165 187 0
156 179 0
161 184 0
159 182 0
157 180 0
161 183 0
162 185 0
156 179 0
155 177 0
162 185 0
160 182 0
158 180 0
163 185 0
159 182 0
157 179 0
156 178 0
153 176 0
165 186 0
157 179 0
158 180 0
156 178 0
156 178 0
150 172 0
153 175 0
162 185 0
150 173 0
161 183 0
143 163 0
156 178 0
151 172 0
146 167 0
154 176 0
143 165 0
151 172 0
144 165 0
150 172 0
146 167 0
152 174 0
146 167 0
145 167 0
147 167 0
140 161 0
149 171 0
144 165 0
144 165 0
143 164 0
145 166 0
139 160 0
142 163 0
144 166 0
136 157 0
136 157 0
144 165 0
149 171 0
141 162 0
135 156 0
132 155 0
136 156 0
142 163 0
137 158 0
135 154 0
139 160 0
146 165 0
139 159 0
142 163 0
143 163 0
132 153 0
132 151 0
127 146 0
135 156 0
134 154 0
133 151 0
128 147 0
126 146 0
121 141 0
133 152 0
127 147 0
131 151 0
125 144 0
125 145 0
131 150 0
124 144 0
125 145 0
126 144 0
114 134 0
129 148 0
132 151 0
120 139 0
124 142 0
131 151 0
127 147 0
128 146 0
128 148 0
123 141 0
123 142 0
131 151 0
120 136 0
130 150 0
122 139 0
115 132 0
115 134 0
121 139 0
122 140 0
134 152 0
128 145 0
124 142 0
123 141 0
118 134 0
135 154 0
127 145 0
128 146 0
134 151 0
122 141 0
130 146 0
127 144 0
116 134 0
125 140 0
124 142 0
133 152 0
123 142 0
134 153 0
121 139 0
124 140 0
124 142 0
130 147 0
131 149 0
119 135 0
121 138 0
126 143 0
127 145 0
123 140 0
124 141 0
127 145 0
125 141 0
136 153 0
128 147 0
131 148 0
132 150 0
134 152 0
135 153 0
139 157 0
127 143 0
132 148 0
137 153 0
131 149 0
136 150 0
121 138 0
133 150 0
131 147 0
123 138 0
133 149 0
123 139 0
135 152 0
131 144 0
133 148 0
130 145 0
123 138 0
128 143 0
131 148 0
131 145 0
129 144 0
130 146 0
133 145 0
136 152 0
141 156 0
125 139 0
135 148 0
135 148 0
143 156 0
131 145 0
136 148 0
141 154 0
139 153 0
137 152 0
139 150 0
126 137 0
136 149 0
131 146 0
132 143 0
132 144 0
140 150 0
130 141 0
138 149 0
144 156 0
132 140 0
128 135 0
131 141 0
131 141 0
122 131 0
121 130 0
136 145 0
138 146 0
131 139 0
138 145 0
119 124 0
126 133 0
140 147 0
134 142 0
114 121 0
129 136 0
130 136 0
119 123 0
131 134 0
118 121 0
125 126 0
127 131 0
128 133 0
132 134 0
130 136 0
125 128 0
123 124 0
131 137 0
120 124 0
112 112 0
121 123 0
119 119 0
118 116 0
124 126 0
115 116 0
127 126 0
129 130 0
114 112 0
122 125 0
130 130 0
113 108 0
124 122 0
126 124 0
124 124 0
126 124 0
130 132 0
124 120 0
117 113 0
115 113 0
129 128 0
127 124 0
122 119 0
128 129 0
132 132 0
131 129 0
130 129 0
127 126 0
141 140 0
122 122 0
133 136 0
129 130 0
143 146 0
136 138 0
136 134 0
137 137 0
136 139 0
121 116 0
142 146 0
137 139 0
137 139 0
141 146 0
143 150 0
139 139 0
148 156 0
147 153 0
147 151 0
136 143 0
152 158 0
153 160 0
149 155 0
152 159 0
145 154 0
146 152 0
144 151 0
155 165 0
154 164 0
156 167 0
151 160 0
153 164 0
157 165 0
153 159 0
158 170 0
158 170 0
155 167 0
158 169 0
164 176 0
161 174 0
160 173 0
155 167 0
156 169 0
161 178 0
165 176 0
158 172 0
158 170 0
160 173 0
167 183 0
163 177 0
164 179 0
173 196 0
174 197 0
175 198 0
172 195 0
176 198 0
176 199 0
174 197 0
174 197 0
174 197 0
174 197 0
175 198 0
172 195 0
173 196 0
174 197 0
173 196 0
174 198 0
172 196 0
173 197 0
174 197 0
175 198 0
172 196 0
173 197 0
173 197 0
174 198 0
174 198 0
173 197 0
173 197 0
171 196 0
171 196 0
174 197 0
171 196 0
171 196 0
171 196 0
173 197 0
172 196 0
171 195 0
171 196 0
171 196 0
169 194 0
170 194 0
171 196 0
171 196 0
171 196 0
169 195 0
168 193 0
170 195 0
169 194 0
169 195 0
168 194 0
169 195 0
170 195 0
169 195 0
168 195 0
170 196 0
169 195 0
168 194 0
167 193 0
168 194 0
169 194 0
167 193 0
168 194 0
167 193 0
169 195 0
166 193 0
170 195 0
167 193 0
167 193 0
168 193 0
169 195 0
167 193 0
166 193 0
163 189 0
167 193 0
166 192 0
168 195 0
164 189 0
168 193 0
164 190 0
168 193 0
167 193 0
166 192 0
165 190 0
167 192 0
164 190 0
166 190 0
166 191 0
168 192 0
166 191 0
164 190 0
167 191 0
163 187 0
165 190 0
165 189 0
161 186 0
164 188 0
166 191 0
163 186 0
162 186 0
164 187 0
169 193 0
157 180 0
161 183 0
165 189 0
166 189 0
157 180 0
166 189 0
165 189 0
163 186 0
160 182 0
158 181 0
158 182 0
162 185 0
156 179 0
159 182 0
158 180 0
156 178 0
159 182 0
158 181 0
157 179 0
164 186 0
155 178 0
153 177 0
160 182 0
161 183 0
159 181 0
163 184 0
159 182 0
157 179 0
158 181 0
149 172 0
156 178 0
162 184 0
156 178 0
158 181 0
160 182 0
157 179 0
150 172 0
151 173 0
153 175 0
154 175 0
163 186 0
155 178 0
160 181 0
152 173 0
138 160 0
151 172 0
151 172 0
146 167 0
149 171 0
149 170 0
146 168 0
147 168 0
154 176 0
143 165 0
147 168 0
149 171 0
143 164 0
145 167 0
140 161 0
145 165 0
138 159 0
137 158 0
137 156 0
135 157 0
140 160 0
148 169 0
137 157 0
148 170 0
143 164 0
133 153 0
136 157 0
141 162 0
135 156 0
136 155 0
132 153 0
138 159 0
129 150 0
137 158 0
135 154 0
130 151 0
136 157 0
139 158 0
128 148 0
132 153 0
131 151 0
143 161 0
120 140 0
130 149 0
134 155 0
136 156 0
142 161 0
124 143 0
138 157 0
117 137 0
129 149 0
128 147 0
118 138 0
131 150 0
128 148 0
125 145 0
135 153 0
131 149 0
132 151 0
132 151 0
130 147 0
131 150 0
122 140 0
128 148 0
119 138 0
138 155 0
133 153 0
126 146 0
121 139 0
140 160 0
122 142 0
127 146 0
132 152 0
126 143 0
128 147 0
123 141 0
121 140 0
132 150 0
122 141 0
132 151 0
121 140 0
127 144 0
126 144 0
128 146 0
126 144 0
120 137 0
130 148 0
123 142 0
135 154 0
133 150 0
131 148 0
133 152 0
137 156 0
132 149 0
134 152 0
129 147 0
130 146 0
130 147 0
130 147 0
124 142 0
124 138 0
120 137 0
124 138 0
136 153 0
132 149 0
135 151 0
132 149 0
134 151 0
132 149 0
144 162 0
137 152 0
139 157 0
127 141 0
134 149 0
130 146 0
141 157 0
142 159 0
135 153 0
135 150 0
132 148 0
129 145 0
137 152 0
134 147 0
126 140 0
140 153 0
131 145 0
141 158 0
130 142 0
131 147 0
137 155 0
138 152 0
137 150 0
131 146 0
130 146 0
133 147 0
141 155 0
126 141 0
137 150 0
146 161 0
137 150 0
137 147 0
129 139 0
138 151 0
136 148 0
133 146 0
129 142 0
135 145 0
139 150 0
129 140 0
131 141 0
129 137 0
132 144 0
130 140 0
129 136 0
131 139 0
135 143 0
136 143 0
133 143 0
124 132 0
128 134 0
135 145 0
131 140 0
136 146 0
131 135 0
134 140 0
132 138 0
130 136 0
131 138 0
134 140 0
132 135 0
127 133 0
120 127 0
123 126 0
124 129 0
119 118 0
120 126 0
127 129 0
130 133 0
126 125 0
123 123 0
121 123 0
131 134 0
122 126 0
129 132 0
131 134 0
123 125 0
137 137 0
129 128 0
130 132 0
116 115 0
118 116 0
119 116 0
129 129 0
122 121 0
131 130 0
128 129 0
123 123 0
129 128 0
121 124 0
133 133 0
126 126 0
123 123 0
132 132 0
128 129 0
131 136 0
121 122 0
130 130 0
131 128 0
133 134 0
138 140 0
126 127 0
127 128 0
128 131 0
139 143 0
143 146 0
136 141 0
137 138 0
138 140 0
136 136 0
140 143 0
143 147 0
141 144 0
145 150 0
140 145 0
140 142 0
153 159 0
145 149 0
149 155 0
145 151 0
145 151 0
144 151 0
146 154 0
150 156 0
149 157 0
150 159 0
156 165 0
158 169 0
154 163 0
153 162 0
159 170 0
155 165 0
156 166 0
152 161 0
157 170 0
158 169 0
162 175 0
151 162 0
158 169 0
162 171 0
160 174 0
156 167 0
157 169 0
162 173 0
152 165 0
163 176 0
159 173 0
175 198 0
174 197 0
174 197 0
175 198 0
176 198 0
172 196 0
173 196 0
174 197 0
174 197 0
174 198 0
175 198 0
174 198 0
173 197 0
173 197 0
174 198 0
174 198 0
174 198 0
173 197 0
173 197 0
172 196 0
173 197 0
172 197 0
173 197 0
173 197 0
173 197 0
173 197 0
173 197 0
172 196 0
172 196 0
173 197 0
172 197 0
172 196 0
172 197 0
171 196 0
170 196 0
171 196 0
171 196 0
170 195 0
171 196 0
171 196 0
170 195 0
168 195 0
170 195 0
170 196 0
170 196 0
169 195 0
171 196 0
169 194 0
170 195 0
168 195 0
169 195 0
169 195 0
167 194 0
169 195 0
168 194 0
169 195 0
168 194 0
166 192 0
166 192 0
168 193 0
167 194 0
167 192 0
167 194 0
169 194 0
168 194 0
170 195 0
167 192 0
167 193 0
168 193 0
165 191 0
167 192 0
167 192 0
167 193 0
167 192 0
167 191 0
166 191 0
163 189 0
168 194 0
167 191 0
165 190 0
161 186 0
167 192 0
166 190 0
163 187 0
163 188 0
165 190 0
168 193 0
164 188 0
166 190 0
164 189 0
166 190 0
165 189 0
167 190 0
161 185 0
170 194 0
165 189 0
160 184 0
161 184 0
168 191 0
167 191 0
163 186 0
164 188 0
160 184 0
155 178 0
162 185 0
168 191 0
163 186 0
161 184 0
164 186 0
164 187 0
162 186 0
160 183 0
155 178 0
158 180 0
156 179 0
159 182 0
163 185 0
159 181 0
160 183 0
160 182 0
159 181 0
155 176 0
153 176 0
155 177 0
160 182 0
159 181 0
155 178 0
162 185 0
158 180 0
161 184 0
156 178 0
154 177 0
150 172 0
152 174 0
147 169 0
149 170 0
159 181 0
154 175 0
153 175 0
153 175 0
156 178 0
158 180 0
142 164 0
151 174 0
151 173 0
151 173 0
150 172 0
143 164 0
149 171 0
146 167 0
153 174 0
149 169 0
144 165 0
147 169 0
140 161 0
151 172 0
144 166 0
149 170 0
145 165 0
144 164 0
149 170 0
145 165 0
137 158 0
134 155 0
139 159 0
146 167 0
141 161 0
140 161 0
144 164 0
139 159 0
135 156 0
144 165 0
134 155 0
143 164 0
139 160 0
129 149 0
135 155 0
127 147 0
137 157 0
142 163 0
140 161 0
134 154 0
134 155 0
130 150 0
127 148 0
123 142 0
137 158 0
130 150 0
126 147 0
132 151 0
133 152 0
134 154 0
130 150 0
140 159 0
129 150 0
137 156 0
128 147 0
127 146 0
129 149 0
126 145 0
142 161 0
134 154 0
126 145 0
131 150 0
118 138 0
126 145 0
140 160 0
127 144 0
122 139 0
132 152 0
126 143 0
134 151 0
125 143 0
134 151 0
126 145 0
125 143 0
121 140 0
127 146 0
130 147 0
121 137 0
122 140 0
128 146 0
130 149 0
128 147 0
127 148 0
130 147 0
120 139 0
132 151 0
125 143 0
133 151 0
127 145 0
136 154 0
133 150 0
129 148 0
131 147 0
132 151 0
130 148 0
125 143 0
132 152 0
131 149 0
126 142 0
133 152 0
126 144 0
132 148 0
125 140 0
128 145 0
133 149 0
144 161 0
139 155 0
133 150 0
120 135 0
133 147 0
138 155 0
149 167 0
128 146 0
135 153 0
128 144 0
133 146 0
137 153 0
128 146 0
137 154 0
135 151 0
128 145 0
136 153 0
140 154 0
133 147 0
140 156 0
140 154 0
134 150 0
140 159 0
138 153 0
133 149 0
145 161 0
142 160 0
145 160 0
133 149 0
126 139 0
129 143 0
133 147 0
126 138 0
129 139 0
132 147 0
130 142 0
129 141 0
128 142 0
137 150 0
133 147 0
139 152 0
137 152 0
131 141 0
130 141 0
139 152 0
124 134 0
131 142 0
127 137 0
136 143 0
135 144 0
137 143 0
134 145 0
131 141 0
133 144 0
137 149 0
132 140 0
137 143 0
126 133 0
133 137 0
136 144 0
130 137 0
130 135 0
127 134 0
131 136 0
125 129 0
126 130 0
130 135 0
135 140 0
136 142 0
135 144 0
134 135 0
140 145 0
131 136 0
128 130 0
128 127 0
128 129 0
125 128 0
135 141 0
141 146 0
123 124 0
127 129 0
124 127 0
125 126 0
133 136 0
123 124 0
128 127 0
123 121 0
134 135 0
135 136 0
123 123 0
122 121 0
122 120 0
131 132 0
127 128 0
126 125 0
125 127 0
138 139 0
133 135 0
128 127 0
132 132 0
130 131 0
131 130 0
126 123 0
133 135 0
131 132 0
120 117 0
135 138 0
129 131 0
137 138 0
137 140 0
134 135 0
132 128 0
131 133 0
139 141 0
137 141 0
144 148 0
152 156 0
145 147 0
146 149 0
148 153 0
136 139 0
145 152 0
150 156 0
145 149 0
146 150 0
144 150 0
148 154 0
152 158 0
148 157 0
151 157 0
156 165 0
151 157 0
153 161 0
152 163 0
156 166 0
146 153 0
149 159 0
157 169 0
153 163 0
154 162 0
153 163 0
150 157 0
157 168 0
154 166 0
151 160 0
160 174 0
159 171 0
158 170 0
161 173 0
158 171 0
158 172 0
159 171 0
162 176 0
175 198 0
175 198 0
175 198 0
175 198 0
175 198 0
173 197 0
175 198 0
174 198 0
174 197 0
174 198 0
174 197 0
174 198 0
173 197 0
174 198 0
172 196 0
171 196 0
172 196 0
175 198 0
172 196 0
174 197 0
171 196 0
173 197 0
173 197 0
172 196 0
172 196 0
171 196 0
174 197 0
172 197 0
173 197 0
172 196 0
172 197 0
171 196 0
170 195 0
171 196 0
173 197 0
172 196 0
171 196 0
172 196 0
171 196 0
171 196 0
170 195 0
170 196 0
167 193 0
171 196 0
169 195 0
169 195 0
168 194 0
170 195 0
168 194 0
168 194 0
169 195 0
167 192 0
170 196 0
166 192 0
168 195 0
169 195 0
169 194 0
169 194 0
167 193 0
167 194 0
167 193 0
167 193 0
168 192 0
166 192 0
167 193 0
165 191 0
166 192 0
166 191 0
166 191 0
168 193 0
167 192 0
167 194 0
166 191 0
166 191 0
166 190 0
169 194 0
170 195 0
168 192 0
164 188 0
165 189 0
160 185 0
166 191 0
161 186 0
168 192 0
165 189 0
165 189 0
159 183 0
161 185 0
161 184 0
162 187 0
162 186 0
160 183 0
161 185 0
167 192 0
170 193 0
165 189 0
165 188 0
158 181 0
162 186 0
161 184 0
161 184 0
161 185 0
159 182 0
165 189 0
166 189 0
161 184 0
164 186 0
155 178 0
160 183 0
162 185 0
166 188 0
155 178 0
162 185 0
159 182 0
154 176 0
160 183 0
162 184 0
156 178 0
160 183 0
158 180 0
165 187 0
159 182 0
157 180 0
159 181 0
151 174 0
156 178 0
161 183 0
159 180 0
155 177 0
144 165 0
154 176 0
152 174 0
155 176 0
155 177 0
159 182 0
154 176 0
153 175 0
162 184 0
154 176 0
153 174 0
153 174 0
153 174 0
157 178 0
147 168 0
146 167 0
154 176 0
153 174 0
146 167 0
150 172 0
151 172 0
146 167 0
146 168 0
134 156 0
146 167 0
143 165 0
143 164 0
139 160 0
150 172 0
149 171 0
136 156 0
151 171 0
149 169 0
153 175 0
154 175 0
141 162 0
137 158 0
143 164 0
136 156 0
138 160 0
146 166 0
134 154 0
139 159 0
134 155 0
132 153 0
141 160 0
132 152 0
140 160 0
127 148 0
144 164 0
144 165 0
136 156 0
133 153 0
130 150 0
133 153 0
141 162 0
136 156 0
127 149 0
140 159 0
126 146 0
137 156 0
135 154 0
131 152 0
130 150 0
137 156 0
136 156 0
133 153 0
135 155 0
124 143 0
135 154 0
130 149 0
132 152 0
139 158 0
133 153 0
134 153 0
134 153 0
124 143 0
129 149 0
130 150 0
133 152 0
139 158 0
129 149 0
117 137 0
129 149 0
131 151 0
122 139 0
132 150 0
129 148 0
138 156 0
132 151 0
137 156 0
126 145 0
131 150 0
129 148 0
130 149 0
132 151 0
118 135 0
136 156 0
134 152 0
134 152 0
136 156 0
126 144 0
136 154 0
126 143 0
127 146 0
129 145 0
130 149 0
128 147 0
142 160 0
135 153 0
130 148 0
137 154 0
140 157 0
129 148 0
134 153 0
130 148 0
123 141 0
126 145 0
129 145 0
136 153 0
134 152 0
138 156 0
129 146 0
135 150 0
134 152 0
133 151 0
127 144 0
148 165 0
132 149 0
141 160 0
136 151 0
142 160 0
135 151 0
135 151 0
129 146 0
141 159 0
135 150 0
132 148 0
136 150 0
134 150 0
142 159 0
136 150 0
130 145 0
138 155 0
137 150 0
129 144 0
139 154 0
140 156 0
130 144 0
130 146 0
139 152 0
136 150 0
140 154 0
138 153 0
134 148 0
138 152 0
136 149 0
151 167 0
135 148 0
133 144 0
137 150 0
137 147 0
133 142 0
128 138 0
142 152 0
135 145 0
143 155 0
125 133 0
136 149 0
138 148 0
132 144 0
137 146 0
133 141 0
138 146 0
134 143 0
135 145 0
142 151 0
130 139 0
134 142 0
140 146 0
131 139 0
140 148 0
129 135 0
143 151 0
127 132 0
133 139 0
126 130 0
140 147 0
131 135 0
132 137 0
128 135 0
137 143 0
133 136 0
128 133 0
120 124 0
124 128 0
128 132 0
130 135 0
129 131 0
129 132 0
124 124 0
126 132 0
131 134 0
130 132 0
130 130 0
129 130 0
125 125 0
130 131 0
132 132 0
132 131 0
132 134 0
122 123 0
128 128 0
137 141 0
131 133 0
131 131 0
131 132 0
128 131 0
135 137 0
133 135 0
131 134 0
123 128 0
133 136 0
144 146 0
130 131 0
128 127 0
129 132 0
139 142 0
135 137 0
140 143 0
130 129 0
135 139 0
138 142 0
146 152 0
137 139 0
145 151 0
138 143 0
140 146 0
143 148 0
148 153 0
142 147 0
142 147 0
139 143 0
150 157 0
143 149 0
156 164 0
153 162 0
147 154 0
154 162 0
151 161 0
145 152 0
148 155 0
156 165 0
156 165 0
155 165 0
157 170 0
159 169 0
156 167 0
152 162 0
154 163 0
153 162 0
159 170 0
158 170 0
157 168 0
154 165 0
161 173 0
161 174 0
156 166 0
158 171 0
158 170 0
161 173 0
174 197 0
174 198 0
175 198 0
173 197 0
173 196 0
173 197 0
175 198 0
173 196 0
174 197 0
174 197 0
173 197 0
174 197 0
173 197 0
174 197 0
173 197 0
175 198 0
172 197 0
172 197 0
174 198 0
173 197 0
174 198 0
173 197 0
174 197 0
173 197 0
170 195 0
171 196 0
172 196 0
173 197 0
172 196 0
172 197 0
171 196 0
171 196 0
170 194 0
170 195 0
171 196 0
169 195 0
170 196 0
171 196 0
172 197 0
170 195 0
170 195 0
171 196 0
172 196 0
168 194 0
170 195 0
171 196 0
169 195 0
171 196 0
169 194 0
170 195 0
167 193 0
168 194 0
169 195 0
170 195 0
168 193 0
167 193 0
169 195 0
168 193 0
169 194 0
166 191 0
167 192 0
167 192 0
168 194 0
171 196 0
165 191 0
169 194 0
166 191 0
166 191 0
168 193 0
168 192 0
165 190 0
167 193 0
166 192 0
163 187 0
161 186 0
165 190 0
166 190 0
170 194 0
166 191 0
167 192 0
167 191 0
168 192 0
164 188 0
168 192 0
169 193 0
166 190 0
167 191 0
163 186 0
162 186 0
165 189 0
163 186 0
164 188 0
163 187 0
166 189 0
164 187 0
164 187 0
163 187 0
165 188 0
161 184 0
160 183 0
167 190 0
164 187 0
164 188 0
165 188 0
160 183 0
155 178 0
161 183 0
159 182 0
163 186 0
158 182 0
158 181 0
161 184 0
160 183 0
164 187 0
157 180 0
154 177 0
158 179 0
160 182 0
161 183 0
155 177 0
150 172 0
163 186 0
159 180 0
161 184 0
159 182 0
154 176 0
162 185 0
157 179 0
151 172 0
153 175 0
158 179 0
154 176 0
155 177 0
153 174 0
155 177 0
159 181 0
150 172 0
154 176 0
145 168 0
158 180 0
152 173 0
152 174 0
150 173 0
152 173 0
154 176 0
150 172 0
148 169 0
143 165 0
146 167 0
143 164 0
148 170 0
144 166 0
143 164 0
146 166 0
148 169 0
153 173 0
151 173 0
152 174 0
150 171 0
149 169 0
134 154 0
143 165 0
147 168 0
147 167 0
149 171 0
146 166 0
138 159 0
145 165 0
148 167 0
139 159 0
136 157 0
147 166 0
135 156 0
145 166 0
138 158 0
141 163 0
125 145 0
136 157 0
131 150 0
144 164 0
140 160 0
140 160 0
135 153 0
129 149 0
131 151 0
124 144 0
134 153 0
128 149 0
136 155 0
130 151 0
126 146 0
131 149 0
136 157 0
133 154 0
135 154 0
132 151 0
133 151 0
131 151 0
130 148 0
133 152 0
128 147 0
135 154 0
136 156 0
135 155 0
116 135 0
132 150 0
128 149 0
135 153 0
135 154 0
129 148 0
135 154 0
133 153 0
123 142 0
133 152 0
133 151 0
125 143 0
133 153 0
126 145 0
125 143 0
131 149 0
136 156 0
136 154 0
131 150 0
125 143 0
127 147 0
136 155 0
136 155 0
143 161 0
123 142 0
138 157 0
126 144 0
124 142 0
141 158 0
130 147 0
139 157 0
133 152 0
131 148 0
126 143 0
124 143 0
139 157 0
125 142 0
136 156 0
135 154 0
135 153 0
142 161 0
131 148 0
138 155 0
135 153 0
146 164 0
135 153 0
126 144 0
138 155 0
146 163 0
141 160 0
134 150 0
138 157 0
135 152 0
122 135 0
140 157 0
135 149 0
130 146 0
131 147 0
129 145 0
130 146 0
130 144 0
135 153 0
138 155 0
130 145 0
131 146 0
133 149 0
130 144 0
138 153 0
133 150 0
136 152 0
140 154 0
140 157 0
140 155 0
131 145 0
130 144 0
138 154 0
132 145 0
145 162 0
140 154 0
135 149 0
135 149 0
123 135 0
140 153 0
133 147 0
127 138 0
142 155 0
147 161 0
137 152 0
140 153 0
130 140 0
138 150 0
130 142 0
142 154 0
136 145 0
143 156 0
127 137 0
129 138 0
136 148 0
135 146 0
144 157 0
144 153 0
130 139 0
138 147 0
136 144 0
127 133 0
135 144 0
138 146 0
138 145 0
136 146 0
139 149 0
140 147 0
131 139 0
135 140 0
138 148 0
133 138 0
131 136 0
126 131 0
136 145 0
137 141 0
145 151 0
120 123 0
130 131 0
118 120 0
137 141 0
135 140 0
129 133 0
128 134 0
132 137 0
131 131 0
142 144 0
128 131 0
128 129 0
134 137 0
141 146 0
133 137 0
130 132 0
132 132 0
133 138 0
134 135 0
130 130 0
128 129 0
134 135 0
126 127 0
118 116 0
133 136 0
133 135 0
122 123 0
144 147 0
143 146 0
132 130 0
130 134 0
134 133 0
137 140 0
139 141 0
143 146 0
144 146 0
143 146 0
139 139 0
139 140 0
142 145 0
147 148 0
142 145 0
146 153 0
142 144 0
150 155 0
144 150 0
143 147 0
153 158 0
141 147 0
146 152 0
147 154 0
142 148 0
150 155 0
150 156 0
148 156 0
145 151 0
153 160 0
152 162 0
152 160 0
153 162 0
149 160 0
150 158 0
157 168 0
158 169 0
155 163 0
155 165 0
151 159 0
157 168 0
163 177 0
160 174 0
156 168 0
156 167 0
161 174 0
159 170 0
155 166 0
161 176 0
175 198 0
175 198 0
175 198 0
172 196 0
175 197 0
175 198 0
174 197 0
174 197 0
173 197 0
174 197 0
173 197 0
173 197 0
173 197 0
173 197 0
173 197 0
171 196 0
173 196 0
174 198 0
171 195 0
173 197 0
173 197 0
174 198 0
172 196 0
173 197 0
171 196 0
172 196 0
171 196 0
172 197 0
170 195 0
171 196 0
172 197 0
171 195 0
171 196 0
172 196 0
170 195 0
171 196 0
169 194 0
171 195 0
169 194 0
171 195 0
170 194 0
168 193 0
171 195 0
171 196 0
169 195 0
170 195 0
167 193 0
170 196 0
170 194 0
167 192 0
171 196 0
169 194 0
169 194 0
170 195 0
170 194 0
169 195 0
168 194 0
168 193 0
168 193 0
169 194 0
168 193 0
170 195 0
168 193 0
166 192 0
170 194 0
168 193 0
167 192 0
167 192 0
166 191 0
165 190 0
166 190 0
168 193 0
165 191 0
168 193 0
171 195 0
165 190 0
167 191 0
166 190 0
167 191 0
170 194 0
163 188 0
166 191 0
165 189 0
167 191 0
167 192 0
160 184 0
170 193 0
165 189 0
168 192 0
167 191 0
166 190 0
162 185 0
163 187 0
163 187 0
160 183 0
161 184 0
168 191 0
165 188 0
159 182 0
160 183 0
163 186 0
164 188 0
160 183 0
161 184 0
162 186 0
166 188 0
165 187 0
157 180 0
167 190 0
162 185 0
160 183 0
162 185 0
159 182 0
160 183 0
156 179 0
159 182 0
162 184 0
159 181 0
161 184 0
159 181 0
150 173 0
166 188 0
161 183 0
164 187 0
160 182 0
157 179 0
152 173 0
153 175 0
155 178 0
157 179 0
148 170 0
153 175 0
158 181 0
150 172 0
154 177 0
161 184 0
147 169 0
152 174 0
144 167 0
147 167 0
153 175 0
152 175 0
151 172 0
156 177 0
155 177 0
151 172 0
153 175 0
153 175 0
155 177 0
152 172 0
146 167 0
155 176 0
150 172 0
153 173 0
152 175 0
147 168 0
142 164 0
145 167 0
150 171 0
150 172 0
143 165 0
146 165 0
148 170 0
144 164 0
146 166 0
139 158 0
149 171 0
140 160 0
146 167 0
141 162 0
142 162 0
141 162 0
143 163 0
139 161 0
140 159 0
150 171 0
153 174 0
135 155 0
146 166 0
137 157 0
137 157 0
143 163 0
130 150 0
141 161 0
146 167 0
144 163 0
134 154 0
125 145 0
137 158 0
133 153 0
138 158 0
138 158 0
131 150 0
131 152 0
136 157 0
141 162 0
129 147 0
143 163 0
131 150 0
135 154 0
138 157 0
133 151 0
134 152 0
128 147 0
131 150 0
132 150 0
124 142 0
136 155 0
131 150 0
126 146 0
134 153 0
134 153 0
138 158 0
133 153 0
117 135 0
135 155 0
131 151 0
134 152 0
128 148 0
131 150 0
129 148 0
135 154 0
120 139 0
137 155 0
130 148 0
142 161 0
130 148 0
135 153 0
140 160 0
125 143 0
133 151 0
139 159 0
138 156 0
141 161 0
138 158 0
127 146 0
126 144 0
136 154 0
140 157 0
131 150 0
135 153 0
141 157 0
133 152 0
137 153 0
136 154 0
137 154 0
135 154 0
133 152 0
139 156 0
134 152 0
140 158 0
137 155 0
137 157 0
136 152 0
140 158 0
138 155 0
144 161 0
137 154 0
138 154 0
135 151 0
144 163 0
141 156 0
142 159 0
130 146 0
135 152 0
133 150 0
135 151 0
131 146 0
138 154 0
139 155 0
136 152 0
138 157 0
139 156 0
134 148 0
146 161 0
136 153 0
128 142 0
134 149 0
142 156 0
136 150 0
130 147 0
135 150 0
138 155 0
140 153 0
130 143 0
140 153 0
138 150 0
132 142 0
136 149 0
147 166 0
146 160 0
142 156 0
133 144 0
144 157 0
135 150 0
137 147 0
134 145 0
134 146 0
137 148 0
140 153 0
143 152 0
128 137 0
138 147 0
147 158 0
137 146 0
129 138 0
126 135 0
131 140 0
134 144 0
130 137 0
141 150 0
137 146 0
131 139 0
135 141 0
124 131 0
142 151 0
143 151 0
132 140 0
139 149 0
129 137 0
133 139 0
139 149 0
137 146 0
129 132 0
141 149 0
127 132 0
134 140 0
130 133 0
130 133 0
134 139 0
133 138 0
130 136 0
127 130 0
136 138 0
137 146 0
132 138 0
134 137 0
135 140 0
137 141 0
138 143 0
143 147 0
134 134 0
126 125 0
129 131 0
131 133 0
136 136 0
144 148 0
139 142 0
141 146 0
135 137 0
128 128 0
138 140 0
132 135 0
131 132 0
137 140 0
141 146 0
132 136 0
138 142 0
131 135 0
144 149 0
138 140 0
140 145 0
144 147 0
148 152 0
138 143 0
139 141 0
149 154 0
133 136 0
142 146 0
138 142 0
145 150 0
140 140 0
146 151 0
140 146 0
143 148 0
143 150 0
143 150 0
151 159 0
146 150 0
146 153 0
158 169 0
155 167 0
142 148 0
151 157 0
153 163 0
158 168 0
146 155 0
150 160 0
154 165 0
151 159 0
149 159 0
151 165 0
155 168 0
155 166 0
157 166 0
156 167 0
156 165 0
155 166 0
155 165 0
164 179 0
173 197 0
174 198 0
176 199 0
175 197 0
175 198 0
174 198 0
174 198 0
174 198 0
173 197 0
173 197 0
173 197 0
173 196 0
174 197 0
174 197 0
173 197 0
173 197 0
174 197 0
172 197 0
175 198 0
172 197 0
172 196 0
173 197 0
172 196 0
173 196 0
173 197 0
173 197 0
168 193 0
172 197 0
171 196 0
172 197 0
170 195 0
171 196 0
171 195 0
171 195 0
171 196 0
170 195 0
170 195 0
170 196 0
167 192 0
171 196 0
171 196 0
169 195 0
169 194 0
170 195 0
171 196 0
169 195 0
169 194 0
170 195 0
171 195 0
169 194 0
171 196 0
169 195 0
168 193 0
169 194 0
170 195 0
168 193 0
168 193 0
167 192 0
169 194 0
170 195 0
168 193 0
171 195 0
168 194 0
170 195 0
170 194 0
169 194 0
167 193 0
166 190 0
168 193 0
168 192 0
168 193 0
165 190 0
167 193 0
170 194 0
166 191 0
165 189 0
170 194 0
166 191 0
169 192 0
165 188 0
166 191 0
165 189 0
167 191 0
164 188 0
167 191 0
168 192 0
162 186 0
168 191 0
165 189 0
167 191 0
162 186 0
163 185 0
166 189 0
160 184 0
164 188 0
169 192 0
160 183 0
158 181 0
162 186 0
169 192 0
161 184 0
160 184 0
158 181 0
164 187 0
172 195 0
161 184 0
159 181 0
163 185 0
161 184 0
163 185 0
159 181 0
157 179 0
161 183 0
156 179 0
157 178 0
156 179 0
159 181 0
148 170 0
156 178 0
154 176 0
166 189 0
161 184 0
155 177 0
158 180 0
159 181 0
155 177 0
164 186 0
155 177 0
153 175 0
155 176 0
154 175 0
156 178 0
158 180 0
160 182 0
157 178 0
153 176 0
152 174 0
161 184 0
164 184 0
146 167 0
157 180 0
151 173 0
154 175 0
152 174 0
157 179 0
152 174 0
152 173 0
152 173 0
152 174 0
151 172 0
153 174 0
146 168 0
155 177 0
152 175 0
149 169 0
147 167 0
145 165 0
154 175 0
149 171 0
148 168 0
143 164 0
141 161 0
142 162 0
146 167 0
139 160 0
143 165 0
147 168 0
139 161 0
147 169 0
151 172 0
135 155 0
141 162 0
131 151 0
141 162 0
135 156 0
135 157 0
147 169 0
139 159 0
142 162 0
142 162 0
144 164 0
137 158 0
140 160 0
143 164 0
137 157 0
142 161 0
134 155 0
137 157 0
133 154 0
141 161 0
135 155 0
138 156 0
143 164 0
137 157 0
138 159 0
145 165 0
127 145 0
130 149 0
137 157 0
132 152 0
126 145 0
142 162 0
132 152 0
132 150 0
140 160 0
127 146 0
127 148 0
127 147 0
134 153 0
137 158 0
133 150 0
142 160 0
136 156 0
125 145 0
137 157 0
140 158 0
133 152 0
135 155 0
137 156 0
133 153 0
136 155 0
137 157 0
139 158 0
133 153 0
139 158 0
130 147 0
141 159 0
138 157 0
134 154 0
133 151 0
135 155 0
138 156 0
134 153 0
134 151 0
135 154 0
128 144 0
137 154 0
139 157 0
124 142 0
131 149 0
135 154 0
129 146 0
128 143 0
128 144 0
137 156 0
137 156 0
133 152 0
137 154 0
130 146 0
125 142 0
143 162 0
132 148 0
131 148 0
141 157 0
139 155 0
134 152 0
145 163 0
144 162 0
136 151 0
132 150 0
129 146 0
137 153 0
136 154 0
140 157 0
142 160 0
127 142 0
133 149 0
143 160 0
137 155 0
141 156 0
140 155 0
130 145 0
138 154 0
135 150 0
142 159 0
141 158 0
130 147 0
142 158 0
135 150 0
132 145 0
140 155 0
140 156 0
146 163 0
128 141 0
135 147 0
138 151 0
135 149 0
132 147 0
136 148 0
127 140 0
142 156 0
131 142 0
134 147 0
146 159 0
137 150 0
131 139 0
139 149 0
145 160 0
128 138 0
140 153 0
135 145 0
139 150 0
140 150 0
136 146 0
137 149 0
135 146 0
134 144 0
144 155 0
138 149 0
126 135 0
140 150 0
135 146 0
132 142 0
131 140 0
133 143 0
126 135 0
138 146 0
130 139 0
121 126 0
140 148 0
132 141 0
128 132 0
136 143 0
135 137 0
137 145 0
132 138 0
143 153 0
140 147 0
133 140 0
137 142 0
143 149 0
130 134 0
143 149 0
136 140 0
137 142 0
130 136 0
134 136 0
138 139 0
141 145 0
132 131 0
134 140 0
134 137 0
134 138 0
125 124 0
143 146 0
139 143 0
134 137 0
129 133 0
134 135 0
148 153 0
136 138 0
145 148 0
137 142 0
132 136 0
130 132 0
130 132 0
133 134 0
138 139 0
136 138 0
135 138 0
146 152 0
134 135 0
134 136 0
143 147 0
141 147 0
140 146 0
143 148 0
138 143 0
147 154 0
139 147 0
142 147 0
145 150 0
145 152 0
143 150 0
148 155 0
151 157 0
144 150 0
150 158 0
147 155 0
149 155 0
150 154 0
150 157 0
149 155 0
149 156 0
149 156 0
150 157 0
155 163 0
154 163 0
158 170 0
153 163 0
154 163 0
151 156 0
159 173 0
157 168 0
159 171 0
153 160 0
157 168 0
160 174 0
153 163 0
158 170 0
174 197 0
173 197 0
176 199 0
174 197 0
174 198 0
174 198 0
173 197 0
174 198 0
174 198 0
174 198 0
174 198 0
173 197 0
173 197 0
173 197 0
174 198 0
173 197 0
173 197 0
171 194 0
171 196 0
173 197 0
173 197 0
173 197 0
172 197 0
173 197 0
173 197 0
175 198 0
172 197 0
172 197 0
172 197 0
172 196 0
172 197 0
171 196 0
172 197 0
172 196 0
170 195 0
170 195 0
171 196 0
169 194 0
170 195 0
170 195 0
169 194 0
170 195 0
168 194 0
172 196 0
169 194 0
170 195 0
170 195 0
170 195 0
169 194 0
166 191 0
169 194 0
170 195 0
169 194 0
169 194 0
169 194 0
168 193 0
166 191 0
169 194 0
167 192 0
166 190 0
168 193 0
167 192 0
165 191 0
168 193 0
170 195 0
169 194 0
167 192 0
167 191 0
167 192 0
167 191 0
166 190 0
169 194 0
168 192 0
162 186 0
167 191 0
166 190 0
168 191 0
166 190 0
164 189 0
168 192 0
163 187 0
162 186 0
165 189 0
170 193 0
164 188 0
165 189 0
167 191 0
164 187 0
169 192 0
165 189 0
165 188 0
169 192 0
165 189 0
163 186 0
166 189 0
162 186 0
163 186 0
161 184 0
161 184 0
160 182 0
162 185 0
159 182 0
160 183 0
161 184 0
165 187 0
161 184 0
164 186 0
160 183 0
164 186 0
158 181 0
157 179 0
159 180 0
164 187 0
150 172 0
160 182 0
154 176 0
162 184 0
163 185 0
163 185 0
159 181 0
160 182 0
161 183 0
156 178 0
156 178 0
165 187 0
158 180 0
157 180 0
154 177 0
155 177 0
165 186 0
154 176 0
148 169 0
155 177 0
153 175 0
156 179 0
155 177 0
159 181 0
146 168 0
154 176 0
154 175 0
152 173 0
153 176 0
151 173 0
155 177 0
154 176 0
154 175 0
153 174 0
150 171 0
155 176 0
152 173 0
143 165 0
148 171 0
150 171 0
147 168 0
149 171 0
152 174 0
156 176 0
143 163 0
151 172 0
149 169 0
148 170 0
146 167 0
152 173 0
151 172 0
145 167 0
142 163 0
151 172 0
130 152 0
143 164 0
145 166 0
145 165 0
138 159 0
140 162 0
139 159 0
136 157 0
136 158 0
143 165 0
142 163 0
141 162 0
140 161 0
149 170 0
142 162 0
136 156 0
142 163 0
135 156 0
136 156 0
133 154 0
140 160 0
140 161 0
128 149 0
138 159 0
132 151 0
130 151 0
145 166 0
133 153 0
140 161 0
145 163 0
140 161 0
138 158 0
140 159 0
138 158 0
143 164 0
131 151 0
137 157 0
138 158 0
145 165 0
137 157 0
146 165 0
141 161 0
133 150 0
140 160 0
139 158 0
136 155 0
133 152 0
138 157 0
127 146 0
128 147 0
134 154 0
133 150 0
136 157 0
135 154 0
144 165 0
135 155 0
126 145 0
129 147 0
131 151 0
138 156 0
139 157 0
137 158 0
134 154 0
135 155 0
131 149 0
128 148 0
137 157 0
133 153 0
138 154 0
145 163 0
135 154 0
134 153 0
124 142 0
134 152 0
134 154 0
138 157 0
138 157 0
139 159 0
131 148 0
147 167 0
129 147 0
138 154 0
132 149 0
127 145 0
150 171 0
140 158 0
138 156 0
141 159 0
143 161 0
142 161 0
146 165 0
142 160 0
135 154 0
138 154 0
136 155 0
133 150 0
141 157 0
143 160 0
145 162 0
142 160 0
145 162 0
142 159 0
139 156 0
133 149 0
137 152 0
145 160 0
146 162 0
144 160 0
144 162 0
145 160 0
129 143 0
134 149 0
140 155 0
127 140 0
139 152 0
134 149 0
145 161 0
139 154 0
135 147 0
141 159 0
141 155 0
137 152 0
138 151 0
136 150 0
142 153 0
135 150 0
142 155 0
136 147 0
138 151 0
136 148 0
135 149 0
135 147 0
138 150 0
137 147 0
133 145 0
128 138 0
147 157 0
145 157 0
145 155 0
137 150 0
135 143 0
139 150 0
139 149 0
143 151 0
139 153 0
133 141 0
139 149 0
127 134 0
131 139 0
144 151 0
138 146 0
143 153 0
129 138 0
131 139 0
134 141 0
132 143 0
146 156 0
139 144 0
133 139 0
127 135 0
134 139 0
129 136 0
139 144 0
130 132 0
135 140 0
142 149 0
139 146 0
144 150 0
128 133 0
135 141 0
128 132 0
138 143 0
140 143 0
139 144 0
135 140 0
140 144 0
140 142 0
135 140 0
142 148 0
140 143 0
135 140 0
136 140 0
141 145 0
144 151 0
130 132 0
139 146 0
142 146 0
139 141 0
131 135 0
150 156 0
135 139 0
146 153 0
140 143 0
138 142 0
139 142 0
143 146 0
145 149 0
138 139 0
146 151 0
142 143 0
143 150 0
140 144 0
142 145 0
152 161 0
150 160 0
148 152 0
150 157 0
137 143 0
147 153 0
144 148 0
151 160 0
144 151 0
149 158 0
149 159 0
153 161 0
146 153 0
154 164 0
153 162 0
150 157 0
145 152 0
155 166 0
155 165 0
149 157 0
157 170 0
152 162 0
152 162 0
157 170 0
152 161 0
159 169 0
158 169 0
154 167 0
149 158 0
153 164 0
174 197 0
174 197 0
175 198 0
173 197 0
175 198 0
173 197 0
175 198 0
173 196 0
173 197 0
174 197 0
174 198 0
175 198 0
174 197 0
174 198 0
174 197 0
172 197 0
172 196 0
173 197 0
172 196 0
173 197 0
174 197 0
173 197 0
173 197 0
172 197 0
172 196 0
171 196 0
172 196 0
171 196 0
171 196 0
172 197 0
172 196 0
170 195 0
171 195 0
171 196 0
168 193 0
172 197 0
170 195 0
170 195 0
171 196 0
170 196 0
169 193 0
171 196 0
172 196 0
169 193 0
169 195 0
171 196 0
169 193 0
169 194 0
168 194 0
169 194 0
169 194 0
168 193 0
167 192 0
171 196 0
169 193 0
167 192 0
169 194 0
169 194 0
171 195 0
166 190 0
168 193 0
168 191 0
168 193 0
167 192 0
166 191 0
167 192 0
170 195 0
168 192 0
169 193 0
164 189 0
165 189 0
168 192 0
167 191 0
167 191 0
167 191 0
167 192 0
166 190 0
166 189 0
168 192 0
167 191 0
161 185 0
166 189 0
160 184 0
164 188 0
165 189 0
164 188 0
165 188 0
166 189 0
165 189 0
164 187 0
164 187 0
166 189 0
165 187 0
161 184 0
164 188 0
162 185 0
159 182 0
166 189 0
161 184 0
164 187 0
162 185 0
162 185 0
160 182 0
160 182 0
158 181 0
159 182 0
161 184 0
157 181 0
159 182 0
165 187 0
164 186 0
159 182 0
165 187 0
157 179 0
158 180 0
162 184 0
159 181 0
159 182 0
159 181 0
158 181 0
150 172 0
165 187 0
157 179 0
154 177 0
154 175 0
161 182 0
153 175 0
156 178 0
149 172 0
161 183 0
156 179 0
158 180 0
159 181 0
150 171 0
157 179 0
160 182 0
162 184 0
156 178 0
147 169 0
153 175 0
161 181 0
159 181 0
150 172 0
157 179 0
153 174 0
157 179 0
152 173 0
156 178 0
150 172 0
147 169 0
144 166 0
158 180 0
152 173 0
140 160 0
147 168 0
148 168 0
146 167 0
148 169 0
142 163 0
151 171 0
148 170 0
146 167 0
138 158 0
153 174 0
146 166 0
139 159 0
149 170 0
146 166 0
161 182 0
148 169 0
142 162 0
140 161 0
146 167 0
144 164 0
139 159 0
146 168 0
142 163 0
141 163 0
136 158 0
132 152 0
134 154 0
144 165 0
140 160 0
142 162 0
133 153 0
143 163 0
142 162 0
140 161 0
134 153 0
138 159 0
139 159 0
130 149 0
137 158 0
138 157 0
141 160 0
138 158 0
142 162 0
146 166 0
134 153 0
133 154 0
138 160 0
140 160 0
136 156 0
142 162 0
134 154 0
142 162 0
140 159 0
131 151 0
135 155 0
140 160 0
147 168 0
131 151 0
134 155 0
143 163 0
136 157 0
138 159 0
137 157 0
136 155 0
135 153 0
142 162 0
140 160 0
135 153 0
135 153 0
126 145 0
125 143 0
142 161 0
143 161 0
135 154 0
137 156 0
142 160 0
141 159 0
128 145 0
137 155 0
138 156 0
145 164 0
133 153 0
137 156 0
130 147 0
132 150 0
139 157 0
139 158 0
142 159 0
134 152 0
138 156 0
136 155 0
137 155 0
142 161 0
134 150 0
145 164 0
137 157 0
142 160 0
135 154 0
143 160 0
142 162 0
129 148 0
138 157 0
142 161 0
135 152 0
143 162 0
128 147 0
147 167 0
136 152 0
150 167 0
132 148 0
136 153 0
137 153 0
142 158 0
140 156 0
134 151 0
146 165 0
143 160 0
142 157 0
135 152 0
145 161 0
145 163 0
141 156 0
143 157 0
130 144 0
141 158 0
143 159 0
137 153 0
137 152 0
133 146 0
132 145 0
139 153 0
144 160 0
141 159 0
135 150 0
134 147 0
137 152 0
147 161 0
141 156 0
137 152 0
143 158 0
143 156 0
146 162 0
153 168 0
147 159 0
132 142 0
137 151 0
142 154 0
139 152 0
137 152 0
142 154 0
140 153 0
138 149 0
140 153 0
138 147 0
139 152 0
133 140 0
141 151 0
133 144 0
129 138 0
140 150 0
144 155 0
136 143 0
140 149 0
138 146 0
146 155 0
147 159 0
137 145 0
133 141 0
135 141 0
141 149 0
134 141 0
139 147 0
142 151 0
138 143 0
141 149 0
137 142 0
142 150 0
135 140 0
144 152 0
139 146 0
138 145 0
140 144 0
137 143 0
137 144 0
141 147 0
137 141 0
140 144 0
135 138 0
142 148 0
141 146 0
133 136 0
140 145 0
141 144 0
133 140 0
137 139 0
139 142 0
139 145 0
141 145 0
135 137 0
138 139 0
147 154 0
142 146 0
146 152 0
135 139 0
131 134 0
145 150 0
134 137 0
143 145 0
142 149 0
142 149 0
148 154 0
144 151 0
138 143 0
144 148 0
142 147 0
147 152 0
143 146 0
146 152 0
147 151 0
140 147 0
150 159 0
147 153 0
147 154 0
145 152 0
150 157 0
153 160 0
152 157 0
147 153 0
150 158 0
151 160 0
146 153 0
151 159 0
151 160 0
151 162 0
147 156 0
150 157 0
153 160 0
148 157 0
156 166 0
157 170 0
147 155 0
154 162 0
155 167 0
155 166 0
159 170 0
154 166 0
174 197 0
174 197 0
176 198 0
173 197 0
175 198 0
174 198 0
175 198 0
172 196 0
173 196 0
173 197 0
173 197 0
174 198 0
173 197 0
173 197 0
174 197 0
173 197 0
175 198 0
174 198 0
174 197 0
173 197 0
172 196 0
173 197 0
172 197 0
174 197 0
173 197 0
171 196 0
172 196 0
170 195 0
173 197 0
172 196 0
172 197 0
173 197 0
169 194 0
171 196 0
171 196 0
169 194 0
169 194 0
169 194 0
170 195 0
170 195 0
169 194 0
170 195 0
169 194 0
169 193 0
170 194 0
167 192 0
169 193 0
170 195 0
171 196 0
170 195 0
170 194 0
171 195 0
170 194 0
169 194 0
167 191 0
165 190 0
171 195 0
171 196 0
168 193 0
172 196 0
166 191 0
170 195 0
170 194 0
169 193 0
168 193 0
166 189 0
169 193 0
165 188 0
169 194 0
166 190 0
169 193 0
165 189 0
169 193 0
163 186 0
168 193 0
165 189 0
166 190 0
168 193 0
167 190 0
165 188 0
167 190 0
166 190 0
166 190 0
167 191 0
163 187 0
169 193 0
168 191 0
163 187 0
168 191 0
160 183 0
165 189 0
162 185 0
167 190 0
165 188 0
163 187 0
164 188 0
165 188 0
166 189 0
165 188 0
166 189 0
160 183 0
160 182 0
163 186 0
166 189 0
163 186 0
161 185 0
161 182 0
163 185 0
163 186 0
162 185 0
165 187 0
163 185 0
158 180 0
154 176 0
157 179 0
160 183 0
162 184 0
157 180 0
154 176 0
155 177 0
157 180 0
160 183 0
159 182 0
159 182 0
159 182 0
153 175 0
151 175 0
161 182 0
143 165 0
156 177 0
156 178 0
154 177 0
155 178 0
155 177 0
153 175 0
157 179 0
152 174 0
157 179 0
158 180 0
147 168 0
146 167 0
151 174 0
151 174 0
145 167 0
155 175 0
157 180 0
149 170 0
148 168 0
147 168 0
158 180 0
150 171 0
152 173 0
154 175 0
150 171 0
152 175 0
145 166 0
152 173 0
151 172 0
148 169 0
141 161 0
154 176 0
143 165 0
145 166 0
145 167 0
140 160 0
149 170 0
145 165 0
148 170 0
145 166 0
138 159 0
150 171 0
136 157 0
154 174 0
142 164 0
139 161 0
143 164 0
140 161 0
146 168 0
146 167 0
146 167 0
153 173 0
137 156 0
141 162 0
133 153 0
139 160 0
148 169 0
143 164 0
138 158 0
143 164 0
137 159 0
143 162 0
150 170 0
132 152 0
136 156 0
141 161 0
137 158 0
141 163 0
134 154 0
138 159 0
138 158 0
148 169 0
139 157 0
139 160 0
137 156 0
140 160 0
134 153 0
138 156 0
136 156 0
134 155 0
134 154 0
140 159 0
133 152 0
146 167 0
137 157 0
140 159 0
145 166 0
147 166 0
143 162 0
136 156 0
133 152 0
135 155 0
144 165 0
135 155 0
132 151 0
147 165 0
142 162 0
142 161 0
132 153 0
133 152 0
145 165 0
139 159 0
140 159 0
139 159 0
131 148 0
134 154 0
133 152 0
140 159 0
136 156 0
136 155 0
138 157 0
133 151 0
133 152 0
140 158 0
140 159 0
138 158 0
143 161 0
147 166 0
136 154 0
139 160 0
139 157 0
131 149 0
139 156 0
140 159 0
135 152 0
140 159 0
146 164 0
137 153 0
134 150 0
138 155 0
134 152 0
138 155 0
136 153 0
135 151 0
138 154 0
136 157 0
146 164 0
146 167 0
143 162 0
137 154 0
138 155 0
134 153 0
137 155 0
141 157 0
142 161 0
148 166 0
131 147 0
140 156 0
137 153 0
146 162 0
140 156 0
135 150 0
128 143 0
133 149 0
137 151 0
133 148 0
132 147 0
141 156 0
133 147 0
132 147 0
144 160 0
146 161 0
145 159 0
142 153 0
144 158 0
142 156 0
140 152 0
142 154 0
146 157 0
139 154 0
136 151 0
151 166 0
137 148 0
137 148 0
141 154 0
147 160 0
132 143 0
143 155 0
139 150 0
133 145 0
130 142 0
136 148 0
143 156 0
139 150 0
149 162 0
138 150 0
137 148 0
137 147 0
137 146 0
143 153 0
141 151 0
138 149 0
141 151 0
140 148 0
146 153 0
141 150 0
141 148 0
131 140 0
141 148 0
137 145 0
139 146 0
145 152 0
132 137 0
136 144 0
134 141 0
142 149 0
135 143 0
145 152 0
140 146 0
137 143 0
135 140 0
129 136 0
143 153 0
141 148 0
135 139 0
136 141 0
142 149 0
135 142 0
137 142 0
136 141 0
147 153 0
138 143 0
132 135 0
144 148 0
142 148 0
134 139 0
148 156 0
134 142 0
139 144 0
146 154 0
142 146 0
138 138 0
147 154 0
140 146 0
148 152 0
144 150 0
140 145 0
145 151 0
148 155 0
144 152 0
148 154 0
147 152 0
152 159 0
143 149 0
148 154 0
137 141 0
147 154 0
143 149 0
143 149 0
141 149 0
151 160 0
149 160 0
158 168 0
154 162 0
149 155 0
142 151 0
151 158 0
147 155 0
146 154 0
147 155 0
146 155 0
153 159 0
153 165 0
152 161 0
156 165 0
153 165 0
152 161 0
156 168 0
159 170 0
158 173 0
160 172 0
174 197 0
174 198 0
174 197 0
173 197 0
173 196 0
172 197 0
175 198 0
173 196 0
173 197 0
172 197 0
173 197 0
174 198 0
173 197 0
173 197 0
172 196 0
174 198 0
173 197 0
172 197 0
172 196 0
172 197 0
172 197 0
172 196 0
172 196 0
170 195 0
172 196 0
171 196 0
171 196 0
171 196 0
172 196 0
172 197 0
171 196 0
171 195 0
171 195 0
172 196 0
171 195 0
172 197 0
170 195 0
169 194 0
167 192 0
172 197 0
170 194 0
170 194 0
168 193 0
171 195 0
171 195 0
170 195 0
169 193 0
170 195 0
170 195 0
169 193 0
168 192 0
170 195 0
168 192 0
171 196 0
165 189 0
171 195 0
165 190 0
169 194 0
167 191 0
168 193 0
167 191 0
168 191 0
171 195 0
166 191 0
169 193 0
162 186 0
167 191 0
166 190 0
171 195 0
167 192 0
168 192 0
167 191 0
168 192 0
170 194 0
166 191 0
166 190 0
165 189 0
164 187 0
167 191 0
161 184 0
169 193 0
162 186 0
161 184 0
168 192 0
164 188 0
166 189 0
163 186 0
165 189 0
164 188 0
165 188 0
166 189 0
162 185 0
165 188 0
166 189 0
160 182 0
157 179 0
166 189 0
160 183 0
161 184 0
158 181 0
159 182 0
157 180 0
164 187 0
159 181 0
165 187 0
160 182 0
162 184 0
160 183 0
157 179 0
161 183 0
161 184 0
165 187 0
155 177 0
163 185 0
151 173 0
163 185 0
164 185 0
164 186 0
165 188 0
164 187 0
157 180 0
158 180 0
156 178 0
156 178 0
164 186 0
160 182 0
155 177 0
159 180 0
158 180 0
161 182 0
157 179 0
153 175 0
157 180 0
154 177 0
160 183 0
146 168 0
151 172 0
149 171 0
154 176 0
154 175 0
150 172 0
157 178 0
159 180 0
152 175 0
150 171 0
150 172 0
150 171 0
144 166 0
149 170 0
151 173 0
156 178 0
145 166 0
154 175 0
151 172 0
147 168 0
151 172 0
149 171 0
154 176 0
150 171 0
146 167 0
145 167 0
158 179 0
140 161 0
143 165 0
142 164 0
151 172 0
147 168 0
153 173 0
147 167 0
153 174 0
139 158 0
143 164 0
140 162 0
147 168 0
146 166 0
145 166 0
144 163 0
142 161 0
143 165 0
144 165 0
147 169 0
145 166 0
147 167 0
145 166 0
136 156 0
138 158 0
147 167 0
143 163 0
143 164 0
140 159 0
137 158 0
149 170 0
140 161 0
142 162 0
142 164 0
139 159 0
142 163 0
144 164 0
136 158 0
142 164 0
136 156 0
142 162 0
146 165 0
139 159 0
140 160 0
128 147 0
133 152 0
141 161 0
131 152 0
139 159 0
132 152 0
137 157 0
136 157 0
140 159 0
130 151 0
141 162 0
133 154 0
137 155 0
136 156 0
133 152 0
138 156 0
140 160 0
135 153 0
137 158 0
138 157 0
136 155 0
140 159 0
129 148 0
137 158 0
135 155 0
144 163 0
125 144 0
139 159 0
145 165 0
138 158 0
139 158 0
139 158 0
138 156 0
143 162 0
137 156 0
147 166 0
139 158 0
143 161 0
133 153 0
135 153 0
135 155 0
134 152 0
145 165 0
139 157 0
134 152 0
145 162 0
134 152 0
131 147 0
140 159 0
150 170 0
130 149 0
142 160 0
134 150 0
137 156 0
146 164 0
148 166 0
148 168 0
140 159 0
143 162 0
141 160 0
143 163 0
137 156 0
150 169 0
145 162 0
136 155 0
148 165 0
140 159 0
136 154 0
138 154 0
143 158 0
149 167 0
149 166 0
150 166 0
142 161 0
144 160 0
139 156 0
147 163 0
148 164 0
136 151 0
144 160 0
139 154 0
142 158 0
143 158 0
141 156 0
136 150 0
145 161 0
139 155 0
147 162 0
144 158 0
140 153 0
141 156 0
148 161 0
138 151 0
144 157 0
143 156 0
138 151 0
144 157 0
131 144 0
131 140 0
132 141 0
142 155 0
146 159 0
146 159 0
136 149 0
146 159 0
146 158 0
134 148 0
138 147 0
144 157 0
144 154 0
141 148 0
143 153 0
141 152 0
140 148 0
139 147 0
137 146 0
147 158 0
135 144 0
140 147 0
140 147 0
132 137 0
133 141 0
143 152 0
140 148 0
144 153 0
136 143 0
142 151 0
143 153 0
140 151 0
143 152 0
145 151 0
142 150 0
145 150 0
145 153 0
141 148 0
139 143 0
147 156 0
141 148 0
147 153 0
143 152 0
141 149 0
135 138 0
142 149 0
143 148 0
143 152 0
140 146 0
147 154 0
135 138 0
147 153 0
143 149 0
138 142 0
138 143 0
141 146 0
135 138 0
141 149 0
148 154 0
147 154 0
137 143 0
145 149 0
146 151 0
147 152 0
139 143 0
139 141 0
136 143 0
143 146 0
149 156 0
147 152 0
148 152 0
145 151 0
147 154 0
148 157 0
155 162 0
143 150 0
150 158 0
148 153 0
152 162 0
148 155 0
149 156 0
151 158 0
150 158 0
152 162 0
147 156 0
152 161 0
156 163 0
155 165 0
153 163 0
157 167 0
153 162 0
151 161 0
156 165 0
157 167 0
154 163 0
159 171 0
152 160 0
157 164 0
173 197 0
174 198 0
172 197 0
173 196 0
174 197 0
172 197 0
173 197 0
173 197 0
173 197 0
174 197 0
172 197 0
174 197 0
174 197 0
173 197 0
174 197 0
172 196 0
173 197 0
173 196 0
173 197 0
174 197 0
174 197 0
173 197 0
172 196 0
172 196 0
172 196 0
168 192 0
171 196 0
171 195 0
172 196 0
171 194 0
171 195 0
171 196 0
172 197 0
172 196 0
171 195 0
170 194 0
171 195 0
170 194 0
172 196 0
172 196 0
168 192 0
171 195 0
169 193 0
171 196 0
170 194 0
169 194 0
169 194 0
166 191 0
170 194 0
168 193 0
169 194 0
167 192 0
168 193 0
169 194 0
169 193 0
171 195 0
167 192 0
170 194 0
169 193 0
167 192 0
167 191 0
169 193 0
168 192 0
169 193 0
168 192 0
164 188 0
167 192 0
170 193 0
167 190 0
171 194 0
166 190 0
167 190 0
167 190 0
169 193 0
169 193 0
168 192 0
161 184 0
162 186 0
168 192 0
169 192 0
168 192 0
168 191 0
170 193 0
163 187 0
166 190 0
167 190 0
164 187 0
167 191 0
162 185 0
165 189 0
163 186 0
162 184 0
166 190 0
165 188 0
162 186 0
167 190 0
169 191 0
161 185 0
166 189 0
163 186 0
162 185 0
156 179 0
158 181 0
161 184 0
167 189 0
161 184 0
160 183 0
164 186 0
161 184 0
166 189 0
164 187 0
163 185 0
159 180 0
161 183 0
163 184 0
160 183 0
162 185 0
160 182 0
156 178 0
152 174 0
159 180 0
161 183 0
164 186 0
154 176 0
162 184 0
160 182 0
155 178 0
159 182 0
150 172 0
149 172 0
155 178 0
157 180 0
155 177 0
155 177 0
158 180 0
155 178 0
154 176 0
156 178 0
149 170 0
146 168 0
162 185 0
148 171 0
152 173 0
149 171 0
151 174 0
157 178 0
154 176 0
152 174 0
148 169 0
140 161 0
151 172 0
148 168 0
153 174 0
153 174 0
156 177 0
151 173 0
144 165 0
149 170 0
144 165 0
151 172 0
149 170 0
140 160 0
143 163 0
145 167 0
150 171 0
145 167 0
143 164 0
135 156 0
152 173 0
141 161 0
145 167 0
145 166 0
140 160 0
139 159 0
144 165 0
150 171 0
145 166 0
135 156 0
149 170 0
150 168 0
151 172 0
146 166 0
138 158 0
145 165 0
142 163 0
135 154 0
151 173 0
142 163 0
143 163 0
139 160 0
153 173 0
139 160 0
144 165 0
145 166 0
140 160 0
135 155 0
150 170 0
140 160 0
137 158 0
131 151 0
138 158 0
134 155 0
142 163 0
130 150 0
142 160 0
140 161 0
140 161 0
149 169 0
136 156 0
133 152 0
139 159 0
138 155 0
137 159 0
134 154 0
140 159 0
129 148 0
148 168 0
144 164 0
136 156 0
133 151 0
139 157 0
142 162 0
146 165 0
139 160 0
139 158 0
140 160 0
144 164 0
132 152 0
143 160 0
142 162 0
134 152 0
142 163 0
140 160 0
138 157 0
144 163 0
141 160 0
137 158 0
139 160 0
139 158 0
144 162 0
134 153 0
133 152 0
140 159 0
144 163 0
141 160 0
138 155 0
139 158 0
139 157 0
131 148 0
146 165 0
141 159 0
137 156 0
138 156 0
147 166 0
127 146 0
136 155 0
141 160 0
138 155 0
136 153 0
141 160 0
144 163 0
145 165 0
137 154 0
141 160 0
145 162 0
142 160 0
136 154 0
134 149 0
139 156 0
150 167 0
145 164 0
140 160 0
144 162 0
141 160 0
135 152 0
150 167 0
140 158 0
139 156 0
143 161 0
130 145 0
148 165 0
131 147 0
138 155 0
147 162 0
133 147 0
141 157 0
140 155 0
137 151 0
137 154 0
141 156 0
136 149 0
138 155 0
133 145 0
143 157 0
142 155 0
146 162 0
149 164 0
144 159 0
146 159 0
149 164 0
148 160 0
139 153 0
135 146 0
138 149 0
143 156 0
135 147 0
146 160 0
143 158 0
144 160 0
149 161 0
141 152 0
137 150 0
139 152 0
139 153 0
147 159 0
138 148 0
144 156 0
148 160 0
137 148 0
144 154 0
142 149 0
139 149 0
137 149 0
142 153 0
141 155 0
139 152 0
145 151 0
146 156 0
143 154 0
142 151 0
138 145 0
146 156 0
142 151 0
138 145 0
139 144 0
142 151 0
146 153 0
137 146 0
148 155 0
142 149 0
139 145 0
125 128 0
139 144 0
140 145 0
135 140 0
147 156 0
138 145 0
144 152 0
145 150 0
142 149 0
140 146 0
146 153 0
146 151 0
140 144 0
135 143 0
142 149 0
145 152 0
139 144 0
145 151 0
145 152 0
149 155 0
132 139 0
147 155 0
134 138 0
146 152 0
148 153 0
150 157 0
145 150 0
147 154 0
147 153 0
141 146 0
148 156 0
142 149 0
142 147 0
141 147 0
148 157 0
144 151 0
143 147 0
149 159 0
148 154 0
148 158 0
149 157 0
151 159 0
153 159 0
152 161 0
145 152 0
154 165 0
151 158 0
152 160 0
155 163 0
153 161 0
157 166 0
152 160 0
155 164 0
159 171 0
158 169 0
154 164 0
154 163 0
150 159 0
154 164 0
174 198 0
173 197 0
174 198 0
172 196 0
172 196 0
172 196 0
173 197 0
174 198 0
172 196 0
175 198 0
173 196 0
172 196 0
174 197 0
174 197 0
173 197 0
172 197 0
173 197 0
171 196 0
171 196 0
172 196 0
173 197 0
173 197 0
172 197 0
172 196 0
171 196 0
171 196 0
171 195 0
172 196 0
170 194 0
173 197 0
173 197 0
173 197 0
170 195 0
171 195 0
171 195 0
168 192 0
171 196 0
169 194 0
167 192 0
169 193 0
170 194 0
170 195 0
172 196 0
170 194 0
169 193 0
168 193 0
166 191 0
172 196 0
168 192 0
168 193 0
167 191 0
167 191 0
169 193 0
169 193 0
172 196 0
168 192 0
166 190 0
169 193 0
171 194 0
169 192 0
165 190 0
168 193 0
169 193 0
165 190 0
170 192 0
171 195 0
165 189 0
169 192 0
165 189 0
167 190 0
167 191 0
162 186 0
167 190 0
166 189 0
168 192 0
168 192 0
166 189 0
167 190 0
169 192 0
166 189 0
166 189 0
168 191 0
166 190 0
163 186 0
166 189 0
166 188 0
165 188 0
162 185 0
166 189 0
160 183 0
162 184 0
165 188 0
164 188 0
157 180 0
158 181 0
171 193 0
165 189 0
160 183 0
165 187 0
167 191 0
165 186 0
167 189 0
162 184 0
158 181 0
158 180 0
158 181 0
165 188 0
161 184 0
168 191 0
160 182 0
166 188 0
163 186 0
155 177 0
159 181 0
158 180 0
162 185 0
157 179 0
157 179 0
160 183 0
155 177 0
157 178 0
160 182 0
158 181 0
156 178 0
153 176 0
159 180 0
155 178 0
149 172 0
158 181 0
156 178 0
158 180 0
162 184 0
159 182 0
153 175 0
159 180 0
159 180 0
157 179 0
157 179 0
150 172 0
165 188 0
149 172 0
155 176 0
152 173 0
156 177 0
144 166 0
159 180 0
144 166 0
155 177 0
148 169 0
150 171 0
157 179 0
151 172 0
151 173 0
150 171 0
150 172 0
154 176 0
141 163 0
154 175 0
150 170 0
145 167 0
143 164 0
147 168 0
152 174 0
145 167 0
140 161 0
150 172 0
147 169 0
149 170 0
146 168 0
146 167 0
143 166 0
138 158 0
154 175 0
146 166 0
153 174 0
146 168 0
144 165 0
145 166 0
145 166 0
140 162 0
147 168 0
142 163 0
146 167 0
145 166 0
137 158 0
129 149 0
147 167 0
144 163 0
146 166 0
136 155 0
145 166 0
146 167 0
147 167 0
145 165 0
149 170 0
143 164 0
146 168 0
148 168 0
141 162 0
150 170 0
148 169 0
143 164 0
138 159 0
141 161 0
137 158 0
137 156 0
137 157 0
143 164 0
135 155 0
142 161 0
146 167 0
135 155 0
135 155 0
143 162 0
148 170 0
144 164 0
141 161 0
133 153 0
135 155 0
145 165 0
146 165 0
133 154 0
136 156 0
133 153 0
138 155 0
140 160 0
148 169 0
142 161 0
141 162 0
138 158 0
130 150 0
140 160 0
141 161 0
139 159 0
143 163 0
135 154 0
139 158 0
134 152 0
146 165 0
142 161 0
141 160 0
141 161 0
137 157 0
143 159 0
136 153 0
143 163 0
135 152 0
149 168 0
141 160 0
145 164 0
136 154 0
143 161 0
142 159 0
137 155 0
138 157 0
146 166 0
142 159 0
149 169 0
135 152 0
139 159 0
135 152 0
137 155 0
138 157 0
146 164 0
148 165 0
141 159 0
152 170 0
144 160 0
146 164 0
138 155 0
142 158 0
138 155 0
143 161 0
141 159 0
139 157 0
139 155 0
148 166 0
146 162 0
144 160 0
143 160 0
145 160 0
143 158 0
141 156 0
140 158 0
147 164 0
149 168 0
145 162 0
145 158 0
141 157 0
150 167 0
135 150 0
146 161 0
136 151 0
139 155 0
149 166 0
136 149 0
147 162 0
136 150 0
138 153 0
147 162 0
149 163 0
144 159 0
147 161 0
136 149 0
148 163 0
141 156 0
146 159 0
144 160 0
146 158 0
145 160 0
147 160 0
144 158 0
137 151 0
145 158 0
140 150 0
144 155 0
141 155 0
147 160 0
142 153 0
140 151 0
145 157 0
143 154 0
147 159 0
141 150 0
132 142 0
143 155 0
136 148 0
144 153 0
137 146 0
145 158 0
141 149 0
137 145 0
146 156 0
144 153 0
142 151 0
139 147 0
133 139 0
141 149 0
135 143 0
145 151 0
140 149 0
141 150 0
143 153 0
149 158 0
136 144 0
146 154 0
141 150 0
142 149 0
142 150 0
144 151 0
139 145 0
145 151 0
144 153 0
138 143 0
149 153 0
144 151 0
143 149 0
154 161 0
143 150 0
143 149 0
143 150 0
143 149 0
141 149 0
145 152 0
147 154 0
148 155 0
138 142 0
149 157 0
146 153 0
137 143 0
154 161 0
141 147 0
144 150 0
141 146 0
151 155 0
149 155 0
149 155 0
150 158 0
155 163 0
147 157 0
141 146 0
145 153 0
151 161 0
149 156 0
153 164 0
153 161 0
151 157 0
152 157 0
150 160 0
154 163 0
147 156 0
150 161 0
148 156 0
152 156 0
157 170 0
152 163 0
147 156 0
157 168 0
153 164 0
157 166 0
175 198 0
174 197 0
171 195 0
172 196 0
173 197 0
172 196 0
173 197 0
173 197 0
173 197 0
172 196 0
172 196 0
174 198 0
173 197 0
173 197 0
173 197 0
172 196 0
174 197 0
170 194 0
171 196 0
172 196 0
173 197 0
173 197 0
172 196 0
173 197 0
171 195 0
172 196 0
173 196 0
172 197 0
171 196 0
172 196 0
171 196 0
174 197 0
167 192 0
170 194 0
170 194 0
170 195 0
171 195 0
169 194 0
170 194 0
171 195 0
169 193 0
170 194 0
171 196 0
173 196 0
171 195 0
171 195 0
171 194 0
169 193 0
167 192 0
171 195 0
168 192 0
167 191 0
170 193 0
171 195 0
170 194 0
170 194 0
168 193 0
168 192 0
170 193 0
164 189 0
168 193 0
165 189 0
169 193 0
164 188 0
170 193 0
166 190 0
167 190 0
169 193 0
166 189 0
168 192 0
166 190 0
165 188 0
167 190 0
166 190 0
166 190 0
166 188 0
162 185 0
160 184 0
166 189 0
171 193 0
168 191 0
164 188 0
168 191 0
161 185 0
169 192 0
163 186 0
162 184 0
165 188 0
168 191 0
168 190 0
161 183 0
165 187 0
167 190 0
162 184 0
166 189 0
164 188 0
165 189 0
164 187 0
162 184 0
159 182 0
161 184 0
166 188 0
162 184 0
163 185 0
164 186 0
159 182 0
159 181 0
161 184 0
157 180 0
167 189 0
160 182 0
157 179 0
162 185 0
157 179 0
156 179 0
163 186 0
166 188 0
166 188 0
157 180 0
155 176 0
158 179 0
160 182 0
155 177 0
161 183 0
152 174 0
153 175 0
159 181 0
152 175 0
158 180 0
156 177 0
155 177 0
157 180 0
149 172 0
153 175 0
160 182 0
148 169 0
153 174 0
148 170 0
155 177 0
154 175 0
156 178 0
160 182 0
158 180 0
156 178 0
156 178 0
153 175 0
152 174 0
155 176 0
153 176 0
151 173 0
153 175 0
158 179 0
155 176 0
146 168 0
143 166 0
156 177 0
151 172 0
147 168 0
152 173 0
139 161 0
149 172 0
140 161 0
149 169 0
152 173 0
147 169 0
143 164 0
151 172 0
146 167 0
153 174 0
150 171 0
148 170 0
146 168 0
151 172 0
140 160 0
149 170 0
147 168 0
146 166 0
154 175 0
148 168 0
142 163 0
151 173 0
148 168 0
144 163 0
146 167 0
145 166 0
140 161 0
143 162 0
142 163 0
143 164 0
141 161 0
148 169 0
140 160 0
147 168 0
144 163 0
148 169 0
143 163 0
137 157 0
143 163 0
144 164 0
143 164 0
141 161 0
140 160 0
135 156 0
146 168 0
147 167 0
150 170 0
131 151 0
152 173 0
145 165 0
145 165 0
146 167 0
147 167 0
131 151 0
132 153 0
146 165 0
140 159 0
145 165 0
150 170 0
139 158 0
134 154 0
140 160 0
137 157 0
139 158 0
149 169 0
146 166 0
142 162 0
144 164 0
139 158 0
142 163 0
143 162 0
141 161 0
145 164 0
137 156 0
138 156 0
145 164 0
135 154 0
137 157 0
143 163 0
130 149 0
145 165 0
143 163 0
151 171 0
140 160 0
138 155 0
141 161 0
142 160 0
144 163 0
146 167 0
135 153 0
142 161 0
142 163 0
145 165 0
153 172 0
136 154 0
141 158 0
141 159 0
134 151 0
146 164 0
141 158 0
141 160 0
146 165 0
142 160 0
137 155 0
146 166 0
149 167 0
133 149 0
135 154 0
147 165 0
148 164 0
141 157 0
140 157 0
138 154 0
134 150 0
143 159 0
145 162 0
140 160 0
140 157 0
148 165 0
141 158 0
141 159 0
144 161 0
145 162 0
134 150 0
135 150 0
149 166 0
139 155 0
147 162 0
142 159 0
149 167 0
141 155 0
140 153 0
146 162 0
142 157 0
145 163 0
136 152 0
148 163 0
134 148 0
139 154 0
142 155 0
141 156 0
136 150 0
147 162 0
142 155 0
148 163 0
145 158 0
133 146 0
142 157 0
140 154 0
146 162 0
149 165 0
139 154 0
144 158 0
136 146 0
139 151 0
148 161 0
145 158 0
143 157 0
142 156 0
143 156 0
145 158 0
141 153 0
140 149 0
148 159 0
142 153 0
141 152 0
144 158 0
136 145 0
141 152 0
146 155 0
138 145 0
144 152 0
143 154 0
141 149 0
137 146 0
141 148 0
146 156 0
148 159 0
143 155 0
140 148 0
141 152 0
141 152 0
139 147 0
150 159 0
141 149 0
141 150 0
148 155 0
143 153 0
151 160 0
142 149 0
146 153 0
148 157 0
139 147 0
142 151 0
146 152 0
148 156 0
144 151 0
140 145 0
138 144 0
146 155 0
150 158 0
146 153 0
150 159 0
149 160 0
145 153 0
142 149 0
143 149 0
141 147 0
144 149 0
145 153 0
146 153 0
143 148 0
143 148 0
145 154 0
148 157 0
151 158 0
152 157 0
150 157 0
149 157 0
149 156 0
145 151 0
150 157 0
152 164 0
152 161 0
145 152 0
151 158 0
145 150 0
151 156 0
154 164 0
145 153 0
154 165 0
154 161 0
145 154 0
152 163 0
154 161 0
151 158 0
154 165 0
153 165 0
155 165 0
155 163 0
156 167 0
175 198 0
172 196 0
173 197 0
175 198 0
172 196 0
172 196 0
172 196 0
172 196 0
173 197 0
172 196 0
173 197 0
171 195 0
173 197 0
173 197 0
172 195 0
173 197 0
171 196 0
172 196 0
173 196 0
172 196 0
171 195 0
174 198 0
172 196 0
173 196 0
170 194 0
171 195 0
170 194 0
174 198 0
171 194 0
171 196 0
172 196 0
171 194 0
171 196 0
170 195 0
170 194 0
169 194 0
169 194 0
167 191 0
172 196 0
172 196 0
170 194 0
169 193 0
170 195 0
170 193 0
169 193 0
170 194 0
168 192 0
170 194 0
171 194 0
168 192 0
167 191 0
167 190 0
169 194 0
168 192 0
169 192 0
169 193 0
171 194 0
170 193 0
169 193 0
171 194 0
169 192 0
168 191 0
167 191 0
169 194 0
166 190 0
167 190 0
166 190 0
168 190 0
167 191 0
164 188 0
166 190 0
165 189 0
165 189 0
165 187 0
164 187 0
169 192 0
163 187 0
169 192 0
165 188 0
164 187 0
172 195 0
166 188 0
163 186 0
161 184 0
166 189 0
162 185 0
161 183 0
165 188 0
169 193 0
162 184 0
167 190 0
160 183 0
161 184 0
167 190 0
165 188 0
163 186 0
159 182 0
163 186 0
166 189 0
158 180 0
168 191 0
161 184 0
162 184 0
158 180 0
159 181 0
160 182 0
154 176 0
162 184 0
156 178 0
164 185 0
161 183 0
164 186 0
157 179 0
160 183 0
158 180 0
162 185 0
154 177 0
157 179 0
163 185 0
161 182 0
158 181 0
150 173 0
153 176 0
154 177 0
158 181 0
158 180 0
156 178 0
160 182 0
162 185 0
159 182 0
157 180 0
155 177 0
154 176 0
161 184 0
154 175 0
151 171 0
159 181 0
145 166 0
160 181 0
149 171 0
160 182 0
155 177 0
149 171 0
156 179 0
162 185 0
147 169 0
155 177 0
150 172 0
149 171 0
145 166 0
156 177 0
153 175 0
144 165 0
150 171 0
144 166 0
152 174 0
152 174 0
155 178 0
148 168 0
151 174 0
151 172 0
151 172 0
146 167 0
147 169 0
150 170 0
151 171 0
149 173 0
148 169 0
147 170 0
148 170 0
151 171 0
143 165 0
140 162 0
142 163 0
151 172 0
147 168 0
145 167 0
143 164 0
147 168 0
142 164 0
149 169 0
145 167 0
148 168 0
146 164 0
138 158 0
160 182 0
147 168 0
137 157 0
141 163 0
141 162 0
144 165 0
145 166 0
145 166 0
146 167 0
146 166 0
140 159 0
141 160 0
131 150 0
141 162 0
141 162 0
144 163 0
135 154 0
151 172 0
153 174 0
140 161 0
139 159 0
130 151 0
144 164 0
138 158 0
140 159 0
146 165 0
141 160 0
147 166 0
141 161 0
147 168 0
139 157 0
138 158 0
139 161 0
152 173 0
139 159 0
148 168 0
145 166 0
148 168 0
141 161 0
139 160 0
150 170 0
141 161 0
142 162 0
144 163 0
141 160 0
146 164 0
139 158 0
148 167 0
145 165 0
138 157 0
137 157 0
146 166 0
146 165 0
143 162 0
139 160 0
138 158 0
135 154 0
150 170 0
144 164 0
139 158 0
142 161 0
138 155 0
141 159 0
142 162 0
139 158 0
143 161 0
146 166 0
147 166 0
147 166 0
139 159 0
144 164 0
137 156 0
139 157 0
157 176 0
141 161 0
133 149 0
137 154 0
147 167 0
138 156 0
141 160 0
144 163 0
142 159 0
145 162 0
152 171 0
148 168 0
147 165 0
138 157 0
147 166 0
142 161 0
143 162 0
149 167 0
139 155 0
142 159 0
145 165 0
143 158 0
145 160 0
143 159 0
139 157 0
143 162 0
142 158 0
147 165 0
144 159 0
143 159 0
144 160 0
149 165 0
148 164 0
144 160 0
145 162 0
141 156 0
138 154 0
142 161 0
145 161 0
138 151 0
144 160 0
143 156 0
147 161 0
153 168 0
136 151 0
143 158 0
146 160 0
147 160 0
147 164 0
140 153 0
141 155 0
145 157 0
139 153 0
143 156 0
142 154 0
142 155 0
144 156 0
139 150 0
149 161 0
141 152 0
148 160 0
140 150 0
136 148 0
144 157 0
139 149 0
140 149 0
143 153 0
149 161 0
147 160 0
142 154 0
143 155 0
137 150 0
136 147 0
140 149 0
145 156 0
138 149 0
145 156 0
146 157 0
136 144 0
146 156 0
146 155 0
145 156 0
149 157 0
143 152 0
135 144 0
145 154 0
138 146 0
148 153 0
144 152 0
140 148 0
135 142 0
139 147 0
141 147 0
144 150 0
143 148 0
142 149 0
136 141 0
150 157 0
147 157 0
139 145 0
140 149 0
140 147 0
148 159 0
156 165 0
143 148 0
137 143 0
147 154 0
151 158 0
148 155 0
141 151 0
147 152 0
137 143 0
145 153 0
140 146 0
145 152 0
144 149 0
149 156 0
142 149 0
139 144 0
147 153 0
142 147 0
150 157 0
147 154 0
146 154 0
143 151 0
152 161 0
147 153 0
153 162 0
155 161 0
149 155 0
154 165 0
147 152 0
146 154 0
146 155 0
153 162 0
159 170 0
150 159 0
153 162 0
155 165 0
158 168 0
157 169 0
153 161 0
174 197 0
174 197 0
173 197 0
172 196 0
172 195 0
173 197 0
174 198 0
173 197 0
174 197 0
174 197 0
174 197 0
172 196 0
173 196 0
173 197 0
171 195 0
173 197 0
173 197 0
172 196 0
174 198 0
172 196 0
172 196 0
174 197 0
173 197 0
173 197 0
172 196 0
171 196 0
169 194 0
171 195 0
170 194 0
170 194 0
173 197 0
166 190 0
172 195 0
173 197 0
170 194 0
172 196 0
169 193 0
171 195 0
170 194 0
169 193 0
170 195 0
169 193 0
172 196 0
170 193 0
167 191 0
167 191 0
173 197 0
171 195 0
173 196 0
170 193 0
169 193 0
167 191 0
169 193 0
172 195 0
169 193 0
166 190 0
170 194 0
171 195 0
166 191 0
166 190 0
169 192 0
172 196 0
165 189 0
163 187 0
170 194 0
163 187 0
165 189 0
169 193 0
172 196 0
167 191 0
168 191 0
162 186 0
168 192 0
165 189 0
165 188 0
164 188 0
167 191 0
165 188 0
167 190 0
161 185 0
168 191 0
167 190 0
167 189 0
170 193 0
166 189 0
164 187 0
168 190 0
168 192 0
164 187 0
159 182 0
163 186 0
160 183 0
167 190 0
163 185 0
159 181 0
161 184 0
162 184 0
161 184 0
162 184 0
165 188 0
167 190 0
164 186 0
159 181 0
158 181 0
159 182 0
167 190 0
154 176 0
167 190 0
167 189 0
153 175 0
165 188 0
163 185 0
162 183 0
160 182 0
148 170 0
158 181 0
169 190 0
156 179 0
155 177 0
154 175 0
157 178 0
157 180 0
154 175 0
159 181 0
162 183 0
159 181 0
162 184 0
154 176 0
159 181 0
159 181 0
161 184 0
160 181 0
160 181 0
153 175 0
151 175 0
155 177 0
158 179 0
155 177 0
156 178 0
156 177 0
152 174 0
157 179 0
152 174 0
153 175 0
161 183 0
158 178 0
159 181 0
148 170 0
156 179 0
155 177 0
150 172 0
151 172 0
151 172 0
147 168 0
155 176 0
155 177 0
151 172 0
161 183 0
154 176 0
154 174 0
154 176 0
145 166 0
142 163 0
153 175 0
158 178 0
145 166 0
155 177 0
153 174 0
160 182 0
148 169 0
153 174 0
149 170 0
142 164 0
152 173 0
137 159 0
140 161 0
146 167 0
144 165 0
143 164 0
144 165 0
145 164 0
140 162 0
142 162 0
149 170 0
143 165 0
144 165 0
144 164 0
137 158 0
148 169 0
140 161 0
140 159 0
141 161 0
144 166 0
144 166 0
135 155 0
136 155 0
140 161 0
148 168 0
147 168 0
142 162 0
140 161 0
149 170 0
141 162 0
145 165 0
145 165 0
146 166 0
140 160 0
146 166 0
151 170 0
141 161 0
143 164 0
138 158 0
135 152 0
148 169 0
138 157 0
144 163 0
147 167 0
143 163 0
146 165 0
151 171 0
133 153 0
147 169 0
144 164 0
140 161 0
152 171 0
143 162 0
148 168 0
133 153 0
142 161 0
145 163 0
141 162 0
135 155 0
131 151 0
143 164 0
140 161 0
150 170 0
141 162 0
141 159 0
151 170 0
139 159 0
132 151 0
142 163 0
146 165 0
144 163 0
152 171 0
140 159 0
131 152 0
137 157 0
146 166 0
145 164 0
142 161 0
126 142 0
145 163 0
145 164 0
145 165 0
135 151 0
146 165 0
139 158 0
149 169 0
151 171 0
140 159 0
145 163 0
144 162 0
140 157 0
147 166 0
144 164 0
146 163 0
146 165 0
142 160 0
147 165 0
140 156 0
150 169 0
147 161 0
142 161 0
146 165 0
151 171 0
143 161 0
143 160 0
147 166 0
142 158 0
142 158 0
149 167 0
145 162 0
144 161 0
144 164 0
141 157 0
138 153 0
142 158 0
142 156 0
149 168 0
142 156 0
145 162 0
147 162 0
147 165 0
148 165 0
154 171 0
138 152 0
140 154 0
141 156 0
141 158 0
145 160 0
150 164 0
149 164 0
150 165 0
146 162 0
141 156 0
145 160 0
135 148 0
145 161 0
139 151 0
144 159 0
144 157 0
139 150 0
138 150 0
143 152 0
148 157 0
145 157 0
140 151 0
139 151 0
139 153 0
140 152 0
138 151 0
144 157 0
142 152 0
147 160 0
140 147 0
148 159 0
143 155 0
142 155 0
138 150 0
139 146 0
140 148 0
145 157 0
143 152 0
146 154 0
142 154 0
135 145 0
142 152 0
145 153 0
145 152 0
137 144 0
142 152 0
146 157 0
148 155 0
147 158 0
149 158 0
140 148 0
138 148 0
142 149 0
151 161 0
146 156 0
150 160 0
145 155 0
142 149 0
147 154 0
145 155 0
148 157 0
146 152 0
145 154 0
143 150 0
143 150 0
148 154 0
150 161 0
153 166 0
149 157 0
146 155 0
148 155 0
151 161 0
148 157 0
146 153 0
139 144 0
151 161 0
152 158 0
144 150 0
144 152 0
140 147 0
145 151 0
152 161 0
147 156 0
144 150 0
149 156 0
152 159 0
150 157 0
151 159 0
152 162 0
148 157 0
151 161 0
154 162 0
145 156 0
147 158 0
150 158 0
156 167 0
158 167 0
153 161 0
153 163 0
157 166 0
154 161 0
160 172 0
157 168 0
154 167 0
175 197 0
174 197 0
173 197 0
175 198 0
173 197 0
174 198 0
174 197 0
172 196 0
174 197 0
171 195 0
174 197 0
173 197 0
173 196 0
171 195 0
172 196 0
172 196 0
173 196 0
174 197 0
173 197 0
172 195 0
171 195 0
173 196 0
173 197 0
172 195 0
169 193 0
172 196 0
172 196 0
172 196 0
170 194 0
171 195 0
170 194 0
169 194 0
171 196 0
169 193 0
172 196 0
169 194 0
172 195 0
167 191 0
169 192 0
171 195 0
170 194 0
169 193 0
171 195 0
170 194 0
169 193 0
169 193 0
170 193 0
168 191 0
168 192 0
169 193 0
170 193 0
167 191 0
170 193 0
170 194 0
167 190 0
171 194 0
171 194 0
169 193 0
168 192 0
166 190 0
171 194 0
168 192 0
166 189 0
165 189 0
164 187 0
169 193 0
168 191 0
165 187 0
168 192 0
166 190 0
165 189 0
167 190 0
164 188 0
166 190 0
168 191 0
165 188 0
171 194 0
163 186 0
167 190 0
169 192 0
164 187 0
164 187 0
162 185 0
163 185 0
163 186 0
162 185 0
165 188 0
165 188 0
165 187 0
165 188 0
167 191 0
161 184 0
164 187 0
161 184 0
166 188 0
160 183 0
167 189 0
163 187 0
167 190 0
158 180 0
166 188 0
156 179 0
165 188 0
159 182 0
163 186 0
162 184 0
157 179 0
158 180 0
163 185 0
165 187 0
160 182 0
159 181 0
164 187 0
157 180 0
165 187 0
160 182 0
161 184 0
162 183 0
157 179 0
163 185 0
162 185 0
161 183 0
152 173 0
158 180 0
157 179 0
162 184 0
155 177 0
160 182 0
159 181 0
153 175 0
159 182 0
158 182 0
156 177 0
161 182 0
156 179 0
158 179 0
151 172 0
160 183 0
156 178 0
150 171 0
154 176 0
153 175 0
154 175 0
159 181 0
153 175 0
151 173 0
152 173 0
156 178 0
147 169 0
154 176 0
160 181 0
150 172 0
150 171 0
152 173 0
153 174 0
151 173 0
152 173 0
145 167 0
152 174 0
142 163 0
155 176 0
150 171 0
154 177 0
145 167 0
150 171 0
155 176 0
152 172 0
149 171 0
146 166 0
158 180 0
149 171 0
143 164 0
148 170 0
146 167 0
158 178 0
136 158 0
148 169 0
151 172 0
147 168 0
147 168 0
141 161 0
148 169 0
142 163 0
149 169 0
146 168 0
149 170 0
145 165 0
146 168 0
149 169 0
141 160 0
141 162 0
139 159 0
151 171 0
149 169 0
147 167 0
151 172 0
147 168 0
146 167 0
150 171 0
137 157 0
144 165 0
154 175 0
146 166 0
133 153 0
146 167 0
146 167 0
137 158 0
151 172 0
127 148 0
137 158 0
147 167 0
142 162 0
150 172 0
139 161 0
149 170 0
149 170 0
137 157 0
149 170 0
144 164 0
137 156 0
143 163 0
147 166 0
136 156 0
148 170 0
139 160 0
142 161 0
135 155 0
139 158 0
147 168 0
147 167 0
136 154 0
140 160 0
152 173 0
145 165 0
146 166 0
138 157 0
142 163 0
139 160 0
145 164 0
149 169 0
146 166 0
138 156 0
138 158 0
143 163 0
136 154 0
134 153 0
141 160 0
138 157 0
143 162 0
150 169 0
135 154 0
154 173 0
138 158 0
136 155 0
142 161 0
149 168 0
145 163 0
149 168 0
144 161 0
148 167 0
144 164 0
145 164 0
149 168 0
143 163 0
142 160 0
145 162 0
147 166 0
141 156 0
139 157 0
137 156 0
144 162 0
147 167 0
145 163 0
142 161 0
151 170 0
142 159 0
147 165 0
137 153 0
142 159 0
152 171 0
145 163 0
143 161 0
144 161 0
153 170 0
137 156 0
145 161 0
146 162 0
142 158 0
141 158 0
147 164 0
137 154 0
147 163 0
152 166 0
142 160 0
136 151 0
149 165 0
147 164 0
146 162 0
151 168 0
144 159 0
152 167 0
144 159 0
144 161 0
150 167 0
145 158 0
142 155 0
143 159 0
148 164 0
138 153 0
147 162 0
138 149 0
144 155 0
146 158 0
136 151 0
146 159 0
138 151 0
138 151 0
135 147 0
145 157 0
144 158 0
142 154 0
152 165 0
143 155 0
139 153 0
147 158 0
139 153 0
142 153 0
148 161 0
146 157 0
151 164 0
142 154 0
147 161 0
140 151 0
148 162 0
149 159 0
146 154 0
147 155 0
140 151 0
148 157 0
144 154 0
142 153 0
144 156 0
138 145 0
142 149 0
150 161 0
152 161 0
148 158 0
148 157 0
140 145 0
147 157 0
148 156 0
148 159 0
143 151 0
150 161 0
147 157 0
147 157 0
141 148 0
143 152 0
143 151 0
144 151 0
147 156 0
153 162 0
149 156 0
139 146 0
144 151 0
152 163 0
139 144 0
147 153 0
143 154 0
148 154 0
149 161 0
155 165 0
151 162 0
153 164 0
149 158 0
148 157 0
151 161 0
148 157 0
147 154 0
148 155 0
145 153 0
147 154 0
152 159 0
148 159 0
151 158 0
159 168 0
145 151 0
148 156 0
152 161 0
150 156 0
154 164 0
149 158 0
152 162 0
151 162 0
154 164 0
155 163 0
148 156 0
156 167 0
152 163 0
153 162 0
173 197 0
173 197 0
175 198 0
173 197 0
173 197 0
172 196 0
173 196 0
173 197 0
173 197 0
173 196 0
172 196 0
173 197 0
172 196 0
172 196 0
173 197 0
172 195 0
172 196 0
173 197 0
174 198 0
172 196 0
172 196 0
171 195 0
170 194 0
171 195 0
172 196 0
170 194 0
171 195 0
168 193 0
171 196 0
170 194 0
171 195 0
170 194 0
173 196 0
171 196 0
171 195 0
168 192 0
172 196 0
173 196 0
171 195 0
168 191 0
172 195 0
168 193 0
169 192 0
167 191 0
169 193 0
171 195 0
170 194 0
169 193 0
170 194 0
171 195 0
169 192 0
169 193 0
169 192 0
168 192 0
168 192 0
168 191 0
169 193 0
170 193 0
170 193 0
170 194 0
168 193 0
170 193 0
166 189 0
168 192 0
168 192 0
169 192 0
162 185 0
165 189 0
167 191 0
168 192 0
164 187 0
163 187 0
168 191 0
169 192 0
161 184 0
162 185 0
169 192 0
165 188 0
162 185 0
170 193 0
165 188 0
165 188 0
163 186 0
168 191 0
161 184 0
162 185 0
164 187 0
163 186 0
168 191 0
164 187 0
168 191 0
167 189 0
163 186 0
167 189 0
166 189 0
165 187 0
164 186 0
165 187 0
163 187 0
162 184 0
164 186 0
165 188 0
161 184 0
159 182 0
160 182 0
158 180 0
164 186 0
160 182 0
161 183 0
167 189 0
160 183 0
154 176 0
160 183 0
161 183 0
158 179 0
160 182 0
155 178 0
163 185 0
158 180 0
161 183 0
158 180 0
157 180 0
163 186 0
163 185 0
166 188 0
161 182 0
155 178 0
159 180 0
160 182 0
153 176 0
163 186 0
159 180 0
153 174 0
153 175 0
153 173 0
153 175 0
155 176 0
156 178 0
151 173 0
150 173 0
151 173 0
154 176 0
153 175 0
165 186 0
152 174 0
156 178 0
152 173 0
153 175 0
160 181 0
158 180 0
151 172 0
157 178 0
150 172 0
156 178 0
147 169 0
147 169 0
143 166 0
151 172 0
146 167 0
160 182 0
151 173 0
151 173 0
148 170 0
153 174 0
153 174 0
144 166 0
144 166 0
150 171 0
154 174 0
147 169 0
150 171 0
146 167 0
154 175 0
145 166 0
150 172 0
151 172 0
152 174 0
154 175 0
152 174 0
143 164 0
151 172 0
146 168 0
146 166 0
148 169 0
147 168 0
145 165 0
143 165 0
143 164 0
135 156 0
141 160 0
149 170 0
147 166 0
148 168 0
142 162 0
141 163 0
156 177 0
144 165 0
143 164 0
142 163 0
137 157 0
141 163 0
148 170 0
150 170 0
152 172 0
143 162 0
135 157 0
150 172 0
142 163 0
149 171 0
142 163 0
130 150 0
144 164 0
145 167 0
147 167 0
147 168 0
138 159 0
140 160 0
146 166 0
139 159 0
131 152 0
145 166 0
147 168 0
140 160 0
148 169 0
143 164 0
145 166 0
144 163 0
132 151 0
146 167 0
140 159 0
145 166 0
141 161 0
151 172 0
142 163 0
151 173 0
141 161 0
149 171 0
147 168 0
141 161 0
142 160 0
146 164 0
140 160 0
141 161 0
149 169 0
144 162 0
144 164 0
152 171 0
134 153 0
149 168 0
146 165 0
138 159 0
142 159 0
149 167 0
147 164 0
143 162 0
139 156 0
142 161 0
155 173 0
138 158 0
141 161 0
140 158 0
141 161 0
143 162 0
138 155 0
141 158 0
142 161 0
145 162 0
141 159 0
142 161 0
135 153 0
146 163 0
152 170 0
149 167 0
145 163 0
143 163 0
146 164 0
143 159 0
140 157 0
145 163 0
148 167 0
148 165 0
146 162 0
140 157 0
149 166 0
149 165 0
148 167 0
149 167 0
151 170 0
138 155 0
142 159 0
145 162 0
148 164 0
155 173 0
147 165 0
155 169 0
142 158 0
153 168 0
145 161 0
148 165 0
139 154 0
138 153 0
146 163 0
143 159 0
145 160 0
141 155 0
145 157 0
145 157 0
143 157 0
140 155 0
145 159 0
149 165 0
142 154 0
141 156 0
147 162 0
142 155 0
153 168 0
144 157 0
147 162 0
146 159 0
147 161 0
146 160 0
146 159 0
142 156 0
150 163 0
147 158 0
141 155 0
141 155 0
143 157 0
149 164 0
145 159 0
143 155 0
147 159 0
143 154 0
141 153 0
152 164 0
159 172 0
143 152 0
146 157 0
138 148 0
148 157 0
149 160 0
147 157 0
138 148 0
143 154 0
144 154 0
146 157 0
144 153 0
140 151 0
145 157 0
148 156 0
144 154 0
146 156 0
135 143 0
147 157 0
146 155 0
146 156 0
149 156 0
147 153 0
144 153 0
151 158 0
153 162 0
139 150 0
143 152 0
144 154 0
149 157 0
148 156 0
149 158 0
143 151 0
146 150 0
143 152 0
138 144 0
150 158 0
141 147 0
146 152 0
142 149 0
150 157 0
148 158 0
147 158 0
142 151 0
152 160 0
149 157 0
154 162 0
156 165 0
151 159 0
150 156 0
148 156 0
154 164 0
148 158 0
151 160 0
156 166 0
155 165 0
149 159 0
148 158 0
155 164 0
158 172 0
149 158 0
154 165 0
150 160 0
156 167 0
156 167 0
173 197 0
173 196 0
173 196 0
173 196 0
173 196 0
171 195 0
173 197 0
172 196 0
174 197 0
174 197 0
173 197 0
171 195 0
171 195 0
173 197 0
172 196 0
172 197 0
173 196 0
172 195 0
175 198 0
171 195 0
173 197 0
170 194 0
168 192 0
171 195 0
174 197 0
173 197 0
170 194 0
168 192 0
170 193 0
171 194 0
171 195 0
169 193 0
170 194 0
171 195 0
174 196 0
172 197 0
170 194 0
170 193 0
167 191 0
171 195 0
170 193 0
173 196 0
171 195 0
168 192 0
168 192 0
168 190 0
165 187 0
168 193 0
170 194 0
168 192 0
172 195 0
169 193 0
172 195 0
171 194 0
168 192 0
167 190 0
168 191 0
165 188 0
168 191 0
168 192 0
169 192 0
165 189 0
169 192 0
170 194 0
165 188 0
165 189 0
165 189 0
166 189 0
165 188 0
165 188 0
164 187 0
161 184 0
167 190 0
167 190 0
166 189 0
161 184 0
163 186 0
167 189 0
166 189 0
163 186 0
167 190 0
160 183 0
166 189 0
169 192 0
165 187 0
164 187 0
160 182 0
165 189 0
166 189 0
160 183 0
164 186 0
164 186 0
159 182 0
167 190 0
163 186 0
159 181 0
163 186 0
167 190 0
163 185 0
162 183 0
170 192 0
159 180 0
160 183 0
166 187 0
157 180 0
155 178 0
160 183 0
158 180 0
161 182 0
162 184 0
167 189 0
153 174 0
159 181 0
155 176 0
165 188 0
161 183 0
160 183 0
164 187 0
163 186 0
150 171 0
164 185 0
158 180 0
155 178 0
153 176 0
163 185 0
161 183 0
159 180 0
155 177 0
160 183 0
154 176 0
158 180 0
164 186 0
155 178 0
158 180 0
145 167 0
154 176 0
152 175 0
156 179 0
156 178 0
159 180 0
147 170 0
158 181 0
150 172 0
154 176 0
162 183 0
145 166 0
155 178 0
150 172 0
155 176 0
153 175 0
153 175 0
155 176 0
160 181 0
141 162 0
150 171 0
159 181 0
151 173 0
148 170 0
155 176 0
150 173 0
157 178 0
150 171 0
154 176 0
153 175 0
153 175 0
153 174 0
153 173 0
154 177 0
149 170 0
153 175 0
154 176 0
142 163 0
149 171 0
153 174 0
152 172 0
147 168 0
149 168 0
147 169 0
147 168 0
148 170 0
144 164 0
148 167 0
150 170 0
148 169 0
142 163 0
138 158 0
145 167 0
146 167 0
149 171 0
147 168 0
148 168 0
144 164 0
147 167 0
146 167 0
151 172 0
145 167 0
148 168 0
143 165 0
138 158 0
144 165 0
148 168 0
151 171 0
150 170 0
146 166 0
137 156 0
144 166 0
145 167 0
149 169 0
139 160 0
139 160 0
143 163 0
140 160 0
143 163 0
146 167 0
141 162 0
149 170 0
144 165 0
143 165 0
141 161 0
143 162 0
143 164 0
136 156 0
143 162 0
146 166 0
141 162 0
142 162 0
145 165 0
136 155 0
145 164 0
139 158 0
145 167 0
145 165 0
150 172 0
142 162 0
139 160 0
151 172 0
151 172 0
142 163 0
146 167 0
152 172 0
140 159 0
150 170 0
143 161 0
145 164 0
146 164 0
152 173 0
144 165 0
151 171 0
148 168 0
149 167 0
138 156 0
141 161 0
151 171 0
145 164 0
143 163 0
146 165 0
142 162 0
156 175 0
141 161 0
150 168 0
147 166 0
148 168 0
145 163 0
144 164 0
150 172 0
145 163 0
153 170 0
144 163 0
143 161 0
145 165 0
148 167 0
147 167 0
147 165 0
145 161 0
143 160 0
155 174 0
149 169 0
141 158 0
146 164 0
151 169 0
148 165 0
141 157 0
145 161 0
140 157 0
148 164 0
142 159 0
142 158 0
147 166 0
143 159 0
141 157 0
140 156 0
147 163 0
141 159 0
147 162 0
138 155 0
138 155 0
145 163 0
152 168 0
134 149 0
141 153 0
147 163 0
146 161 0
155 173 0
147 163 0
145 161 0
136 151 0
148 163 0
148 164 0
141 155 0
137 152 0
154 170 0
138 153 0
142 157 0
145 158 0
148 161 0
141 154 0
140 154 0
149 164 0
147 159 0
142 156 0
141 154 0
152 168 0
142 156 0
144 157 0
136 149 0
148 162 0
137 149 0
138 148 0
137 149 0
147 160 0
151 163 0
152 164 0
145 155 0
146 157 0
143 155 0
148 158 0
139 148 0
140 150 0
142 152 0
146 158 0
152 164 0
141 151 0
151 161 0
152 163 0
144 156 0
148 160 0
153 164 0
148 157 0
147 156 0
141 148 0
145 156 0
151 163 0
151 161 0
152 164 0
153 161 0
145 155 0
142 148 0
151 163 0
145 154 0
149 160 0
146 152 0
146 157 0
150 159 0
148 160 0
158 168 0
150 160 0
150 160 0
147 155 0
141 149 0
152 159 0
149 159 0
149 158 0
139 147 0
145 153 0
148 156 0
152 159 0
150 157 0
151 160 0
145 156 0
148 157 0
142 152 0
147 155 0
145 152 0
152 161 0
147 152 0
150 157 0
153 163 0
153 162 0
153 162 0
150 161 0
148 156 0
153 162 0
154 165 0
152 163 0
153 161 0
149 157 0
151 161 0
159 169 0
149 157 0
149 160 0
172 195 0
174 196 0
172 196 0
174 197 0
174 197 0
174 197 0
173 197 0
173 196 0
170 194 0
172 196 0
173 197 0
173 197 0
170 194 0
171 195 0
170 194 0
173 196 0
171 195 0
172 196 0
172 196 0
171 194 0
172 196 0
172 196 0
173 197 0
172 195 0
170 194 0
170 194 0
170 194 0
171 194 0
171 195 0
173 195 0
172 196 0
173 197 0
168 192 0
167 190 0
170 194 0
171 195 0
170 193 0
172 196 0
169 192 0
171 194 0
172 195 0
171 194 0
173 196 0
169 191 0
170 193 0
172 196 0
171 194 0
169 193 0
167 191 0
170 194 0
171 195 0
168 191 0
167 191 0
168 191 0
167 190 0
163 186 0
171 194 0
173 196 0
165 188 0
167 191 0
171 194 0
169 192 0
168 192 0
167 190 0
163 187 0
167 191 0
169 192 0
163 187 0
169 192 0
169 193 0
171 194 0
165 188 0
168 191 0
166 189 0
168 191 0
163 187 0
168 191 0
163 187 0
167 190 0
163 186 0
167 189 0
164 187 0
168 191 0
164 187 0
166 189 0
167 190 0
165 187 0
166 189 0
165 188 0
164 187 0
163 186 0
158 180 0
161 185 0
164 186 0
163 186 0
163 185 0
165 188 0
160 182 0
162 184 0
163 186 0
162 185 0
161 183 0
165 188 0
165 187 0
161 184 0
162 184 0
163 185 0
158 180 0
159 182 0
166 188 0
161 184 0
160 183 0
158 180 0
159 181 0
165 187 0
159 181 0
156 178 0
154 177 0
159 182 0
166 188 0
157 180 0
158 180 0
155 177 0
160 183 0
168 191 0
162 184 0
161 182 0
165 187 0
154 175 0
161 183 0
150 172 0
156 178 0
159 183 0
160 181 0
158 179 0
159 182 0
157 179 0
152 175 0
148 170 0
155 177 0
155 177 0
147 169 0
157 179 0
153 175 0
158 180 0
150 172 0
151 173 0
158 179 0
153 174 0
148 169 0
151 172 0
149 170 0
150 172 0
148 170 0
148 168 0
154 176 0
147 168 0
155 177 0
155 177 0
153 174 0
157 178 0
141 162 0
146 168 0
149 171 0
144 165 0
154 176 0
154 176 0
156 178 0
142 163 0
152 174 0
150 171 0
144 165 0
145 166 0
144 165 0
150 172 0
143 164 0
147 169 0
141 162 0
145 166 0
148 169 0
147 167 0
144 165 0
145 167 0
147 168 0
152 172 0
147 168 0
150 171 0
146 168 0
151 171 0
142 164 0
145 167 0
148 170 0
147 168 0
147 169 0
143 164 0
143 165 0
144 165 0
141 161 0
147 167 0
145 166 0
144 166 0
137 159 0
149 171 0
139 160 0
149 169 0
150 171 0
148 169 0
150 171 0
153 173 0
145 167 0
141 163 0
142 163 0
138 158 0
144 165 0
148 169 0
140 160 0
150 171 0
148 167 0
142 161 0
146 167 0
143 164 0
144 166 0
153 172 0
138 158 0
153 175 0
142 162 0
143 163 0
135 156 0
139 158 0
138 158 0
147 167 0
147 168 0
144 164 0
139 157 0
141 161 0
150 169 0
141 161 0
139 159 0
142 161 0
141 161 0
146 165 0
148 167 0
147 167 0
143 162 0
139 159 0
146 164 0
146 164 0
141 160 0
147 167 0
140 160 0
142 162 0
145 165 0
145 164 0
154 173 0
137 155 0
148 168 0
143 163 0
150 169 0
143 161 0
152 172 0
146 163 0
153 172 0
148 167 0
149 169 0
147 167 0
146 165 0
142 161 0
145 163 0
147 166 0
138 157 0
148 168 0
155 173 0
138 155 0
145 161 0
143 160 0
145 165 0
149 166 0
143 161 0
147 165 0
144 164 0
140 157 0
147 165 0
142 157 0
145 163 0
151 167 0
149 166 0
148 165 0
143 161 0
145 164 0
148 163 0
145 162 0
147 163 0
146 160 0
151 168 0
145 162 0
136 151 0
149 168 0
147 164 0
143 158 0
148 164 0
148 165 0
150 166 0
152 168 0
139 156 0
143 158 0
137 153 0
148 164 0
149 163 0
149 166 0
143 160 0
143 157 0
145 158 0
140 152 0
149 165 0
144 158 0
150 165 0
145 162 0
138 152 0
144 157 0
146 159 0
143 157 0
149 163 0
156 171 0
146 158 0
154 166 0
145 158 0
147 160 0
144 158 0
147 160 0
133 144 0
148 160 0
150 164 0
143 154 0
140 151 0
137 149 0
148 158 0
152 163 0
144 159 0
137 145 0
143 155 0
152 165 0
149 160 0
144 155 0
143 156 0
142 153 0
154 165 0
140 150 0
149 163 0
144 155 0
148 159 0
144 152 0
155 167 0
148 159 0
158 167 0
143 154 0
151 160 0
150 163 0
145 155 0
147 156 0
148 157 0
142 151 0
144 155 0
149 159 0
140 147 0
143 150 0
150 161 0
145 156 0
149 158 0
149 159 0
145 152 0
151 162 0
151 161 0
150 157 0
153 164 0
148 158 0
146 154 0
144 154 0
148 158 0
154 162 0
149 158 0
146 158 0
152 162 0
148 157 0
146 157 0
159 167 0
154 167 0
153 161 0
149 159 0
152 159 0
151 162 0
157 169 0
159 171 0
148 160 0
151 163 0
154 167 0
152 165 0
149 159 0
156 168 0
156 163 0
151 161 0
174 196 0
172 196 0
172 196 0
172 196 0
173 197 0
171 195 0
173 197 0
171 195 0
173 197 0
174 197 0
173 196 0
171 195 0
172 196 0
173 196 0
173 196 0
171 194 0
171 195 0
172 195 0
170 194 0
169 193 0
173 197 0
171 195 0
169 193 0
168 192 0
170 193 0
170 194 0
173 196 0
170 194 0
170 193 0
169 193 0
168 192 0
173 196 0
170 194 0
172 196 0
169 193 0
173 196 0
170 194 0
170 194 0
169 193 0
169 193 0
166 190 0
167 192 0
169 192 0
170 194 0
168 192 0
170 194 0
168 192 0
168 191 0
171 194 0
167 190 0
168 192 0
168 192 0
171 195 0
168 192 0
169 193 0
165 188 0
169 193 0
166 189 0
171 194 0
168 192 0
171 194 0
168 190 0
166 189 0
169 192 0
162 185 0
168 191 0
167 191 0
167 190 0
165 188 0
162 186 0
170 194 0
167 189 0
171 194 0
167 190 0
164 186 0
166 189 0
168 191 0
167 189 0
160 183 0
157 180 0
162 184 0
169 190 0
159 182 0
166 189 0
161 184 0
163 187 0
166 188 0
163 186 0
165 187 0
166 189 0
166 188 0
170 193 0
166 189 0
165 188 0
167 189 0
164 187 0
167 189 0
159 182 0
159 182 0
163 186 0
161 184 0
166 189 0
165 187 0
161 183 0
161 184 0
162 186 0
160 183 0
164 187 0
163 185 0
164 186 0
160 183 0
160 183 0
156 178 0
162 184 0
158 180 0
161 183 0
157 179 0
163 185 0
160 182 0
160 181 0
157 180 0
163 185 0
156 178 0
158 180 0
161 184 0
158 180 0
157 178 0
161 183 0
152 174 0
160 183 0
157 179 0
155 177 0
159 181 0
153 175 0
156 178 0
152 174 0
151 174 0
162 183 0
149 170 0
162 183 0
158 179 0
150 172 0
163 186 0
157 179 0
156 178 0
155 177 0
156 178 0
158 180 0
162 184 0
153 176 0
149 172 0
151 173 0
135 157 0
155 177 0
153 174 0
142 163 0
145 167 0
149 171 0
152 174 0
151 172 0
156 177 0
144 165 0
152 174 0
159 182 0
151 173 0
148 170 0
157 179 0
154 175 0
145 167 0
148 169 0
144 166 0
150 173 0
147 168 0
152 173 0
150 172 0
157 178 0
154 175 0
156 177 0
158 180 0
154 176 0
154 175 0
145 166 0
143 164 0
150 171 0
146 166 0
146 167 0
140 161 0
137 159 0
149 170 0
144 164 0
143 164 0
145 167 0
138 160 0
150 171 0
141 162 0
155 176 0
147 169 0
146 166 0
145 165 0
146 166 0
147 168 0
145 167 0
145 166 0
151 174 0
142 162 0
146 166 0
140 161 0
144 166 0
152 173 0
147 167 0
146 168 0
148 169 0
144 164 0
148 168 0
145 165 0
145 166 0
147 167 0
146 167 0
150 171 0
141 161 0
144 165 0
142 162 0
144 166 0
145 166 0
149 168 0
147 167 0
146 167 0
142 162 0
143 163 0
148 168 0
147 167 0
145 166 0
148 169 0
145 165 0
137 158 0
144 162 0
141 160 0
152 173 0
146 164 0
137 157 0
150 168 0
147 167 0
142 162 0
142 160 0
148 168 0
141 163 0
144 165 0
145 164 0
148 167 0
143 163 0
140 160 0
145 162 0
147 168 0
146 166 0
146 166 0
149 167 0
145 165 0
145 165 0
146 164 0
146 165 0
151 170 0
147 166 0
150 170 0
144 163 0
146 165 0
147 167 0
141 159 0
147 166 0
150 171 0
146 166 0
142 161 0
144 161 0
154 172 0
140 158 0
138 156 0
145 160 0
149 168 0
146 163 0
152 171 0
145 163 0
149 170 0
145 162 0
149 167 0
145 163 0
142 159 0
146 161 0
143 159 0
144 160 0
149 166 0
141 159 0
139 158 0
148 166 0
142 160 0
152 169 0
148 165 0
151 169 0
144 159 0
146 163 0
146 163 0
147 164 0
144 161 0
150 167 0
145 163 0
150 166 0
139 154 0
144 160 0
146 160 0
147 161 0
145 158 0
153 167 0
146 163 0
149 165 0
149 164 0
145 160 0
149 163 0
138 153 0
144 158 0
143 158 0
144 157 0
151 166 0
147 163 0
139 153 0
144 159 0
140 150 0
144 155 0
142 155 0
144 158 0
147 161 0
149 162 0
148 164 0
151 165 0
148 164 0
145 156 0
141 153 0
146 157 0
147 163 0
153 169 0
145 157 0
143 155 0
145 157 0
150 163 0
141 150 0
144 158 0
146 159 0
151 163 0
137 149 0
143 155 0
145 156 0
146 157 0
143 155 0
148 161 0
149 161 0
147 158 0
144 155 0
145 157 0
152 165 0
148 160 0
146 157 0
156 169 0
140 146 0
147 157 0
156 167 0
145 157 0
144 154 0
146 157 0
149 159 0
143 151 0
150 159 0
147 159 0
147 155 0
149 161 0
150 160 0
144 154 0
148 159 0
153 161 0
145 155 0
157 169 0
155 164 0
144 154 0
149 157 0
148 158 0
158 170 0
152 159 0
147 156 0
149 158 0
152 163 0
153 162 0
149 159 0
148 158 0
151 159 0
150 158 0
154 164 0
151 162 0
154 167 0
157 168 0
153 161 0
149 157 0
144 152 0
149 158 0
155 166 0
173 197 0
173 196 0
174 197 0
172 195 0
172 195 0
171 195 0
172 196 0
174 197 0
173 197 0
172 196 0
170 194 0
172 196 0
172 195 0
174 197 0
169 193 0
170 194 0
173 196 0
173 196 0
171 194 0
171 195 0
172 196 0
172 196 0
172 196 0
170 194 0
170 194 0
173 196 0
172 196 0
171 194 0
171 195 0
171 194 0
170 194 0
166 190 0
171 195 0
170 194 0
169 193 0
169 193 0
168 191 0
170 194 0
172 195 0
166 190 0
172 196 0
169 193 0
171 194 0
171 194 0
165 189 0
170 194 0
169 192 0
168 192 0
168 191 0
170 194 0
169 192 0
168 191 0
165 189 0
169 192 0
170 193 0
168 191 0
169 192 0
163 186 0
167 190 0
170 193 0
169 193 0
168 192 0
171 194 0
169 191 0
166 190 0
168 192 0
164 187 0
167 191 0
170 193 0
169 192 0
166 190 0
168 191 0
170 192 0
167 190 0
163 186 0
167 190 0
161 184 0
161 185 0
166 189 0
168 190 0
170 192 0
161 184 0
168 191 0
164 187 0
164 187 0
163 186 0
165 188 0
171 194 0
165 188 0
164 186 0
161 184 0
168 190 0
155 179 0
159 182 0
160 182 0
162 185 0
166 189 0
164 186 0
169 192 0
161 183 0
165 187 0
161 184 0
157 179 0
163 186 0
161 184 0
159 182 0
162 184 0
161 183 0
151 172 0
161 184 0
164 186 0
161 183 0
153 174 0
159 181 0
158 181 0
153 176 0
154 178 0
154 176 0
158 180 0
164 187 0
161 184 0
157 180 0
155 177 0
157 180 0
154 176 0
158 180 0
148 170 0
161 183 0
158 180 0
154 176 0
157 179 0
158 181 0
151 173 0
154 174 0
162 183 0
160 182 0
165 187 0
155 178 0
146 168 0
159 181 0
158 180 0
152 174 0
151 173 0
150 171 0
145 166 0
157 179 0
151 174 0
151 173 0
152 175 0
145 167 0
160 182 0
148 171 0
155 176 0
151 172 0
155 176 0
153 175 0
155 177 0
153 175 0
150 171 0
147 168 0
151 173 0
157 178 0
144 165 0
149 171 0
145 166 0
153 174 0
151 171 0
146 168 0
155 176 0
148 170 0
144 165 0
150 171 0
141 163 0
156 176 0
144 164 0
149 170 0
148 170 0
148 171 0
145 166 0
150 171 0
146 167 0
152 173 0
146 167 0
151 171 0
149 169 0
151 173 0
153 175 0
141 162 0
146 169 0
145 167 0
150 173 0
153 174 0
144 166 0
142 162 0
145 167 0
151 170 0
147 167 0
154 175 0
141 162 0
140 160 0
143 165 0
146 168 0
147 168 0
145 166 0
151 171 0
145 167 0
129 149 0
150 170 0
147 167 0
150 171 0
145 166 0
150 171 0
146 167 0
142 163 0
155 176 0
138 159 0
140 161 0
150 170 0
133 155 0
150 171 0
149 171 0
136 155 0
153 173 0
149 169 0
145 165 0
145 166 0
146 165 0
139 159 0
148 168 0
145 164 0
154 175 0
145 164 0
142 163 0
141 161 0
143 162 0
141 160 0
149 169 0
141 162 0
147 166 0
145 164 0
151 172 0
145 163 0
141 160 0
139 160 0
137 157 0
153 174 0
155 175 0
153 173 0
140 159 0
142 160 0
143 165 0
146 165 0
151 171 0
153 172 0
149 167 0
145 166 0
147 166 0
143 160 0
153 173 0
143 162 0
142 162 0
146 164 0
150 170 0
153 174 0
141 160 0
152 171 0
137 157 0
147 167 0
147 165 0
148 168 0
153 172 0
149 169 0
147 168 0
149 170 0
145 163 0
156 176 0
148 167 0
155 174 0
154 173 0
143 162 0
140 156 0
151 169 0
147 166 0
149 167 0
153 172 0
149 168 0
143 162 0
139 156 0
149 169 0
138 153 0
141 158 0
150 168 0
152 171 0
150 168 0
143 159 0
145 162 0
155 173 0
146 164 0
146 162 0
149 164 0
150 165 0
155 171 0
147 162 0
153 170 0
147 164 0
146 164 0
142 157 0
148 165 0
145 158 0
144 161 0
135 149 0
146 163 0
150 168 0
147 162 0
154 172 0
148 165 0
153 169 0
150 166 0
149 166 0
152 166 0
150 163 0
139 153 0
148 164 0
145 159 0
145 159 0
144 159 0
151 167 0
140 151 0
145 157 0
146 159 0
144 157 0
146 160 0
148 162 0
151 164 0
149 161 0
148 161 0
150 164 0
146 159 0
143 155 0
142 151 0
153 167 0
149 159 0
149 165 0
155 170 0
139 149 0
145 156 0
147 157 0
150 162 0
148 161 0
151 164 0
152 165 0
148 160 0
144 155 0
152 162 0
141 152 0
147 160 0
148 156 0
150 161 0
147 161 0
144 154 0
155 167 0
147 156 0
149 160 0
152 163 0
150 158 0
149 158 0
146 153 0
148 156 0
147 155 0
153 166 0
147 155 0
140 146 0
156 167 0
152 162 0
150 162 0
152 160 0
150 160 0
151 162 0
157 168 0
155 166 0
151 159 0
146 157 0
149 159 0
153 165 0
155 166 0
148 158 0
147 156 0
145 154 0
157 168 0
151 159 0
156 167 0
157 168 0
150 159 0
158 168 0
149 158 0
158 171 0
150 161 0
146 155 0
156 166 0
154 166 0
170 193 0
172 197 0
172 195 0
171 195 0
173 197 0
174 197 0
168 191 0
173 197 0
172 196 0
172 196 0
171 195 0
170 194 0
171 194 0
173 196 0
173 196 0
168 192 0
174 197 0
172 196 0
170 194 0
171 195 0
172 195 0
171 195 0
171 195 0
172 195 0
169 193 0
168 192 0
171 194 0
175 198 0
170 193 0
171 195 0
170 194 0
171 194 0
167 190 0
168 191 0
171 195 0
169 193 0
172 196 0
173 196 0
166 190 0
171 194 0
170 194 0
169 192 0
171 194 0
168 192 0
169 193 0
169 192 0
168 192 0
169 192 0
168 192 0
167 191 0
168 191 0
171 193 0
164 188 0
167 190 0
162 185 0
168 191 0
167 190 0
168 193 0
164 187 0
171 194 0
163 186 0
166 189 0
164 187 0
170 192 0
164 187 0
167 189 0
159 182 0
170 194 0
167 190 0
162 186 0
166 189 0
165 188 0
157 180 0
161 184 0
169 192 0
167 189 0
162 185 0
161 184 0
161 184 0
165 187 0
163 185 0
166 190 0
163 186 0
163 186 0
160 181 0
164 187 0
162 184 0
167 190 0
170 192 0
165 188 0
165 187 0
166 188 0
157 180 0
166 189 0
158 181 0
162 185 0
166 188 0
161 183 0
163 185 0
162 184 0
163 186 0
161 183 0
155 178 0
162 184 0
160 182 0
159 182 0
166 189 0
163 185 0
159 180 0
157 178 0
158 180 0
156 179 0
160 182 0
162 184 0
161 182 0
160 182 0
166 188 0
159 181 0
160 183 0
160 182 0
156 179 0
156 178 0
157 180 0
161 183 0
162 185 0
159 182 0
159 181 0
158 180 0
157 179 0
151 173 0
155 178 0
162 184 0
153 175 0
155 177 0
154 176 0
160 182 0
150 172 0
162 186 0
158 180 0
155 177 0
159 181 0
152 175 0
156 176 0
156 178 0
159 181 0
152 173 0
147 167 0
155 178 0
151 173 0
150 171 0
160 181 0
150 172 0
151 172 0
152 174 0
156 178 0
154 177 0
158 181 0
158 179 0
151 173 0
152 174 0
156 177 0
145 166 0
148 170 0
153 175 0
151 173 0
151 172 0
160 180 0
159 180 0
150 172 0
147 169 0
152 173 0
147 168 0
145 167 0
150 173 0
152 173 0
152 173 0
156 177 0
153 174 0
148 170 0
136 155 0
148 170 0
146 167 0
145 166 0
154 175 0
156 177 0
145 166 0
140 161 0
141 163 0
150 172 0
139 161 0
146 166 0
148 169 0
136 156 0
147 168 0
142 164 0
149 170 0
147 168 0
153 173 0
151 173 0
147 166 0
132 153 0
154 175 0
145 167 0
146 167 0
142 162 0
143 163 0
143 163 0
145 165 0
143 163 0
148 169 0
143 164 0
145 165 0
140 161 0
146 167 0
143 163 0
143 165 0
145 167 0
146 166 0
146 167 0
155 177 0
148 170 0
145 164 0
149 169 0
149 169 0
155 174 0
141 162 0
140 161 0
139 160 0
139 160 0
140 160 0
147 168 0
149 169 0
148 169 0
147 166 0
141 161 0
148 168 0
146 166 0
151 170 0
150 170 0
144 164 0
154 173 0
140 159 0
147 169 0
151 172 0
145 166 0
140 159 0
145 165 0
137 156 0
148 168 0
150 168 0
146 166 0
148 168 0
151 172 0
147 166 0
149 169 0
147 166 0
140 160 0
146 166 0
150 171 0
152 170 0
138 158 0
150 170 0
148 167 0
155 173 0
142 160 0
148 167 0
147 166 0
151 171 0
148 166 0
149 168 0
156 176 0
157 176 0
149 167 0
138 156 0
147 164 0
142 159 0
150 167 0
145 164 0
148 165 0
151 170 0
150 169 0
152 172 0
146 166 0
145 163 0
144 160 0
154 173 0
149 167 0
151 169 0
154 173 0
147 165 0
147 165 0
149 168 0
150 167 0
150 167 0
152 170 0
152 171 0
141 157 0
141 159 0
153 172 0
137 155 0
146 162 0
149 165 0
150 166 0
156 176 0
137 151 0
142 159 0
150 167 0
145 161 0
144 161 0
153 168 0
151 166 0
139 157 0
151 166 0
149 163 0
149 164 0
147 161 0
145 161 0
142 156 0
145 159 0
150 166 0
150 164 0
147 163 0
146 161 0
149 166 0
157 170 0
146 159 0
154 166 0
153 168 0
148 163 0
141 153 0
148 159 0
142 154 0
152 166 0
148 159 0
146 157 0
152 165 0
150 163 0
141 155 0
144 156 0
147 160 0
152 166 0
148 160 0
142 155 0
147 160 0
150 164 0
150 163 0
149 162 0
145 157 0
152 163 0
142 155 0
155 168 0
150 163 0
144 157 0
151 162 0
150 161 0
148 160 0
150 161 0
149 159 0
150 161 0
154 167 0
148 160 0
155 164 0
144 158 0
150 159 0
147 158 0
154 167 0
153 164 0
156 166 0
146 155 0
152 162 0
147 158 0
151 162 0
147 156 0
148 155 0
152 164 0
151 161 0
146 152 0
156 166 0
150 158 0
149 160 0
151 159 0
152 161 0
153 165 0
152 162 0
149 158 0
147 156 0
155 168 0
152 162 0
142 153 0
152 164 0
157 168 0
149 158 0
150 159 0
153 164 0
157 170 0
151 162 0
154 164 0
153 164 0
154 165 0
154 160 0
174 197 0
174 197 0
172 196 0
172 196 0
172 195 0
173 197 0
174 197 0
172 195 0
170 194 0
169 193 0
170 194 0
172 195 0
174 197 0
173 196 0
173 197 0
174 197 0
170 193 0
171 194 0
174 197 0
168 191 0
173 196 0
172 196 0
174 197 0
174 197 0
172 195 0
172 195 0
171 195 0
170 192 0
169 193 0
170 195 0
171 194 0
170 193 0
172 196 0
168 191 0
169 193 0
169 192 0
170 194 0
167 191 0
170 194 0
171 194 0
170 194 0
170 193 0
171 195 0
170 194 0
167 190 0
172 195 0
170 193 0
171 195 0
170 193 0
167 191 0
167 191 0
167 190 0
165 189 0
169 192 0
169 192 0
166 189 0
169 193 0
166 189 0
165 189 0
165 188 0
166 189 0
172 194 0
163 187 0
168 191 0
166 188 0
167 190 0
167 190 0
164 186 0
169 192 0
171 194 0
162 185 0
169 191 0
167 190 0
161 183 0
165 188 0
164 186 0
165 186 0
163 186 0
163 185 0
164 187 0
162 184 0
166 187 0
163 186 0
167 190 0
165 188 0
165 187 0
164 186 0
169 192 0
162 185 0
166 189 0
166 189 0
166 189 0
166 188 0
168 190 0
167 190 0
165 188 0
161 183 0
162 184 0
162 185 0
159 181 0
163 185 0
155 177 0
161 183 0
161 185 0
165 188 0
161 183 0
159 181 0
165 188 0
164 186 0
161 184 0
156 178 0
161 183 0
160 183 0
155 177 0
165 188 0
158 180 0
160 182 0
164 185 0
159 182 0
157 179 0
160 182 0
160 183 0
161 184 0
158 180 0
160 181 0
160 182 0
154 175 0
157 179 0
161 184 0
153 175 0
144 166 0
157 179 0
152 174 0
151 173 0
158 181 0
156 178 0
157 179 0
156 178 0
156 177 0
163 185 0
153 175 0
163 186 0
156 177 0
155 177 0
160 182 0
160 181 0
159 182 0
153 176 0
149 170 0
159 182 0
152 174 0
161 183 0
155 177 0
153 175 0
153 175 0
159 182 0
146 168 0
148 171 0
159 180 0
145 167 0
157 179 0
153 173 0
156 177 0
149 170 0
147 169 0
155 177 0
150 171 0
154 176 0
158 179 0
155 177 0
150 172 0
153 175 0
148 169 0
147 169 0
156 177 0
148 170 0
157 178 0
153 173 0
150 173 0
147 169 0
157 179 0
148 169 0
150 171 0
146 168 0
149 170 0
150 171 0
150 172 0
151 173 0
158 179 0
149 170 0
150 170 0
148 169 0
140 161 0
153 175 0
152 173 0
145 164 0
151 172 0
141 162 0
148 171 0
149 170 0
147 169 0
149 170 0
141 162 0
143 165 0
148 168 0
150 171 0
147 168 0
143 164 0
143 164 0
146 167 0
139 160 0
147 169 0
146 165 0
146 165 0
148 168 0
143 162 0
147 166 0
144 164 0
145 166 0
149 170 0
145 166 0
143 163 0
144 164 0
153 174 0
148 169 0
151 171 0
139 158 0
156 176 0
147 168 0
144 166 0
143 164 0
151 172 0
147 167 0
150 171 0
150 172 0
143 164 0
153 174 0
154 173 0
151 173 0
151 169 0
138 159 0
146 167 0
150 170 0
147 168 0
153 171 0
142 164 0
150 170 0
144 164 0
152 174 0
149 169 0
145 166 0
144 164 0
150 169 0
145 165 0
148 166 0
147 165 0
146 164 0
154 172 0
151 172 0
145 162 0
151 170 0
146 165 0
143 161 0
144 161 0
149 169 0
156 174 0
145 164 0
156 176 0
141 160 0
147 167 0
145 164 0
149 167 0
144 163 0
151 170 0
144 163 0
143 162 0
141 159 0
154 174 0
146 165 0
150 168 0
152 172 0
150 167 0
147 164 0
154 173 0
148 167 0
146 165 0
144 162 0
149 166 0
144 162 0
144 160 0
149 166 0
147 165 0
151 170 0
145 161 0
151 170 0
145 162 0
148 168 0
148 166 0
155 173 0
142 160 0
142 156 0
148 166 0
149 166 0
142 155 0
151 168 0
148 164 0
150 166 0
143 158 0
149 164 0
149 165 0
151 169 0
146 164 0
149 169 0
147 162 0
149 164 0
144 161 0
152 166 0
148 164 0
150 168 0
148 162 0
140 154 0
145 162 0
149 164 0
148 161 0
151 168 0
152 166 0
148 162 0
147 162 0
146 162 0
149 165 0
145 159 0
154 169 0
148 163 0
147 159 0
157 172 0
151 166 0
150 165 0
145 159 0
146 157 0
151 164 0
154 170 0
144 156 0
152 165 0
145 157 0
146 159 0
149 160 0
143 153 0
146 157 0
150 162 0
147 161 0
151 164 0
150 162 0
149 159 0
150 162 0
146 158 0
147 158 0
151 162 0
144 154 0
148 160 0
146 157 0
148 159 0
152 162 0
143 152 0
154 164 0
152 164 0
150 163 0
156 166 0
145 155 0
145 156 0
149 160 0
155 168 0
153 164 0
157 169 0
155 166 0
150 161 0
146 155 0
148 159 0
154 166 0
145 154 0
152 164 0
155 163 0
150 163 0
155 166 0
156 169 0
155 164 0
151 161 0
151 162 0
151 160 0
150 161 0
158 171 0
154 168 0
154 167 0
154 163 0
153 163 0
154 165 0
153 164 0
153 165 0
151 162 0
157 169 0
154 165 0
170 194 0
174 198 0
172 196 0
176 198 0
170 193 0
173 196 0
173 197 0
174 197 0
170 194 0
171 195 0
171 194 0
173 195 0
169 194 0
172 196 0
172 196 0
171 194 0
171 194 0
171 194 0
172 196 0
173 197 0
171 195 0
171 194 0
171 194 0
172 195 0
173 197 0
170 193 0
168 192 0
170 193 0
173 196 0
172 195 0
170 193 0
171 195 0
170 193 0
170 194 0
170 193 0
170 193 0
171 194 0
172 195 0
166 189 0
173 195 0
170 194 0
168 191 0
171 194 0
167 190 0
170 193 0
169 192 0
168 191 0
170 192 0
169 192 0
169 192 0
168 192 0
166 188 0
170 192 0
167 189 0
169 191 0
170 194 0
165 187 0
168 191 0
167 190 0
166 188 0
167 190 0
168 191 0
164 187 0
168 191 0
167 191 0
170 193 0
169 191 0
165 188 0
169 192 0
165 189 0
170 193 0
167 189 0
168 191 0
165 188 0
167 189 0
165 188 0
166 189 0
171 194 0
165 187 0
163 186 0
162 185 0
167 190 0
158 181 0
163 185 0
167 190 0
165 187 0
168 190 0
169 192 0
161 184 0
163 186 0
163 186 0
167 188 0
162 185 0
163 185 0
160 182 0
165 187 0
160 183 0
158 181 0
158 181 0
160 183 0
161 184 0
165 186 0
164 187 0
166 189 0
162 183 0
159 182 0
166 188 0
164 186 0
156 178 0
161 184 0
164 187 0
164 187 0
160 182 0
166 188 0
158 181 0
161 184 0
161 184 0
161 183 0
154 177 0
163 184 0
162 185 0
163 184 0
157 179 0
165 187 0
163 186 0
162 185 0
158 181 0
161 184 0
162 184 0
158 179 0
158 180 0
159 181 0
152 174 0
160 182 0
164 185 0
160 183 0
163 183 0
159 180 0
161 182 0
157 179 0
148 169 0
158 180 0
160 181 0
159 179 0
161 183 0
146 168 0
157 179 0
158 181 0
152 174 0
159 181 0
152 174 0
161 183 0
153 176 0
154 174 0
154 175 0
156 177 0
158 179 0
151 172 0
156 177 0
153 175 0
150 170 0
148 170 0
150 172 0
146 169 0
150 172 0
156 178 0
152 175 0
151 172 0
154 175 0
154 177 0
151 173 0
152 174 0
148 170 0
149 169 0
155 176 0
153 175 0
152 174 0
152 173 0
151 172 0
146 167 0
139 161 0
153 175 0
152 173 0
149 170 0
147 168 0
155 177 0
156 178 0
152 174 0
156 177 0
152 175 0
152 172 0
151 173 0
150 171 0
149 169 0
150 170 0
149 171 0
153 173 0
146 167 0
152 173 0
160 183 0
144 166 0
150 170 0
143 163 0
151 172 0
147 169 0
151 172 0
139 160 0
149 169 0
153 174 0
145 164 0
144 166 0
140 160 0
145 166 0
143 162 0
145 166 0
150 171 0
151 172 0
146 165 0
149 171 0
146 166 0
144 164 0
148 169 0
148 166 0
144 164 0
149 170 0
154 175 0
153 174 0
145 167 0
151 172 0
144 163 0
144 163 0
152 172 0
152 172 0
147 166 0
151 173 0
148 169 0
141 163 0
147 169 0
149 168 0
143 163 0
147 167 0
150 170 0
147 168 0
144 164 0
149 170 0
141 161 0
149 169 0
152 171 0
155 174 0
154 174 0
145 165 0
153 172 0
148 167 0
136 156 0
138 158 0
144 163 0
144 163 0
146 165 0
145 164 0
155 174 0
145 163 0
148 167 0
146 163 0
148 167 0
141 159 0
146 164 0
146 164 0
148 167 0
146 165 0
149 168 0
152 169 0
148 166 0
145 162 0
150 170 0
142 161 0
146 164 0
145 164 0
146 166 0
148 169 0
138 155 0
144 161 0
146 165 0
153 174 0
141 159 0
147 167 0
152 171 0
149 168 0
142 160 0
152 171 0
154 172 0
141 158 0
149 167 0
147 163 0
141 158 0
148 165 0
152 169 0
148 164 0
152 170 0
147 166 0
147 164 0
148 165 0
149 164 0
149 167 0
150 168 0
151 169 0
147 165 0
148 164 0
146 162 0
151 168 0
150 169 0
144 161 0
144 161 0
145 161 0
150 166 0
150 165 0
148 164 0
143 158 0
144 160 0
145 161 0
141 154 0
151 166 0
148 162 0
148 161 0
143 156 0
144 160 0
150 165 0
154 167 0
141 156 0
148 163 0
151 167 0
151 167 0
145 158 0
153 170 0
152 166 0
150 165 0
150 166 0
147 162 0
146 159 0
150 161 0
146 160 0
148 160 0
149 163 0
146 159 0
151 165 0
154 170 0
145 158 0
146 158 0
145 159 0
147 160 0
152 168 0
157 170 0
146 159 0
150 163 0
137 150 0
148 160 0
152 165 0
140 149 0
144 155 0
148 160 0
147 160 0
144 153 0
148 159 0
149 160 0
150 161 0
147 159 0
146 156 0
153 165 0
143 152 0
148 160 0
145 155 0
149 157 0
148 159 0
146 158 0
151 162 0
146 155 0
150 159 0
153 162 0
141 151 0
149 159 0
153 165 0
151 160 0
152 163 0
150 162 0
153 166 0
147 157 0
159 168 0
150 159 0
153 162 0
155 166 0
148 157 0
155 166 0
156 166 0
158 170 0
149 157 0
153 162 0
150 160 0
150 164 0
157 169 0
149 159 0
155 167 0
172 195 0
170 194 0
174 197 0
175 198 0
173 196 0
170 194 0
172 196 0
173 197 0
173 196 0
169 193 0
171 194 0
172 195 0
173 196 0
171 195 0
173 196 0
171 195 0
171 194 0
172 196 0
173 196 0
170 193 0
168 192 0
171 194 0
169 192 0
169 192 0
168 192 0
171 194 0
171 195 0
169 192 0
171 195 0
168 192 0
171 195 0
168 191 0
170 194 0
167 191 0
170 194 0
171 195 0
172 195 0
167 191 0
169 193 0
169 193 0
170 193 0
171 194 0
171 194 0
167 190 0
166 190 0
169 192 0
167 190 0
170 193 0
166 189 0
168 191 0
171 194 0
167 190 0
170 193 0
171 193 0
161 184 0
167 190 0
166 189 0
170 193 0
166 189 0
173 196 0
165 189 0
168 191 0
164 187 0
167 190 0
169 192 0
165 188 0
166 190 0
171 193 0
167 189 0
167 190 0
162 186 0
159 181 0
162 185 0
166 189 0
166 189 0
165 188 0
160 183 0
166 188 0
163 186 0
165 188 0
162 185 0
165 189 0
164 187 0
168 190 0
165 188 0
164 187 0
165 188 0
166 189 0
165 187 0
167 190 0
164 186 0
164 187 0
159 182 0
165 187 0
162 184 0
163 186 0
159 181 0
164 186 0
158 181 0
161 184 0
168 190 0
164 186 0
160 184 0
164 186 0
161 184 0
156 179 0
164 186 0
157 179 0
166 188 0
166 189 0
166 187 0
164 187 0
158 180 0
162 184 0
162 183 0
161 183 0
160 182 0
157 179 0
159 181 0
158 181 0
162 185 0
155 177 0
154 176 0
162 184 0
158 181 0
159 182 0
159 182 0
159 181 0
156 178 0
155 178 0
159 181 0
157 179 0
159 181 0
159 182 0
157 179 0
157 179 0
159 182 0
154 175 0
155 177 0
160 181 0
158 181 0
157 179 0
163 186 0
154 177 0
156 177 0
153 175 0
154 176 0
148 170 0
150 173 0
156 178 0
149 171 0
156 178 0
154 175 0
152 174 0
154 176 0
153 173 0
160 182 0
151 173 0
151 171 0
150 171 0
163 184 0
153 174 0
157 179 0
147 170 0
156 177 0
151 173 0
156 177 0
153 174 0
155 176 0
154 175 0
149 170 0
150 171 0
152 172 0
152 173 0
157 180 0
153 174 0
149 170 0
153 175 0
154 175 0
145 166 0
138 158 0
157 180 0
148 169 0
145 166 0
148 169 0
157 179 0
154 174 0
152 173 0
154 176 0
148 169 0
141 161 0
151 174 0
145 166 0
151 171 0
148 169 0
144 166 0
148 170 0
145 165 0
144 166 0
145 165 0
149 170 0
139 160 0
141 162 0
151 173 0
150 171 0
158 179 0
150 171 0
147 168 0
148 169 0
148 169 0
141 161 0
150 171 0
148 169 0
141 161 0
143 164 0
143 165 0
147 168 0
149 170 0
151 172 0
146 166 0
148 169 0
143 164 0
147 167 0
146 165 0
148 169 0
153 173 0
148 167 0
145 166 0
151 172 0
145 165 0
147 167 0
154 175 0
150 170 0
144 164 0
152 172 0
148 167 0
146 167 0
142 161 0
144 161 0
139 158 0
142 162 0
150 170 0
151 171 0
153 173 0
141 160 0
146 167 0
154 174 0
142 161 0
142 161 0
139 159 0
142 161 0
147 167 0
144 163 0
147 167 0
149 168 0
149 169 0
147 168 0
149 169 0
151 171 0
153 174 0
144 163 0
143 162 0
151 170 0
146 167 0
150 170 0
154 174 0
148 168 0
149 169 0
149 169 0
149 168 0
150 167 0
145 163 0
152 171 0
149 170 0
145 164 0
129 148 0
154 173 0
155 177 0
154 173 0
153 172 0
147 165 0
147 169 0
153 173 0
141 158 0
143 161 0
153 170 0
147 165 0
142 161 0
142 159 0
150 167 0
142 157 0
153 171 0
146 164 0
145 163 0
140 159 0
147 167 0
149 165 0
143 159 0
148 166 0
147 164 0
150 168 0
155 171 0
156 174 0
149 164 0
146 163 0
151 168 0
143 159 0
154 172 0
151 167 0
144 158 0
142 158 0
159 177 0
152 170 0
150 165 0
145 161 0
149 165 0
145 161 0
151 169 0
143 158 0
144 159 0
153 170 0
150 168 0
151 168 0
148 165 0
146 161 0
156 172 0
149 165 0
155 169 0
149 165 0
139 153 0
156 172 0
149 164 0
147 162 0
143 159 0
155 169 0
152 168 0
150 162 0
150 167 0
139 154 0
147 162 0
151 164 0
146 161 0
147 159 0
151 165 0
150 164 0
152 166 0
151 164 0
154 166 0
155 170 0
149 163 0
154 169 0
147 159 0
153 167 0
147 160 0
148 163 0
151 166 0
151 162 0
148 159 0
139 149 0
149 163 0
145 157 0
154 167 0
149 162 0
138 148 0
146 158 0
151 163 0
150 162 0
155 169 0
152 165 0
147 160 0
148 158 0
151 161 0
143 154 0
152 163 0
148 159 0
151 162 0
157 171 0
154 166 0
150 161 0
146 154 0
154 166 0
152 168 0
160 170 0
152 164 0
149 162 0
150 160 0
151 164 0
143 152 0
147 158 0
144 155 0
149 159 0
154 165 0
152 164 0
156 169 0
148 159 0
156 170 0
157 167 0
151 160 0
149 159 0
159 170 0
172 195 0
173 196 0
172 196 0
173 196 0
170 193 0
174 197 0
171 194 0
172 195 0
169 192 0
172 195 0
173 196 0
174 197 0
173 196 0
173 196 0
171 193 0
173 197 0
170 193 0
170 194 0
172 196 0
168 191 0
171 194 0
172 196 0
168 191 0
169 193 0
173 196 0
171 194 0
173 196 0
172 195 0
171 194 0
173 197 0
172 195 0
167 190 0
169 193 0
172 196 0
167 191 0
170 194 0
166 189 0
171 195 0
170 193 0
171 194 0
168 191 0
167 191 0
168 191 0
172 195 0
169 191 0
167 190 0
168 191 0
166 189 0
168 191 0
169 192 0
170 192 0
166 188 0
167 190 0
165 187 0
167 190 0
166 189 0
168 192 0
168 191 0
169 192 0
163 186 0
171 194 0
169 191 0
166 189 0
172 194 0
170 193 0
168 191 0
166 189 0
170 192 0
167 189 0
167 190 0
164 187 0
171 193 0
166 189 0
170 194 0
166 189 0
165 187 0
162 184 0
168 190 0
161 184 0
166 188 0
162 185 0
166 188 0
163 186 0
159 181 0
164 188 0
163 185 0
169 191 0
165 188 0
162 184 0
162 184 0
163 187 0
164 188 0
163 186 0
164 186 0
163 186 0
164 186 0
168 190 0
172 194 0
159 182 0
164 186 0
158 180 0
163 186 0
159 182 0
159 183 0
163 186 0
162 185 0
161 183 0
165 188 0
163 187 0
159 183 0
160 183 0
166 188 0
158 181 0
163 185 0
165 187 0
164 186 0
157 179 0
159 181 0
162 183 0
161 184 0
158 181 0
155 177 0
158 179 0
157 179 0
159 181 0
161 184 0
160 183 0
159 181 0
159 182 0
162 184 0
158 180 0
162 185 0
161 183 0
152 174 0
156 178 0
159 181 0
155 178 0
155 177 0
163 185 0
149 170 0
157 178 0
154 176 0
158 181 0
153 176 0
154 176 0
155 177 0
150 171 0
150 172 0
163 185 0
156 178 0
157 178 0
153 174 0
157 180 0
156 177 0
151 173 0
155 178 0
152 173 0
150 173 0
153 175 0
151 172 0
155 177 0
150 171 0
153 174 0
151 174 0
154 176 0
153 174 0
159 180 0
151 173 0
155 177 0
154 176 0
151 174 0
153 173 0
154 175 0
154 175 0
151 173 0
153 174 0
147 168 0
150 171 0
154 176 0
153 174 0
150 173 0
139 160 0
151 172 0
143 164 0
145 164 0
148 168 0
145 168 0
150 172 0
152 175 0
154 176 0
151 172 0
147 168 0
148 167 0
146 168 0
149 170 0
146 168 0
152 172 0
148 169 0
148 169 0
154 175 0
151 171 0
147 169 0
150 172 0
146 167 0
148 168 0
145 166 0
143 164 0
142 164 0
144 165 0
153 174 0
151 171 0
146 166 0
141 162 0
149 169 0
146 166 0
152 173 0
141 162 0
155 176 0
147 167 0
147 168 0
145 166 0
144 165 0
156 176 0
139 160 0
153 174 0
151 172 0
151 172 0
143 163 0
144 165 0
148 166 0
148 167 0
147 165 0
146 167 0
151 170 0
147 166 0
143 163 0
148 169 0
154 174 0
148 168 0
151 174 0
157 179 0
142 163 0
148 170 0
151 171 0
154 174 0
144 165 0
148 167 0
154 174 0
148 167 0
154 174 0
143 162 0
141 160 0
144 163 0
151 171 0
145 166 0
149 168 0
158 178 0
155 176 0
152 171 0
158 178 0
150 170 0
151 170 0
148 167 0
154 174 0
148 169 0
148 166 0
147 166 0
145 163 0
156 176 0
151 170 0
146 165 0
149 169 0
152 170 0
146 165 0
148 167 0
146 164 0
151 170 0
151 169 0
150 167 0
141 160 0
149 168 0
147 165 0
143 161 0
145 162 0
148 167 0
148 166 0
146 167 0
144 161 0
154 173 0
157 176 0
148 165 0
152 169 0
151 168 0
151 169 0
149 166 0
149 165 0
145 163 0
146 163 0
152 170 0
142 156 0
152 169 0
153 171 0
157 175 0
151 168 0
153 172 0
145 164 0
144 162 0
151 166 0
148 166 0
156 172 0
149 168 0
145 163 0
151 170 0
145 163 0
145 161 0
146 161 0
155 172 0
142 159 0
149 167 0
149 167 0
145 160 0
154 170 0
146 161 0
149 164 0
150 168 0
147 162 0
145 162 0
155 171 0
154 169 0
153 169 0
146 158 0
150 164 0
147 161 0
148 162 0
147 162 0
144 159 0
150 167 0
152 167 0
159 173 0
148 163 0
151 166 0
152 166 0
143 156 0
148 163 0
146 159 0
150 166 0
153 168 0
153 170 0
144 158 0
148 161 0
155 171 0
147 158 0
150 162 0
155 170 0
147 158 0
156 169 0
145 156 0
154 166 0
151 165 0
153 166 0
152 164 0
154 168 0
147 160 0
154 169 0
151 163 0
152 166 0
150 163 0
162 177 0
152 162 0
146 158 0
149 160 0
150 164 0
152 166 0
147 159 0
153 165 0
150 161 0
149 160 0
145 155 0
161 174 0
155 167 0
154 166 0
153 166 0
153 166 0
158 169 0
152 163 0
155 165 0
154 165 0
151 163 0
154 165 0
157 171 0
147 159 0
151 163 0
153 161 0
159 173 0
151 161 0
153 163 0
151 160 0
153 164 0
153 163 0
156 166 0
173 196 0
171 195 0
173 196 0
169 192 0
173 195 0
174 197 0
170 194 0
173 196 0
172 196 0
171 195 0
170 194 0
172 194 0
169 192 0
173 197 0
171 195 0
170 193 0
169 192 0
169 193 0
172 195 0
168 191 0
170 193 0
170 193 0
168 190 0
172 194 0
167 190 0
169 193 0
171 194 0
169 192 0
168 191 0
166 189 0
170 193 0
171 194 0
169 191 0
170 194 0
171 195 0
167 190 0
168 191 0
167 190 0
171 194 0
171 195 0
168 191 0
170 193 0
168 192 0
171 194 0
171 194 0
168 192 0
165 188 0
171 194 0
170 193 0
169 192 0
169 192 0
164 188 0
171 193 0
169 192 0
171 194 0
162 185 0
166 189 0
167 189 0
167 190 0
162 184 0
166 189 0
166 190 0
166 188 0
169 192 0
164 187 0
166 189 0
165 188 0
167 190 0
166 189 0
167 189 0
158 180 0
169 191 0
167 190 0
166 189 0
165 187 0
162 185 0
168 191 0
163 185 0
166 189 0
166 189 0
165 189 0
165 188 0
165 188 0
164 188 0
166 189 0
168 191 0
163 185 0
162 184 0
163 185 0
160 183 0
167 190 0
164 187 0
162 183 0
155 177 0
169 191 0
160 183 0
160 182 0
168 191 0
163 185 0
159 182 0
163 186 0
166 188 0
165 187 0
159 182 0
163 185 0
166 188 0
169 192 0
160 182 0
164 186 0
153 175 0
161 184 0
162 185 0
161 184 0
164 186 0
162 184 0
158 180 0
162 185 0
156 179 0
166 188 0
163 184 0
161 183 0
164 186 0
157 178 0
161 183 0
159 181 0
159 180 0
160 183 0
159 180 0
159 182 0
157 179 0
158 180 0
158 180 0
159 181 0
155 177 0
166 188 0
155 177 0
154 176 0
151 174 0
163 185 0
157 178 0
157 180 0
159 180 0
158 180 0
150 172 0
155 176 0
160 182 0
157 179 0
156 178 0
156 178 0
157 178 0
150 174 0
161 183 0
153 175 0
157 179 0
155 177 0
160 182 0
151 174 0
154 176 0
148 170 0
151 173 0
146 168 0
152 174 0
156 178 0
148 170 0
147 167 0
163 184 0
159 180 0
152 174 0
155 177 0
152 173 0
154 175 0
151 173 0
150 171 0
161 182 0
160 182 0
147 168 0
155 177 0
149 171 0
147 167 0
161 183 0
147 169 0
149 171 0
150 170 0
153 174 0
154 175 0
150 172 0
157 178 0
150 171 0
148 170 0
147 168 0
158 180 0
142 163 0
153 176 0
146 168 0
153 175 0
146 167 0
148 167 0
149 170 0
150 173 0
147 168 0
147 169 0
143 164 0
150 171 0
155 176 0
152 173 0
145 165 0
146 167 0
149 171 0
150 171 0
151 173 0
149 170 0
155 175 0
154 175 0
153 173 0
155 177 0
145 166 0
147 167 0
146 168 0
152 172 0
154 176 0
157 178 0
151 172 0
155 174 0
143 165 0
149 170 0
146 167 0
160 181 0
154 176 0
151 172 0
144 164 0
156 178 0
144 166 0
151 172 0
149 169 0
151 173 0
153 173 0
152 175 0
147 166 0
148 170 0
148 168 0
158 178 0
148 168 0
149 170 0
153 174 0
145 165 0
141 160 0
143 162 0
150 170 0
152 171 0
144 164 0
148 169 0
148 167 0
148 170 0
151 172 0
152 173 0
151 172 0
149 168 0
143 164 0
145 165 0
151 173 0
147 167 0
143 162 0
149 168 0
148 167 0
141 159 0
152 172 0
154 175 0
149 168 0
154 173 0
148 167 0
142 159 0
148 167 0
150 170 0
152 169 0
149 168 0
150 170 0
157 176 0
155 175 0
143 161 0
148 167 0
143 161 0
150 167 0
144 163 0
151 170 0
139 156 0
152 172 0
141 159 0
143 162 0
153 172 0
145 163 0
148 168 0
146 164 0
150 167 0
154 170 0
153 173 0
151 169 0
151 169 0
154 174 0
151 167 0
140 157 0
151 168 0
157 174 0
150 170 0
155 173 0
146 163 0
145 159 0
150 166 0
149 164 0
158 176 0
145 162 0
156 174 0
157 175 0
143 159 0
149 167 0
152 169 0
144 162 0
150 167 0
145 162 0
143 157 0
150 165 0
149 164 0
147 164 0
149 164 0
152 168 0
150 166 0
147 162 0
151 165 0
147 161 0
150 166 0
150 165 0
144 157 0
152 170 0
147 161 0
154 169 0
143 157 0
147 160 0
149 168 0
147 159 0
145 158 0
151 163 0
155 171 0
144 159 0
153 171 0
148 163 0
152 166 0
156 170 0
147 161 0
144 160 0
158 174 0
150 162 0
149 161 0
146 160 0
147 158 0
148 163 0
148 160 0
151 168 0
155 169 0
156 171 0
156 173 0
150 163 0
155 169 0
158 174 0
147 163 0
156 167 0
160 173 0
146 158 0
156 168 0
146 159 0
156 170 0
149 163 0
146 158 0
144 155 0
148 160 0
145 157 0
151 164 0
156 167 0
147 160 0
152 163 0
152 165 0
157 166 0
145 155 0
155 169 0
152 161 0
151 163 0
150 162 0
154 167 0
152 163 0
155 165 0
156 169 0
146 158 0
154 167 0
163 177 0
157 170 0
149 158 0
158 169 0
158 170 0
149 161 0
151 164 0
151 161 0
152 162 0
172 196 0
173 197 0
171 194 0
170 194 0
171 195 0
173 196 0
174 197 0
173 197 0
173 196 0
172 196 0
172 196 0
171 195 0
172 196 0
171 194 0
168 191 0
172 195 0
171 193 0
171 193 0
167 190 0
171 194 0
171 194 0
167 191 0
173 195 0
171 194 0
166 190 0
168 191 0
171 194 0
170 193 0
164 187 0
168 191 0
170 193 0
168 191 0
173 196 0
172 196 0
171 194 0
172 195 0
168 191 0
172 194 0
170 193 0
167 190 0
169 192 0
169 192 0
167 190 0
168 192 0
168 190 0
169 191 0
173 196 0
169 192 0
170 193 0
166 188 0
164 187 0
168 192 0
169 192 0
168 191 0
168 191 0
170 193 0
169 192 0
167 189 0
165 188 0
163 187 0
170 192 0
169 192 0
166 190 0
168 191 0
168 190 0
166 189 0
168 190 0
162 186 0
166 189 0
166 189 0
164 186 0
167 190 0
168 189 0
163 186 0
161 184 0
167 190 0
160 182 0
169 191 0
160 183 0
166 188 0
166 188 0
166 189 0
159 181 0
162 185 0
167 189 0
162 184 0
170 193 0
164 187 0
160 182 0
162 185 0
168 190 0
162 185 0
157 180 0
161 182 0
162 185 0
160 183 0
167 190 0
161 183 0
166 189 0
164 187 0
164 186 0
161 184 0
159 183 0
166 188 0
162 185 0
160 182 0
160 183 0
164 187 0
163 185 0
155 177 0
163 185 0
167 189 0
163 185 0
165 187 0
165 187 0
156 179 0
163 186 0
164 185 0
160 182 0
157 179 0
166 189 0
156 178 0
158 180 0
157 179 0
154 176 0
158 181 0
159 182 0
164 186 0
159 181 0
164 186 0
154 176 0
161 183 0
162 183 0
162 184 0
160 182 0
158 179 0
166 188 0
153 175 0
160 182 0
155 177 0
156 178 0
162 184 0
164 185 0
157 180 0
162 183 0
156 177 0
155 177 0
159 181 0
153 174 0
160 183 0
155 176 0
153 175 0
158 181 0
154 176 0
156 177 0
159 182 0
160 182 0
146 168 0
147 169 0
152 173 0
156 178 0
160 182 0
147 168 0
154 175 0
156 177 0
157 178 0
158 179 0
154 176 0
148 170 0
154 175 0
159 180 0
153 175 0
152 174 0
156 178 0
157 179 0
146 168 0
157 178 0
151 172 0
152 173 0
149 170 0
148 170 0
139 161 0
152 174 0
151 173 0
149 170 0
144 165 0
157 178 0
151 172 0
159 180 0
151 173 0
154 175 0
142 164 0
151 172 0
154 175 0
152 174 0
150 171 0
151 171 0
154 175 0
151 172 0
153 174 0
149 171 0
142 164 0
152 172 0
145 167 0
158 180 0
152 173 0
147 167 0
141 162 0
149 170 0
149 171 0
151 173 0
149 169 0
146 168 0
145 166 0
145 165 0
138 159 0
162 185 0
142 161 0
156 177 0
145 166 0
149 170 0
150 171 0
153 175 0
146 166 0
149 171 0
147 168 0
142 163 0
150 171 0
148 170 0
152 173 0
146 166 0
155 176 0
148 167 0
138 158 0
148 169 0
144 164 0
153 173 0
146 166 0
143 164 0
156 177 0
157 178 0
152 172 0
153 174 0
158 179 0
148 169 0
146 164 0
148 167 0
153 175 0
152 172 0
149 170 0
151 171 0
152 174 0
155 175 0
147 166 0
148 166 0
160 181 0
148 169 0
147 166 0
155 174 0
150 169 0
152 171 0
149 169 0
143 161 0
148 168 0
153 173 0
154 172 0
142 161 0
156 177 0
147 166 0
144 162 0
148 166 0
151 170 0
143 161 0
146 166 0
141 160 0
147 167 0
155 172 0
149 168 0
152 172 0
149 165 0
145 164 0
151 170 0
159 180 0
155 176 0
148 166 0
152 174 0
149 168 0
154 173 0
147 165 0
153 172 0
154 172 0
152 171 0
154 174 0
148 167 0
143 159 0
148 168 0
151 170 0
150 169 0
144 160 0
151 169 0
146 162 0
158 176 0
154 171 0
145 162 0
147 163 0
152 169 0
152 170 0
149 169 0
153 172 0
146 161 0
150 167 0
153 172 0
147 164 0
153 171 0
156 172 0
152 168 0
147 164 0
156 174 0
153 169 0
145 160 0
147 163 0
138 153 0
155 172 0
156 173 0
150 165 0
152 167 0
153 170 0
146 161 0
153 170 0
148 164 0
152 169 0
154 170 0
148 159 0
155 173 0
155 171 0
150 164 0
147 161 0
139 153 0
148 160 0
135 150 0
157 174 0
146 160 0
156 172 0
150 161 0
153 168 0
146 160 0
152 166 0
151 167 0
151 166 0
151 163 0
149 162 0
152 166 0
151 165 0
147 160 0
150 162 0
155 168 0
151 162 0
154 168 0
149 161 0
156 170 0
147 161 0
152 164 0
154 168 0
150 162 0
150 162 0
145 157 0
150 162 0
156 169 0
152 165 0
151 161 0
151 166 0
155 168 0
145 154 0
157 170 0
153 164 0
151 162 0
154 165 0
153 166 0
154 169 0
147 160 0
153 166 0
153 166 0
159 173 0
155 167 0
151 164 0
152 162 0
151 162 0
150 161 0
156 168 0
159 172 0
146 157 0
153 163 0
157 167 0
147 157 0
156 168 0
154 166 0
162 177 0
151 165 0
154 167 0
156 167 0
173 196 0
174 197 0
172 196 0
166 189 0
174 197 0
170 194 0
174 197 0
170 193 0
172 195 0
171 194 0
170 193 0
171 195 0
171 195 0
171 194 0
171 195 0
168 191 0
170 193 0
173 196 0
172 195 0
173 196 0
170 194 0
170 192 0
169 192 0
170 193 0
172 195 0
169 192 0
171 194 0
172 195 0
171 195 0
172 195 0
172 194 0
166 189 0
168 192 0
168 191 0
167 190 0
164 188 0
172 195 0
170 194 0
169 192 0
169 192 0
170 193 0
170 193 0
171 194 0
169 193 0
170 193 0
168 191 0
167 190 0
168 191 0
169 191 0
167 190 0
169 191 0
171 194 0
168 190 0
169 191 0
175 197 0
166 189 0
169 192 0
165 189 0
165 188 0
167 190 0
167 189 0
168 191 0
165 187 0
172 195 0
167 190 0
168 191 0
162 185 0
165 188 0
168 191 0
169 191 0
165 188 0
170 192 0
165 188 0
163 186 0
167 190 0
171 193 0
165 188 0
168 190 0
164 186 0
168 190 0
162 184 0
163 185 0
166 188 0
168 190 0
167 189 0
165 187 0
165 186 0
157 180 0
163 184 0
166 188 0
165 188 0
159 181 0
163 185 0
164 186 0
163 185 0
164 187 0
162 184 0
158 180 0
156 178 0
165 187 0
166 188 0
162 184 0
158 181 0
163 184 0
160 182 0
164 186 0
163 185 0
158 180 0
160 182 0
163 185 0
158 180 0
162 184 0
157 178 0
158 180 0
156 178 0
157 180 0
164 187 0
168 191 0
158 180 0
164 187 0
162 183 0
156 179 0
162 184 0
163 185 0
157 179 0
158 179 0
160 182 0
159 181 0
154 176 0
156 177 0
151 173 0
165 187 0
158 180 0
161 182 0
161 183 0
155 178 0
160 183 0
154 176 0
152 175 0
162 184 0
160 182 0
157 180 0
153 175 0
154 176 0
155 177 0
151 173 0
152 173 0
147 170 0
158 180 0
153 176 0
160 183 0
158 180 0
156 178 0
156 178 0
158 180 0
157 179 0
155 178 0
158 179 0
155 176 0
155 177 0
152 174 0
160 182 0
153 174 0
154 175 0
153 176 0
158 181 0
158 180 0
144 165 0
160 183 0
154 175 0
152 174 0
149 171 0
156 176 0
152 174 0
151 172 0
153 174 0
154 176 0
150 171 0
157 179 0
149 170 0
147 168 0
151 172 0
156 177 0
154 176 0
154 174 0
154 176 0
153 176 0
148 170 0
151 172 0
160 181 0
143 164 0
146 167 0
155 176 0
153 175 0
159 180 0
147 169 0
144 164 0
150 171 0
147 168 0
150 171 0
151 173 0
148 168 0
152 173 0
152 173 0
147 167 0
151 173 0
148 170 0
158 179 0
148 168 0
145 168 0
149 170 0
153 174 0
152 172 0
151 172 0
150 171 0
150 171 0
152 175 0
148 167 0
143 165 0
154 175 0
148 168 0
146 167 0
152 173 0
153 173 0
149 168 0
145 164 0
150 171 0
142 163 0
156 176 0
148 168 0
149 171 0
149 168 0
151 172 0
147 168 0
144 165 0
150 169 0
154 176 0
149 170 0
150 171 0
147 168 0
146 166 0
147 168 0
148 169 0
145 165 0
152 172 0
143 164 0
152 172 0
146 167 0
149 168 0
158 178 0
145 165 0
138 159 0
147 167 0
148 166 0
150 172 0
149 170 0
156 177 0
154 174 0
152 170 0
146 167 0
144 164 0
156 176 0
147 167 0
155 175 0
159 181 0
154 173 0
144 163 0
153 173 0
151 172 0
149 170 0
151 171 0
149 169 0
150 169 0
148 167 0
153 171 0
148 168 0
142 161 0
143 161 0
152 172 0
145 163 0
152 173 0
148 168 0
156 175 0
144 162 0
148 168 0
154 173 0
143 160 0
155 174 0
153 172 0
149 169 0
141 160 0
146 164 0
151 170 0
148 166 0
149 167 0
145 163 0
153 170 0
144 161 0
151 169 0
154 174 0
158 176 0
145 163 0
151 168 0
148 165 0
160 179 0
144 162 0
161 178 0
150 167 0
148 167 0
140 157 0
152 167 0
152 170 0
140 156 0
158 177 0
148 164 0
148 165 0
145 160 0
147 163 0
157 176 0
150 166 0
143 160 0
141 158 0
139 156 0
145 162 0
155 172 0
152 167 0
141 156 0
153 169 0
146 159 0
151 168 0
149 162 0
155 172 0
150 165 0
146 164 0
159 174 0
154 170 0
154 169 0
151 167 0
160 178 0
153 169 0
152 167 0
145 159 0
148 163 0
150 165 0
150 163 0
157 172 0
154 169 0
152 166 0
148 162 0
152 167 0
154 168 0
150 163 0
151 165 0
151 165 0
148 162 0
154 169 0
153 166 0
148 159 0
145 159 0
153 169 0
148 161 0
150 164 0
155 170 0
152 165 0
159 173 0
151 163 0
161 176 0
149 163 0
151 164 0
155 169 0
159 173 0
153 161 0
153 166 0
154 167 0
150 162 0
149 160 0
149 161 0
154 166 0
158 173 0
158 172 0
152 164 0
154 169 0
154 166 0
156 172 0
149 161 0
146 158 0
150 159 0
158 170 0
151 162 0
150 165 0
150 160 0
151 164 0
151 161 0
157 170 0
151 163 0
156 169 0
150 162 0
152 166 0
157 169 0
159 172 0
172 195 0
174 197 0
171 195 0
174 197 0
170 194 0
170 193 0
171 194 0
173 196 0
172 194 0
172 196 0
169 193 0
170 194 0
173 196 0
166 190 0
172 195 0
168 191 0
173 196 0
170 194 0
172 196 0
174 197 0
171 193 0
171 194 0
171 194 0
169 193 0
168 191 0
170 193 0
170 194 0
170 194 0
171 194 0
170 193 0
170 193 0
168 191 0
171 194 0
173 197 0
168 191 0
170 193 0
170 193 0
171 194 0
170 193 0
167 190 0
168 191 0
169 192 0
172 195 0
171 194 0
169 192 0
171 193 0
170 192 0
169 192 0
170 193 0
170 194 0
168 190 0
171 194 0
167 190 0
171 194 0
165 188 0
165 189 0
168 191 0
169 192 0
164 186 0
161 184 0
167 190 0
167 190 0
164 187 0
164 187 0
163 186 0
167 189 0
166 190 0
168 191 0
167 189 0
163 185 0
166 189 0
167 189 0
167 189 0
166 189 0
165 187 0
162 185 0
163 184 0
170 192 0
161 184 0
168 189 0
159 182 0
163 186 0
165 187 0
164 186 0
164 186 0
166 189 0
161 183 0
165 189 0
168 191 0
168 189 0
168 191 0
165 187 0
166 189 0
169 191 0
160 181 0
167 188 0
163 185 0
164 187 0
163 186 0
166 188 0
153 176 0
162 185 0
167 189 0
166 188 0
162 185 0
168 192 0
160 182 0
165 187 0
162 185 0
155 177 0
166 189 0
157 180 0
161 182 0
158 181 0
160 182 0
161 183 0
165 188 0
164 188 0
164 187 0
160 183 0
158 180 0
161 183 0
166 188 0
162 184 0
154 177 0
158 181 0
156 177 0
162 184 0
159 181 0
154 177 0
162 185 0
162 183 0
156 177 0
154 177 0
161 183 0
158 179 0
152 174 0
145 167 0
158 179 0
161 183 0
153 175 0
158 180 0
158 180 0
158 181 0
160 183 0
160 182 0
162 184 0
158 179 0
150 171 0
157 179 0
155 177 0
152 174 0
157 180 0
149 171 0
154 177 0
151 172 0
156 179 0
157 178 0
158 179 0
153 175 0
156 176 0
156 178 0
155 176 0
157 180 0
159 182 0
158 180 0
144 166 0
154 175 0
150 172 0
153 175 0
153 174 0
148 170 0
158 180 0
158 179 0
156 178 0
160 182 0
153 174 0
156 178 0
154 175 0
145 166 0
154 174 0
150 172 0
155 178 0
150 170 0
150 172 0
157 179 0
154 176 0
156 178 0
154 175 0
150 173 0
148 169 0
148 169 0
149 170 0
150 173 0
157 179 0
148 168 0
138 160 0
151 173 0
150 172 0
150 172 0
151 173 0
155 176 0
152 175 0
151 172 0
152 174 0
147 168 0
148 169 0
153 172 0
149 170 0
150 171 0
145 166 0
148 169 0
151 171 0
151 170 0
147 167 0
155 176 0
141 160 0
147 169 0
150 170 0
147 168 0
148 169 0
145 166 0
144 165 0
147 166 0
149 169 0
155 175 0
144 165 0
150 171 0
151 173 0
144 166 0
155 175 0
149 170 0
149 170 0
142 162 0
151 173 0
156 178 0
140 161 0
153 174 0
154 175 0
151 173 0
157 178 0
148 168 0
148 169 0
151 170 0
152 172 0
149 169 0
150 171 0
154 176 0
149 169 0
147 167 0
149 170 0
158 180 0
156 176 0
152 170 0
157 177 0
140 161 0
146 166 0
146 168 0
146 164 0
150 172 0
144 164 0
154 175 0
154 174 0
150 169 0
148 169 0
146 165 0
151 171 0
150 168 0
145 164 0
151 171 0
148 169 0
147 165 0
148 168 0
153 172 0
143 160 0
160 181 0
155 177 0
147 168 0
154 175 0
147 166 0
146 164 0
160 178 0
150 169 0
146 165 0
149 168 0
149 169 0
148 166 0
158 176 0
159 177 0
148 168 0
153 171 0
146 165 0
149 167 0
152 171 0
144 161 0
151 171 0
148 166 0
156 177 0
146 164 0
150 169 0
148 163 0
150 168 0
150 169 0
150 168 0
149 167 0
149 168 0
158 177 0
152 170 0
145 161 0
152 170 0
147 165 0
150 168 0
154 171 0
158 174 0
155 175 0
152 170 0
152 170 0
145 162 0
144 160 0
149 165 0
152 168 0
150 167 0
149 164 0
153 170 0
149 163 0
147 162 0
147 163 0
154 172 0
145 159 0
151 169 0
148 163 0
152 167 0
150 168 0
148 164 0
148 164 0
151 169 0
155 171 0
151 165 0
146 161 0
151 166 0
157 171 0
152 166 0
156 172 0
155 171 0
153 169 0
150 163 0
147 162 0
157 172 0
147 161 0
146 160 0
154 169 0
150 164 0
158 175 0
151 166 0
150 166 0
149 163 0
152 166 0
146 161 0
154 170 0
146 162 0
149 161 0
150 163 0
152 166 0
143 157 0
148 159 0
154 167 0
148 161 0
147 161 0
151 164 0
150 162 0
156 170 0
146 158 0
157 174 0
148 160 0
154 169 0
154 167 0
159 173 0
148 162 0
153 166 0
150 163 0
152 166 0
152 164 0
151 163 0
157 170 0
148 160 0
153 165 0
149 160 0
152 167 0
155 167 0
151 163 0
153 164 0
161 175 0
146 160 0
160 173 0
155 168 0
157 169 0
157 170 0
155 167 0
150 163 0
154 168 0
172 194 0
172 196 0
175 197 0
170 194 0
169 193 0
171 194 0
176 199 0
171 194 0
173 196 0
172 195 0
172 195 0
171 194 0
170 193 0
169 192 0
172 196 0
172 195 0
172 195 0
172 195 0
167 190 0
171 194 0
171 194 0
173 195 0
173 196 0
164 187 0
171 194 0
167 189 0
170 192 0
168 191 0
170 194 0
170 194 0
170 194 0
169 193 0
166 189 0
167 191 0
164 187 0
170 194 0
169 192 0
172 195 0
167 190 0
170 192 0
169 192 0
166 189 0
167 189 0
170 194 0
166 190 0
168 191 0
170 193 0
163 186 0
163 186 0
171 194 0
168 191 0
165 189 0
171 193 0
170 193 0
166 189 0
171 193 0
166 189 0
166 189 0
170 193 0
165 187 0
170 193 0
168 191 0
168 190 0
169 192 0
168 191 0
169 192 0
166 189 0
162 185 0
170 192 0
164 187 0
165 188 0
169 192 0
167 190 0
166 189 0
166 189 0
162 185 0
162 185 0
172 195 0
169 192 0
165 187 0
165 188 0
167 189 0
167 189 0
162 184 0
158 180 0
163 185 0
158 181 0
164 188 0
169 191 0
164 187 0
159 181 0
161 184 0
166 188 0
166 189 0
160 182 0
162 186 0
163 185 0
164 186 0
161 184 0
167 188 0
163 185 0
161 184 0
163 186 0
159 182 0
159 181 0
156 179 0
165 187 0
158 181 0
162 184 0
165 187 0
160 183 0
162 185 0
159 181 0
161 183 0
165 187 0
161 183 0
162 184 0
158 181 0
166 188 0
162 184 0
159 181 0
164 187 0
154 176 0
160 181 0
155 178 0
156 179 0
156 178 0
159 182 0
161 183 0
158 182 0
156 179 0
164 186 0
160 181 0
153 176 0
156 178 0
154 176 0
157 178 0
153 173 0
157 179 0
158 181 0
159 180 0
158 181 0
159 180 0
168 189 0
150 172 0
157 179 0
155 176 0
154 176 0
160 183 0
153 176 0
159 180 0
152 174 0
157 179 0
158 180 0
152 174 0
155 177 0
159 182 0
165 188 0
156 176 0
151 173 0
155 177 0
157 180 0
161 183 0
161 182 0
156 177 0
152 173 0
153 175 0
153 174 0
159 181 0
159 181 0
155 176 0
149 170 0
156 178 0
158 181 0
157 178 0
159 181 0
153 174 0
149 170 0
150 172 0
155 177 0
150 171 0
155 176 0
154 176 0
151 171 0
152 174 0
145 167 0
159 180 0
154 175 0
152 174 0
142 164 0
155 176 0
153 173 0
157 179 0
154 176 0
151 173 0
147 169 0
153 176 0
150 171 0
153 173 0
146 169 0
146 166 0
151 173 0
151 172 0
146 168 0
150 172 0
157 179 0
154 175 0
151 170 0
142 163 0
150 172 0
143 165 0
149 169 0
150 171 0
147 167 0
148 170 0
156 176 0
154 176 0
147 166 0
152 174 0
146 167 0
146 168 0
149 168 0
149 170 0
154 176 0
149 169 0
139 158 0
153 174 0
151 172 0
154 176 0
139 159 0
160 181 0
152 173 0
142 161 0
150 171 0
151 172 0
143 162 0
153 174 0
142 162 0
142 162 0
153 173 0
150 170 0
148 167 0
148 167 0
156 177 0
149 169 0
150 172 0
153 175 0
145 165 0
155 176 0
149 170 0
156 178 0
155 175 0
156 177 0
146 167 0
145 167 0
157 178 0
141 161 0
148 169 0
145 162 0
149 167 0
152 173 0
152 173 0
153 174 0
149 170 0
151 171 0
147 167 0
150 171 0
150 171 0
156 175 0
153 173 0
146 166 0
146 166 0
142 163 0
146 166 0
161 184 0
152 170 0
152 174 0
151 171 0
150 170 0
151 169 0
152 170 0
154 174 0
153 172 0
153 172 0
155 174 0
152 171 0
146 163 0
145 164 0
152 171 0
147 166 0
150 171 0
155 173 0
153 172 0
157 177 0
155 174 0
149 168 0
154 173 0
149 169 0
151 170 0
150 167 0
152 170 0
149 169 0
154 172 0
156 174 0
154 172 0
155 171 0
150 167 0
138 155 0
152 170 0
146 163 0
148 166 0
148 164 0
152 169 0
141 157 0
150 167 0
149 166 0
153 171 0
150 168 0
146 161 0
150 167 0
149 165 0
149 165 0
152 168 0
148 166 0
154 170 0
150 166 0
145 161 0
151 166 0
153 171 0
147 165 0
152 170 0
154 170 0
144 160 0
145 159 0
147 163 0
153 168 0
157 172 0
155 169 0
152 167 0
153 168 0
155 171 0
145 157 0
152 166 0
151 168 0
149 162 0
153 167 0
149 164 0
152 167 0
152 166 0
148 163 0
151 164 0
149 164 0
150 167 0
143 160 0
145 157 0
152 167 0
154 169 0
143 156 0
149 160 0
153 167 0
153 169 0
146 160 0
151 166 0
150 165 0
154 167 0
152 166 0
153 167 0
149 161 0
150 162 0
145 158 0
151 165 0
154 169 0
149 162 0
154 169 0
158 171 0
142 154 0
149 161 0
149 162 0
151 163 0
157 170 0
155 168 0
156 170 0
156 171 0
149 160 0
150 163 0
157 168 0
156 166 0
156 167 0
158 171 0
151 163 0
157 168 0
154 169 0
158 169 0
157 170 0
156 166 0
154 168 0
158 172 0
155 170 0
159 173 0
158 173 0
172 195 0
171 195 0
172 195 0
173 196 0
173 196 0
173 196 0
169 192 0
173 195 0
172 195 0
173 196 0
174 197 0
171 194 0
169 192 0
169 192 0
171 193 0
172 195 0
166 188 0
171 194 0
174 196 0
170 194 0
171 194 0
169 193 0
172 195 0
171 194 0
169 192 0
166 190 0
169 193 0
171 194 0
168 191 0
171 193 0
169 193 0
168 191 0
169 192 0
168 192 0
171 194 0
172 196 0
172 195 0
170 194 0
169 192 0
165 189 0
170 193 0
170 193 0
168 190 0
166 189 0
167 190 0
171 194 0
166 190 0
169 191 0
167 191 0
170 193 0
168 192 0
166 189 0
171 194 0
171 194 0
168 190 0
169 192 0
165 187 0
167 190 0
170 193 0
171 193 0
169 193 0
166 189 0
161 184 0
167 189 0
164 186 0
166 189 0
164 186 0
166 188 0
169 192 0
162 185 0
163 185 0
167 190 0
164 186 0
167 190 0
162 184 0
162 184 0
160 183 0
168 190 0
166 190 0
166 188 0
172 194 0
168 189 0
169 193 0
168 190 0
168 191 0
161 184 0
166 188 0
164 187 0
167 189 0
163 186 0
164 187 0
164 187 0
164 187 0
162 184 0
159 180 0
167 189 0
163 186 0
158 180 0
165 187 0
169 191 0
162 183 0
159 181 0
161 183 0
156 179 0
161 183 0
163 185 0
171 193 0
164 185 0
164 185 0
163 186 0
162 185 0
163 186 0
164 188 0
159 182 0
159 180 0
164 186 0
159 182 0
163 186 0
153 175 0
164 186 0
157 179 0
159 182 0
159 182 0
159 181 0
166 189 0
162 183 0
166 188 0
158 181 0
158 180 0
162 185 0
161 183 0
161 184 0
166 188 0
160 182 0
162 184 0
156 177 0
156 178 0
154 176 0
156 178 0
157 179 0
162 185 0
153 175 0
161 183 0
157 179 0
161 183 0
159 182 0
156 178 0
158 179 0
156 177 0
161 182 0
157 179 0
155 177 0
156 178 0
156 178 0
154 177 0
151 173 0
154 177 0
157 179 0
157 178 0
155 177 0
164 186 0
155 177 0
156 178 0
154 175 0
155 178 0
156 178 0
148 170 0
161 182 0
159 182 0
157 178 0
158 180 0
157 178 0
157 179 0
146 169 0
150 171 0
157 177 0
149 170 0
156 178 0
156 178 0
151 173 0
149 170 0
151 173 0
149 172 0
143 163 0
150 173 0
151 172 0
154 175 0
153 174 0
160 183 0
155 176 0
154 175 0
151 172 0
157 178 0
158 180 0
150 173 0
147 170 0
154 176 0
149 171 0
150 172 0
157 178 0
151 173 0
151 173 0
147 169 0
160 181 0
156 177 0
151 172 0
147 167 0
145 166 0
148 168 0
151 173 0
147 169 0
147 167 0
147 167 0
149 170 0
154 176 0
156 177 0
151 173 0
148 169 0
146 167 0
156 176 0
153 174 0
159 179 0
153 175 0
144 165 0
146 167 0
147 167 0
151 171 0
153 174 0
146 167 0
158 180 0
146 166 0
157 178 0
152 173 0
143 163 0
153 172 0
147 167 0
154 174 0
148 169 0
158 177 0
153 174 0
152 173 0
146 166 0
147 167 0
155 176 0
156 176 0
150 170 0
149 169 0
148 168 0
152 174 0
153 175 0
147 169 0
146 168 0
150 170 0
152 172 0
148 169 0
150 171 0
148 168 0
151 172 0
144 165 0
151 171 0
148 168 0
156 177 0
147 167 0
154 174 0
149 170 0
155 176 0
151 171 0
153 174 0
143 163 0
147 168 0
150 171 0
152 172 0
154 173 0
152 172 0
145 164 0
148 167 0
148 167 0
153 172 0
156 178 0
155 175 0
153 173 0
153 175 0
149 169 0
158 178 0
150 167 0
154 175 0
146 165 0
153 174 0
147 168 0
153 173 0
153 173 0
153 174 0
151 170 0
146 162 0
150 168 0
156 175 0
147 166 0
152 171 0
153 171 0
154 172 0
146 165 0
160 180 0
146 164 0
152 171 0
149 167 0
144 162 0
152 171 0
153 173 0
142 160 0
155 173 0
154 173 0
152 169 0
157 174 0
155 174 0
154 173 0
157 176 0
156 175 0
154 169 0
153 172 0
155 173 0
153 172 0
155 174 0
145 160 0
153 171 0
154 171 0
157 174 0
150 166 0
156 174 0
151 167 0
151 167 0
156 170 0
151 166 0
156 171 0
147 165 0
150 166 0
153 171 0
153 170 0
152 169 0
146 162 0
152 168 0
153 169 0
152 170 0
152 166 0
155 170 0
154 169 0
155 170 0
155 169 0
145 162 0
152 168 0
148 165 0
153 168 0
155 170 0
151 166 0
150 165 0
147 161 0
144 157 0
147 158 0
150 166 0
154 168 0
156 172 0
151 165 0
158 173 0
154 170 0
156 168 0
161 177 0
151 165 0
158 172 0
153 168 0
148 161 0
155 171 0
147 158 0
156 171 0
148 160 0
156 170 0
155 170 0
154 169 0
152 165 0
150 161 0
154 164 0
148 158 0
157 173 0
154 166 0
154 164 0
148 161 0
152 165 0
152 165 0
162 178 0
150 163 0
149 162 0
152 165 0
159 173 0
144 155 0
155 170 0
148 163 0
151 163 0
153 168 0
153 165 0
154 167 0
158 172 0
154 168 0
171 194 0
171 194 0
174 197 0
171 195 0
171 194 0
172 196 0
170 192 0
175 198 0
171 195 0
170 194 0
170 193 0
170 193 0
165 189 0
172 194 0
171 194 0
169 192 0
169 192 0
171 194 0
170 193 0
171 194 0
169 193 0
168 190 0
171 194 0
172 195 0
170 192 0
170 193 0
167 190 0
173 196 0
170 194 0
172 195 0
168 191 0
168 191 0
169 192 0
173 195 0
170 194 0
173 196 0
168 191 0
171 194 0
172 196 0
170 193 0
169 192 0
166 189 0
171 195 0
167 190 0
166 189 0
170 192 0
168 190 0
171 194 0
167 191 0
169 192 0
169 192 0
167 189 0
170 192 0
167 189 0
172 195 0
165 189 0
164 187 0
163 186 0
170 192 0
164 187 0
168 192 0
166 189 0
163 185 0
172 195 0
171 194 0
169 192 0
167 190 0
162 184 0
169 191 0
168 190 0
163 186 0
161 183 0
168 191 0
164 187 0
168 191 0
167 189 0
165 188 0
165 187 0
163 186 0
162 184 0
167 189 0
168 189 0
163 185 0
170 192 0
166 188 0
164 186 0
165 188 0
164 188 0
167 191 0
164 187 0
164 187 0
166 188 0
157 180 0
165 187 0
163 186 0
165 187 0
157 180 0
166 188 0
163 186 0
160 182 0
166 188 0
159 180 0
163 186 0
167 189 0
169 192 0
165 187 0
158 181 0
159 181 0
164 186 0
166 189 0
161 184 0
162 184 0
153 176 0
159 181 0
166 188 0
158 180 0
158 181 0
162 184 0
158 180 0
161 183 0
156 177 0
158 180 0
154 176 0
153 176 0
160 182 0
161 183 0
162 185 0
154 177 0
158 180 0
168 189 0
158 181 0
162 184 0
155 177 0
157 179 0
163 184 0
155 177 0
158 180 0
150 172 0
157 179 0
160 183 0
166 188 0
161 183 0
161 183 0
159 181 0
159 181 0
153 176 0
158 180 0
150 172 0
152 174 0
164 187 0
148 171 0
158 180 0
159 180 0
152 174 0
154 176 0
155 178 0
160 183 0
158 180 0
154 177 0
152 174 0
148 170 0
151 172 0
159 181 0
151 174 0
152 172 0
156 178 0
150 173 0
157 179 0
148 169 0
153 174 0
139 160 0
158 179 0
152 173 0
153 174 0
154 176 0
149 170 0
152 174 0
147 168 0
150 172 0
149 170 0
147 168 0
161 184 0
151 172 0
146 168 0
153 176 0
155 177 0
145 166 0
158 179 0
160 182 0
155 176 0
158 179 0
159 182 0
155 176 0
154 175 0
152 173 0
151 172 0
144 166 0
149 171 0
146 166 0
153 174 0
148 169 0
145 166 0
146 167 0
153 175 0
151 173 0
151 173 0
150 171 0
150 170 0
148 169 0
148 170 0
146 167 0
151 174 0
154 176 0
155 176 0
156 177 0
153 174 0
147 168 0
150 171 0
156 177 0
153 174 0
151 171 0
152 173 0
154 174 0
156 175 0
151 171 0
152 174 0
150 169 0
149 170 0
146 165 0
150 170 0
150 170 0
151 171 0
146 166 0
148 170 0
144 165 0
144 165 0
146 167 0
153 175 0
149 171 0
159 179 0
155 177 0
150 171 0
138 159 0
151 172 0
148 168 0
155 173 0
156 177 0
153 173 0
155 175 0
151 172 0
149 171 0
152 173 0
150 171 0
152 175 0
154 175 0
153 173 0
148 169 0
153 174 0
148 167 0
156 175 0
155 177 0
153 174 0
150 170 0
153 173 0
149 170 0
150 169 0
152 171 0
156 176 0
149 170 0
150 170 0
147 167 0
147 166 0
149 171 0
142 161 0
154 175 0
155 176 0
158 179 0
152 172 0
156 174 0
148 166 0
143 162 0
155 175 0
157 178 0
142 162 0
151 169 0
151 171 0
154 174 0
150 170 0
155 175 0
147 165 0
147 166 0
157 177 0
151 172 0
148 164 0
153 172 0
151 171 0
148 164 0
152 170 0
149 167 0
155 172 0
154 170 0
152 171 0
155 173 0
153 172 0
158 177 0
159 178 0
152 170 0
150 168 0
150 168 0
150 169 0
148 166 0
153 174 0
159 178 0
155 172 0
145 160 0
152 168 0
150 167 0
153 169 0
151 166 0
151 168 0
153 170 0
155 172 0
155 170 0
152 168 0
149 166 0
145 163 0
157 174 0
152 170 0
153 168 0
147 163 0
157 174 0
153 169 0
151 168 0
157 174 0
151 168 0
156 174 0
153 171 0
150 165 0
157 173 0
150 165 0
150 167 0
150 166 0
149 165 0
152 169 0
156 171 0
149 163 0
155 170 0
152 170 0
148 161 0
158 173 0
150 164 0
149 165 0
158 174 0
155 169 0
159 177 0
149 165 0
150 164 0
155 170 0
147 161 0
154 169 0
151 166 0
145 156 0
154 166 0
151 165 0
151 164 0
150 163 0
159 175 0
149 163 0
150 165 0
154 171 0
152 166 0
151 166 0
153 165 0
147 160 0
151 163 0
147 158 0
159 173 0
152 166 0
155 169 0
149 162 0
154 168 0
155 168 0
151 163 0
156 170 0
154 171 0
152 165 0
157 171 0
159 172 0
154 167 0
155 167 0
156 172 0
152 165 0
155 167 0
154 167 0
155 169 0
154 167 0
151 164 0
163 176 0
161 172 0
154 166 0
173 195 0
173 196 0
172 195 0
172 195 0
172 195 0
174 197 0
171 194 0
171 195 0
172 195 0
173 195 0
170 194 0
171 194 0
171 194 0
173 195 0
168 192 0
169 193 0
167 191 0
174 196 0
171 194 0
170 194 0
171 194 0
172 195 0
168 191 0
170 194 0
169 192 0
169 192 0
166 189 0
169 192 0
171 194 0
171 194 0
167 190 0
170 193 0
170 193 0
169 192 0
170 193 0
169 192 0
172 195 0
167 189 0
170 192 0
167 190 0
167 190 0
171 194 0
168 190 0
169 192 0
168 191 0
172 194 0
167 190 0
167 190 0
169 191 0
169 192 0
165 188 0
165 187 0
166 190 0
169 192 0
163 186 0
167 190 0
168 191 0
168 190 0
168 190 0
167 190 0
167 190 0
165 188 0
165 189 0
166 188 0
167 190 0
166 189 0
165 188 0
167 190 0
167 189 0
166 189 0
167 191 0
163 186 0
163 185 0
167 189 0
166 188 0
171 193 0
162 185 0
170 193 0
163 187 0
165 187 0
166 189 0
167 189 0
166 189 0
165 188 0
169 192 0
165 187 0
162 186 0
162 184 0
164 187 0
163 186 0
164 185 0
158 180 0
161 184 0
165 188 0
164 187 0
163 185 0
159 181 0
162 185 0
164 186 0
160 183 0
159 181 0
162 184 0
157 178 0
160 182 0
167 189 0
156 179 0
164 186 0
159 181 0
161 183 0
163 185 0
161 184 0
157 179 0
162 185 0
163 186 0
160 182 0
162 185 0
163 186 0
160 181 0
162 184 0
159 182 0
160 183 0
163 186 0
163 185 0
154 177 0
162 183 0
159 181 0
163 185 0
158 180 0
158 179 0
160 181 0
165 187 0
156 178 0
161 182 0
160 182 0
160 183 0
156 178 0
167 190 0
157 180 0
153 175 0
161 183 0
152 175 0
153 176 0
154 177 0
160 183 0
156 178 0
149 171 0
155 176 0
152 175 0
157 178 0
153 174 0
158 180 0
156 179 0
167 190 0
153 174 0
160 182 0
154 175 0
158 180 0
158 180 0
158 179 0
145 167 0
151 173 0
150 172 0
159 181 0
156 178 0
159 180 0
155 177 0
156 178 0
161 183 0
153 175 0
152 174 0
146 169 0
155 176 0
146 167 0
150 173 0
153 174 0
152 174 0
161 184 0
151 172 0
158 181 0
159 181 0
156 178 0
152 173 0
154 177 0
154 176 0
153 175 0
157 179 0
156 178 0
159 180 0
147 168 0
156 178 0
155 177 0
150 172 0
156 177 0
155 177 0
156 178 0
151 172 0
153 174 0
150 172 0
160 181 0
148 167 0
149 171 0
151 173 0
156 178 0
148 168 0
147 169 0
151 171 0
146 168 0
154 175 0
144 165 0
152 174 0
154 175 0
146 167 0
143 164 0
149 169 0
149 169 0
154 175 0
143 165 0
154 174 0
152 173 0
144 165 0
145 167 0
145 167 0
155 176 0
149 171 0
156 178 0
147 169 0
149 170 0
150 170 0
154 174 0
154 175 0
155 177 0
153 174 0
148 169 0
141 161 0
145 166 0
157 177 0
145 164 0
155 175 0
152 173 0
150 171 0
154 174 0
156 178 0
147 169 0
151 173 0
143 162 0
150 172 0
151 171 0
143 164 0
155 176 0
154 177 0
151 173 0
156 177 0
154 174 0
156 177 0
148 168 0
151 171 0
160 180 0
149 170 0
158 179 0
156 175 0
147 167 0
151 172 0
143 163 0
157 178 0
149 169 0
154 175 0
144 162 0
145 164 0
149 170 0
155 174 0
146 167 0
146 168 0
153 172 0
159 177 0
147 167 0
143 162 0
153 174 0
144 164 0
149 169 0
153 173 0
149 166 0
158 178 0
153 172 0
149 169 0
160 180 0
156 175 0
157 177 0
149 167 0
151 170 0
147 167 0
155 173 0
154 173 0
145 165 0
153 172 0
149 168 0
157 178 0
156 174 0
147 167 0
152 169 0
151 170 0
154 174 0
154 173 0
154 174 0
146 161 0
154 173 0
154 173 0
142 159 0
148 165 0
148 166 0
155 172 0
153 171 0
143 159 0
146 165 0
155 172 0
154 172 0
154 173 0
150 167 0
151 170 0
150 167 0
156 174 0
152 169 0
148 166 0
154 170 0
152 171 0
153 171 0
144 161 0
158 175 0
153 169 0
153 170 0
145 164 0
145 159 0
151 167 0
158 176 0
156 174 0
150 168 0
146 164 0
155 172 0
144 160 0
150 166 0
152 169 0
151 166 0
154 173 0
151 167 0
150 165 0
152 169 0
155 172 0
158 174 0
157 174 0
151 167 0
153 170 0
150 167 0
147 160 0
151 169 0
149 165 0
152 167 0
152 167 0
159 173 0
155 172 0
151 169 0
158 172 0
154 169 0
151 167 0
150 162 0
154 167 0
146 160 0
154 168 0
150 165 0
150 165 0
149 164 0
152 166 0
149 163 0
152 167 0
152 165 0
155 168 0
160 174 0
152 168 0
154 170 0
158 171 0
145 158 0
148 161 0
157 172 0
154 168 0
150 163 0
146 158 0
155 170 0
155 172 0
160 172 0
153 167 0
159 173 0
156 168 0
154 167 0
155 167 0
155 167 0
158 171 0
154 166 0
148 162 0
158 169 0
156 169 0
153 166 0
161 172 0
166 190 0
173 195 0
174 197 0
173 196 0
173 195 0
174 197 0
173 196 0
173 196 0
174 197 0
175 198 0
170 193 0
173 196 0
174 197 0
169 192 0
169 192 0
173 195 0
173 195 0
172 195 0
170 193 0
170 193 0
168 191 0
170 191 0
170 193 0
171 195 0
169 193 0
168 191 0
168 192 0
168 192 0
170 192 0
170 193 0
172 195 0
169 192 0
167 191 0
170 194 0
167 190 0
167 190 0
166 189 0
165 187 0
168 191 0
168 191 0
172 195 0
172 194 0
167 190 0
167 191 0
166 190 0
167 190 0
168 191 0
166 189 0
168 190 0
170 192 0
169 192 0
172 194 0
170 193 0
165 188 0
169 192 0
161 184 0
167 190 0
161 184 0
167 190 0
166 189 0
167 190 0
166 190 0
170 193 0
170 192 0
160 183 0
167 190 0
163 186 0
162 185 0
169 192 0
167 190 0
164 186 0
169 192 0
164 187 0
165 188 0
167 189 0
164 187 0
169 191 0
162 185 0
163 185 0
158 180 0
169 191 0
163 186 0
161 184 0
166 188 0
170 192 0
167 191 0
164 186 0
160 184 0
162 185 0
158 181 0
166 188 0
164 186 0
168 191 0
162 185 0
169 191 0
163 186 0
168 191 0
161 183 0
163 186 0
166 188 0
165 187 0
155 176 0
163 185 0
162 185 0
162 184 0
163 186 0
156 178 0
164 187 0
158 180 0
166 189 0
160 183 0
163 186 0
162 185 0
164 186 0
171 194 0
161 184 0
158 181 0
164 186 0
159 182 0
162 184 0
157 179 0
157 180 0
157 179 0
156 178 0
159 181 0
160 181 0
157 179 0
157 179 0
162 184 0
164 187 0
161 184 0
158 181 0
162 184 0
155 177 0
152 173 0
157 179 0
162 184 0
156 178 0
158 181 0
154 176 0
156 177 0
157 178 0
151 174 0
154 177 0
153 175 0
163 186 0
160 183 0
154 175 0
157 178 0
148 170 0
153 176 0
158 180 0
155 178 0
155 175 0
159 180 0
153 175 0
155 176 0
157 180 0
156 178 0
156 177 0
166 189 0
161 183 0
151 173 0
160 183 0
152 175 0
160 182 0
161 183 0
144 166 0
160 182 0
158 181 0
152 174 0
153 174 0
154 176 0
152 173 0
152 173 0
154 174 0
154 176 0
157 180 0
151 174 0
160 181 0
152 174 0
150 171 0
152 174 0
150 172 0
157 180 0
155 176 0
159 180 0
151 173 0
152 173 0
147 167 0
155 177 0
155 177 0
152 172 0
156 177 0
156 176 0
153 174 0
150 171 0
148 168 0
148 168 0
144 165 0
154 175 0
154 175 0
159 180 0
152 173 0
143 164 0
160 183 0
155 177 0
153 175 0
147 168 0
153 174 0
153 174 0
147 168 0
150 171 0
151 173 0
150 172 0
153 174 0
157 178 0
146 167 0
149 171 0
149 170 0
145 166 0
149 171 0
150 172 0
159 180 0
152 173 0
145 165 0
150 171 0
149 170 0
149 169 0
151 171 0
156 175 0
148 169 0
148 169 0
153 173 0
157 179 0
161 182 0
149 169 0
154 175 0
150 171 0
159 181 0
154 175 0
148 168 0
152 173 0
150 171 0
151 171 0
153 175 0
151 171 0
154 175 0
148 169 0
148 168 0
146 165 0
148 168 0
155 175 0
153 174 0
148 168 0
148 168 0
152 173 0
149 169 0
155 177 0
156 178 0
152 173 0
150 169 0
148 169 0
159 180 0
146 166 0
159 180 0
155 176 0
147 166 0
152 172 0
150 169 0
151 171 0
152 171 0
153 175 0
150 170 0
150 170 0
148 166 0
152 170 0
157 177 0
152 171 0
152 171 0
153 174 0
155 175 0
148 166 0
150 170 0
152 172 0
150 169 0
151 171 0
156 176 0
156 176 0
150 169 0
152 171 0
152 173 0
148 166 0
152 170 0
146 163 0
154 174 0
156 176 0
151 170 0
150 167 0
154 175 0
149 168 0
142 159 0
152 171 0
157 175 0
150 168 0
155 174 0
148 165 0
153 173 0
149 168 0
151 169 0
158 176 0
158 177 0
153 171 0
153 172 0
160 180 0
150 168 0
152 169 0
151 167 0
144 161 0
153 171 0
143 158 0
155 173 0
148 165 0
151 169 0
158 176 0
152 169 0
145 161 0
150 166 0
150 166 0
154 172 0
149 166 0
149 167 0
149 166 0
155 172 0
158 177 0
145 161 0
150 168 0
153 169 0
145 161 0
155 171 0
155 172 0
150 167 0
153 169 0
151 167 0
160 178 0
138 154 0
153 170 0
154 169 0
162 180 0
157 173 0
151 167 0
159 177 0
153 166 0
153 169 0
156 171 0
158 174 0
153 169 0
157 173 0
149 164 0
153 169 0
150 164 0
155 170 0
153 170 0
154 169 0
151 165 0
153 168 0
151 164 0
148 165 0
155 170 0
152 165 0
161 174 0
157 170 0
149 164 0
149 163 0
155 167 0
150 164 0
154 169 0
153 167 0
159 172 0
152 167 0
153 168 0
152 167 0
145 156 0
159 175 0
150 159 0
152 168 0
154 166 0
153 168 0
151 163 0
154 168 0
145 158 0
150 164 0
156 168 0
150 162 0
148 163 0
153 166 0
150 163 0
151 164 0
157 171 0
154 168 0
171 195 0
167 190 0
168 191 0
170 192 0
170 194 0
172 195 0
170 192 0
170 194 0
172 195 0
172 195 0
169 193 0
171 193 0
172 195 0
169 192 0
171 194 0
170 192 0
173 196 0
169 192 0
169 192 0
168 190 0
172 195 0
171 194 0
171 194 0
173 196 0
170 193 0
171 194 0
169 191 0
170 193 0
169 192 0
166 190 0
170 192 0
168 191 0
170 192 0
171 193 0
167 191 0
171 194 0
166 188 0
169 192 0
167 190 0
168 191 0
171 193 0
167 190 0
169 192 0
167 189 0
169 191 0
172 194 0
168 192 0
169 192 0
163 186 0
166 188 0
169 192 0
166 189 0
162 185 0
168 190 0
167 189 0
162 184 0
166 188 0
164 186 0
166 188 0
172 195 0
169 191 0
165 188 0
164 187 0
162 185 0
163 185 0
164 186 0
166 188 0
173 196 0
165 187 0
162 184 0
167 190 0
166 189 0
167 191 0
165 188 0
167 189 0
163 185 0
169 192 0
166 189 0
165 188 0
159 181 0
167 190 0
163 186 0
166 188 0
164 187 0
163 186 0
162 185 0
171 193 0
169 192 0
164 187 0
161 184 0
162 184 0
166 189 0
165 188 0
165 187 0
165 187 0
165 187 0
165 188 0
159 183 0
163 186 0
166 187 0
162 185 0
162 183 0
162 185 0
162 185 0
164 186 0
165 187 0
165 187 0
158 181 0
159 181 0
167 187 0
167 189 0
166 188 0
155 177 0
157 180 0
161 184 0
159 183 0
156 179 0
159 182 0
161 183 0
155 177 0
158 182 0
161 184 0
163 185 0
162 184 0
160 182 0
164 186 0
159 182 0
157 179 0
158 180 0
161 183 0
155 177 0
157 179 0
153 175 0
160 184 0
163 186 0
159 181 0
152 175 0
160 182 0
154 176 0
153 174 0
162 184 0
164 186 0
156 177 0
161 182 0
158 181 0
156 177 0
159 181 0
155 175 0
154 176 0
161 183 0
154 175 0
160 181 0
161 183 0
159 181 0
159 181 0
156 178 0
157 177 0
154 175 0
159 181 0
156 178 0
162 184 0
154 176 0
152 174 0
150 171 0
155 179 0
145 168 0
154 176 0
158 179 0
155 177 0
155 177 0
160 183 0
152 174 0
156 177 0
153 174 0
158 179 0
156 178 0
155 177 0
147 168 0
154 176 0
154 175 0
152 174 0
156 178 0
162 185 0
147 169 0
157 178 0
161 184 0
155 177 0
155 177 0
154 176 0
151 172 0
155 177 0
151 174 0
146 168 0
156 178 0
154 177 0
156 178 0
150 171 0
150 172 0
154 175 0
152 173 0
153 175 0
153 175 0
150 172 0
151 172 0
151 174 0
143 163 0
146 167 0
151 172 0
143 164 0
151 171 0
155 177 0
150 172 0
149 169 0
150 169 0
154 175 0
152 174 0
148 168 0
158 179 0
146 167 0
151 173 0
155 176 0
142 163 0
153 174 0
150 171 0
147 168 0
142 162 0
149 171 0
155 177 0
152 173 0
146 166 0
145 167 0
149 170 0
157 178 0
153 174 0
152 173 0
157 178 0
150 170 0
156 177 0
144 164 0
144 165 0
149 170 0
151 172 0
149 170 0
157 177 0
152 174 0
145 167 0
151 174 0
150 170 0
155 175 0
148 169 0
151 171 0
148 169 0
149 169 0
141 160 0
153 174 0
140 161 0
146 166 0
152 174 0
147 166 0
144 165 0
153 175 0
152 172 0
144 166 0
152 172 0
152 174 0
160 182 0
153 174 0
149 170 0
143 163 0
148 168 0
154 176 0
150 170 0
154 175 0
151 171 0
154 175 0
160 180 0
150 172 0
151 170 0
143 162 0
149 168 0
150 168 0
153 169 0
147 166 0
155 176 0
144 162 0
154 173 0
152 173 0
152 172 0
151 170 0
158 177 0
147 166 0
152 171 0
149 168 0
146 164 0
146 165 0
153 172 0
150 170 0
158 177 0
156 174 0
147 166 0
157 179 0
146 165 0
155 175 0
151 169 0
144 164 0
149 168 0
155 173 0
151 170 0
154 174 0
152 171 0
152 169 0
154 172 0
158 176 0
156 175 0
157 175 0
154 171 0
149 167 0
154 173 0
150 167 0
152 169 0
149 168 0
148 166 0
149 168 0
155 173 0
149 167 0
150 166 0
148 166 0
147 164 0
153 172 0
155 173 0
150 168 0
144 159 0
153 170 0
156 172 0
159 176 0
154 169 0
151 168 0
156 174 0
154 171 0
157 175 0
151 167 0
154 171 0
146 162 0
157 176 0
150 164 0
162 180 0
150 165 0
145 160 0
153 166 0
157 173 0
153 169 0
152 166 0
152 168 0
152 169 0
156 171 0
152 167 0
147 161 0
155 170 0
157 174 0
155 171 0
154 170 0
155 170 0
149 163 0
149 164 0
147 162 0
154 169 0
153 169 0
156 171 0
155 171 0
158 175 0
152 166 0
155 169 0
148 162 0
154 169 0
150 163 0
154 169 0
158 174 0
157 173 0
155 170 0
153 165 0
158 174 0
155 170 0
158 173 0
150 161 0
154 167 0
155 170 0
150 164 0
155 170 0
153 169 0
161 176 0
159 174 0
150 163 0
155 166 0
156 167 0
152 168 0
156 170 0
161 176 0
161 175 0
159 174 0
156 169 0
171 193 0
172 195 0
173 195 0
171 194 0
170 194 0
171 194 0
173 195 0
166 189 0
170 194 0
171 194 0
172 195 0
171 194 0
170 194 0
169 192 0
171 194 0
167 190 0
169 192 0
165 188 0
171 194 0
170 193 0
172 196 0
172 195 0
169 192 0
169 192 0
171 194 0
168 190 0
169 192 0
165 188 0
171 194 0
170 192 0
173 196 0
171 194 0
169 192 0
170 193 0
173 196 0
170 193 0
171 194 0
167 190 0
170 193 0
169 191 0
168 192 0
168 191 0
167 190 0
169 193 0
167 190 0
165 188 0
168 191 0
166 189 0
163 186 0
167 189 0
165 187 0
166 188 0
163 186 0
169 192 0
170 193 0
164 187 0
170 193 0
168 191 0
170 192 0
169 191 0
165 188 0
168 191 0
166 188 0
166 189 0
170 193 0
165 189 0
163 185 0
160 184 0
168 192 0
168 191 0
159 183 0
162 185 0
166 189 0
169 191 0
167 190 0
165 188 0
163 185 0
167 189 0
162 184 0
167 190 0
164 187 0
170 193 0
167 190 0
166 188 0
163 186 0
168 191 0
160 183 0
165 188 0
162 185 0
162 184 0
168 191 0
160 182 0
166 189 0
167 190 0
163 186 0
165 187 0
166 189 0
164 186 0
163 186 0
165 187 0
168 190 0
166 188 0
157 180 0
164 186 0
164 186 0
160 183 0
165 187 0
162 184 0
163 185 0
166 190 0
160 183 0
162 185 0
165 188 0
166 188 0
159 182 0
158 180 0
156 179 0
164 187 0
158 181 0
157 179 0
157 179 0
158 181 0
153 175 0
159 182 0
153 176 0
162 183 0
161 183 0
158 180 0
159 181 0
152 175 0
155 178 0
162 184 0
159 181 0
163 185 0
155 178 0
162 184 0
158 180 0
161 183 0
162 184 0
168 190 0
153 175 0
158 182 0
156 178 0
155 178 0
154 176 0
162 184 0
157 179 0
149 172 0
154 177 0
160 182 0
163 184 0
153 177 0
155 177 0
154 176 0
147 168 0
153 175 0
160 183 0
159 181 0
149 170 0
154 176 0
153 175 0
158 181 0
159 182 0
158 181 0
152 174 0
153 176 0
157 180 0
150 171 0
145 167 0
158 180 0
153 174 0
153 174 0
156 178 0
155 177 0
153 176 0
153 173 0
156 178 0
154 176 0
155 177 0
160 183 0
151 174 0
154 175 0
155 177 0
150 172 0
155 177 0
150 173 0
158 180 0
159 181 0
153 175 0
157 178 0
153 174 0
153 175 0
150 172 0
150 172 0
152 175 0
154 176 0
156 178 0
155 177 0
156 178 0
152 173 0
154 176 0
153 176 0
153 175 0
148 169 0
147 168 0
152 172 0
158 180 0
157 176 0
154 175 0
151 174 0
157 177 0
150 171 0
141 162 0
149 172 0
154 175 0
148 170 0
156 177 0
155 177 0
148 170 0
152 173 0
153 175 0
141 161 0
152 173 0
155 175 0
143 164 0
150 171 0
148 169 0
151 171 0
159 180 0
151 173 0
148 170 0
150 170 0
155 175 0
150 171 0
153 176 0
153 174 0
153 173 0
155 176 0
144 166 0
152 174 0
156 177 0
148 169 0
143 163 0
155 176 0
155 178 0
149 169 0
152 173 0
152 174 0
140 162 0
158 179 0
155 176 0
153 174 0
150 171 0
150 170 0
143 165 0
149 170 0
156 179 0
150 171 0
150 171 0
152 172 0
150 168 0
155 176 0
153 175 0
145 164 0
140 160 0
155 176 0
149 170 0
150 171 0
156 177 0
147 167 0
155 175 0
146 165 0
153 173 0
152 171 0
150 170 0
150 170 0
149 169 0
151 171 0
151 170 0
148 169 0
156 175 0
151 170 0
152 171 0
152 172 0
145 162 0
152 172 0
154 175 0
154 174 0
152 171 0
150 169 0
148 167 0
147 166 0
154 175 0
153 170 0
147 166 0
151 169 0
151 168 0
158 178 0
152 172 0
155 174 0
150 169 0
148 168 0
156 175 0
154 175 0
155 177 0
153 171 0
158 177 0
150 168 0
153 172 0
159 178 0
150 169 0
148 168 0
158 177 0
154 172 0
156 173 0
153 172 0
149 165 0
155 173 0
156 175 0
158 176 0
159 179 0
150 167 0
158 175 0
154 172 0
151 169 0
150 167 0
153 171 0
147 164 0
151 170 0
151 169 0
153 169 0
145 161 0
148 166 0
147 162 0
146 162 0
153 170 0
152 170 0
149 165 0
158 175 0
149 164 0
149 166 0
150 166 0
151 169 0
153 170 0
153 169 0
147 163 0
152 167 0
151 170 0
158 177 0
152 170 0
145 162 0
156 171 0
156 173 0
152 165 0
151 165 0
151 167 0
152 169 0
152 170 0
149 165 0
153 169 0
149 163 0
151 164 0
147 162 0
151 166 0
153 169 0
157 172 0
152 168 0
159 176 0
151 165 0
153 168 0
152 165 0
154 167 0
152 167 0
153 168 0
155 168 0
148 162 0
158 173 0
154 168 0
152 167 0
154 169 0
160 172 0
160 174 0
146 161 0
159 174 0
153 169 0
156 172 0
152 169 0
159 174 0
151 166 0
153 167 0
155 166 0
148 163 0
156 172 0
150 159 0
151 163 0
158 173 0
154 166 0
153 165 0
156 169 0
160 173 0
170 193 0
171 194 0
172 196 0
172 195 0
173 196 0
168 193 0
170 193 0
172 195 0
171 194 0
172 195 0
173 195 0
172 195 0
170 193 0
171 194 0
169 192 0
170 193 0
172 194 0
170 193 0
165 188 0
168 192 0
169 191 0
170 193 0
170 193 0
169 192 0
169 192 0
164 187 0
169 193 0
169 192 0
169 193 0
166 190 0
169 192 0
169 191 0
171 193 0
165 188 0
169 192 0
169 192 0
171 195 0
171 194 0
166 189 0
168 190 0
165 189 0
167 190 0
169 192 0
163 186 0
168 191 0
167 189 0
168 191 0
163 185 0
166 188 0
165 188 0
168 190 0
164 187 0
163 184 0
168 192 0
167 189 0
170 192 0
166 189 0
168 191 0
165 188 0
168 189 0
170 193 0
165 189 0
162 185 0
160 183 0
169 192 0
166 189 0
164 186 0
167 190 0
162 186 0
169 191 0
164 186 0
160 183 0
164 187 0
162 186 0
163 186 0
169 192 0
165 188 0
164 187 0
162 186 0
161 184 0
164 186 0
169 191 0
168 190 0
160 183 0
164 187 0
163 185 0
160 181 0
166 189 0
161 184 0
159 181 0
161 183 0
164 186 0
166 188 0
162 185 0
163 185 0
158 180 0
161 183 0
166 189 0
166 189 0
166 188 0
162 186 0
164 187 0
165 187 0
164 187 0
162 184 0
163 186 0
163 184 0
167 189 0
161 184 0
162 185 0
158 181 0
166 189 0
158 180 0
162 185 0
164 187 0
161 183 0
163 185 0
158 180 0
165 187 0
163 185 0
159 181 0
154 176 0
166 189 0
161 184 0
164 186 0
159 181 0
154 176 0
157 179 0
161 184 0
162 184 0
162 184 0
159 182 0
156 179 0
166 188 0
165 186 0
155 177 0
160 184 0
163 185 0
158 181 0
151 175 0
154 176 0
157 179 0
165 188 0
157 180 0
156 178 0
159 182 0
154 177 0
161 183 0
156 177 0
154 176 0
161 184 0
155 178 0
153 175 0
155 177 0
161 183 0
158 180 0
160 182 0
152 174 0
162 183 0
150 171 0
149 171 0
149 170 0
152 173 0
147 168 0
158 179 0
156 177 0
157 178 0
154 175 0
158 179 0
159 182 0
148 171 0
152 173 0
158 180 0
154 176 0
156 178 0
163 186 0
159 180 0
150 172 0
158 181 0
156 178 0
154 176 0
155 176 0
154 176 0
154 176 0
156 177 0
150 171 0
150 171 0
155 176 0
154 177 0
154 176 0
152 173 0
158 180 0
154 177 0
150 171 0
149 171 0
157 180 0
153 174 0
157 179 0
149 171 0
155 176 0
152 174 0
148 169 0
154 175 0
153 173 0
151 173 0
160 181 0
156 177 0
150 172 0
152 173 0
156 178 0
152 174 0
152 174 0
152 173 0
150 171 0
150 170 0
155 174 0
147 168 0
155 175 0
155 177 0
152 175 0
154 176 0
158 180 0
152 172 0
152 172 0
151 173 0
147 169 0
141 163 0
153 174 0
148 170 0
153 175 0
149 170 0
154 175 0
154 174 0
152 174 0
149 171 0
151 173 0
148 169 0
144 164 0
149 170 0
151 171 0
149 170 0
152 174 0
154 175 0
149 168 0
158 178 0
154 176 0
146 167 0
150 169 0
151 171 0
151 173 0
152 172 0
155 177 0
156 178 0
151 172 0
145 166 0
152 172 0
152 171 0
151 170 0
152 171 0
144 164 0
153 175 0
156 179 0
159 180 0
157 177 0
156 179 0
152 173 0
152 173 0
155 176 0
152 172 0
153 173 0
147 169 0
155 175 0
151 168 0
151 172 0
149 168 0
146 165 0
153 173 0
154 172 0
148 169 0
153 172 0
156 175 0
151 171 0
146 167 0
159 180 0
157 177 0
149 168 0
152 172 0
153 171 0
153 173 0
146 167 0
147 167 0
149 168 0
152 173 0
150 169 0
148 167 0
153 173 0
152 169 0
148 167 0
153 173 0
145 165 0
154 171 0
154 173 0
149 169 0
151 171 0
155 175 0
156 175 0
150 169 0
159 179 0
158 177 0
157 178 0
148 166 0
147 166 0
144 162 0
144 160 0
152 171 0
150 168 0
157 173 0
155 172 0
155 174 0
156 174 0
149 167 0
152 170 0
150 168 0
159 178 0
153 171 0
154 174 0
154 173 0
147 163 0
148 163 0
162 178 0
151 170 0
153 171 0
154 173 0
154 172 0
155 174 0
156 173 0
151 168 0
157 174 0
153 168 0
148 164 0
163 180 0
151 169 0
155 173 0
146 163 0
151 169 0
157 173 0
153 169 0
160 176 0
148 164 0
152 168 0
149 163 0
147 161 0
153 168 0
148 163 0
152 168 0
157 172 0
152 170 0
146 162 0
151 166 0
155 172 0
155 171 0
147 163 0
159 176 0
151 163 0
150 167 0
154 169 0
158 176 0
152 167 0
142 155 0
154 170 0
150 165 0
155 172 0
153 167 0
151 168 0
155 167 0
158 175 0
151 161 0
146 161 0
153 168 0
159 175 0
152 168 0
156 171 0
161 177 0
157 171 0
159 176 0
161 178 0
159 175 0
152 164 0
153 165 0
150 164 0
160 174 0
158 174 0
157 171 0
154 170 0
154 167 0
152 166 0
156 171 0
158 170 0
156 169 0
158 172 0
171 194 0
169 192 0
172 196 0
172 195 0
171 194 0
168 191 0
171 193 0
171 194 0
169 193 0
171 194 0
171 194 0
170 193 0
171 194 0
173 195 0
167 191 0
169 192 0
173 195 0
173 196 0
174 196 0
173 196 0
169 192 0
168 191 0
173 196 0
172 194 0
168 191 0
171 193 0
173 197 0
169 191 0
173 195 0
168 191 0
164 188 0
172 194 0
172 194 0
170 192 0
168 191 0
171 194 0
171 194 0
167 189 0
163 186 0
169 191 0
165 189 0
168 191 0
168 191 0
163 185 0
171 194 0
164 187 0
166 188 0
164 187 0
169 192 0
169 192 0
169 191 0
170 193 0
167 189 0
168 191 0
164 186 0
160 182 0
160 182 0
164 187 0
167 190 0
167 189 0
166 189 0
166 189 0
162 185 0
166 189 0
166 188 0
168 190 0
164 187 0
170 193 0
167 189 0
166 188 0
166 188 0
168 192 0
170 193 0
167 189 0
167 190 0
166 189 0
170 192 0
163 186 0
171 194 0
164 187 0
165 186 0
164 186 0
160 182 0
164 186 0
164 185 0
162 184 0
166 188 0
167 191 0
163 185 0
161 184 0
160 182 0
166 189 0
162 186 0
163 185 0
160 182 0
169 192 0
166 189 0
165 188 0
167 189 0
164 187 0
160 182 0
158 181 0
160 182 0
158 181 0
161 183 0
160 182 0
169 191 0
162 184 0
163 185 0
164 187 0
165 188 0
163 185 0
152 174 0
158 181 0
161 183 0
160 182 0
152 174 0
167 190 0
164 186 0
164 187 0
160 182 0
164 187 0
166 188 0
158 181 0
165 187 0
163 184 0
157 179 0
157 179 0
150 172 0
156 179 0
156 179 0
163 185 0
159 182 0
158 180 0
159 181 0
161 183 0
160 182 0
162 186 0
160 182 0
164 186 0
159 182 0
157 180 0
158 181 0
161 183 0
157 181 0
162 184 0
158 180 0
155 178 0
162 183 0
159 181 0
161 182 0
156 178 0
158 180 0
158 180 0
152 173 0
154 176 0
158 180 0
159 180 0
158 180 0
156 178 0
159 180 0
158 180 0
159 182 0
163 185 0
155 177 0
151 172 0
152 173 0
152 173 0
162 183 0
154 177 0
161 183 0
156 178 0
160 181 0
158 179 0
156 179 0
152 173 0
158 179 0
155 176 0
159 181 0
156 179 0
157 178 0
151 171 0
156 178 0
149 172 0
154 175 0
156 177 0
148 170 0
156 178 0
154 175 0
155 177 0
154 176 0
155 176 0
153 176 0
153 176 0
154 177 0
159 179 0
152 173 0
158 180 0
155 177 0
157 180 0
152 173 0
156 178 0
152 174 0
156 178 0
152 172 0
156 177 0
161 183 0
150 172 0
152 173 0
152 174 0
154 176 0
156 178 0
153 175 0
153 174 0
157 180 0
162 185 0
155 176 0
159 181 0
156 177 0
157 178 0
149 170 0
155 176 0
146 167 0
156 177 0
157 178 0
156 178 0
153 175 0
146 166 0
145 165 0
152 173 0
148 169 0
156 178 0
154 176 0
144 164 0
155 176 0
153 174 0
150 172 0
153 174 0
161 181 0
154 174 0
152 171 0
148 169 0
155 176 0
147 168 0
153 173 0
151 173 0
157 179 0
149 170 0
150 171 0
158 180 0
153 174 0
152 173 0
155 176 0
151 168 0
151 172 0
154 173 0
151 172 0
152 171 0
145 165 0
152 174 0
155 176 0
156 176 0
158 180 0
158 178 0
147 165 0
150 171 0
153 173 0
149 170 0
150 170 0
142 161 0
149 171 0
154 173 0
149 169 0
149 168 0
153 172 0
154 172 0
158 179 0
152 171 0
148 168 0
156 176 0
149 169 0
154 173 0
149 167 0
143 162 0
155 174 0
153 173 0
159 179 0
152 171 0
155 175 0
157 178 0
153 171 0
152 172 0
153 172 0
155 176 0
153 173 0
152 171 0
153 173 0
150 171 0
150 170 0
152 172 0
151 170 0
157 175 0
146 167 0
156 176 0
153 174 0
152 171 0
148 166 0
152 170 0
148 165 0
141 160 0
154 174 0
155 174 0
149 165 0
156 175 0
150 168 0
143 159 0
154 172 0
157 177 0
151 169 0
152 169 0
148 166 0
152 171 0
155 174 0
161 178 0
146 164 0
151 168 0
151 170 0
153 171 0
157 175 0
153 172 0
151 166 0
155 175 0
160 177 0
155 172 0
159 178 0
155 171 0
152 168 0
155 170 0
151 167 0
152 169 0
159 176 0
153 168 0
151 167 0
156 174 0
153 170 0
157 174 0
154 173 0
153 169 0
150 165 0
151 166 0
154 169 0
153 170 0
148 163 0
153 169 0
157 175 0
157 175 0
152 166 0
154 171 0
160 176 0
158 174 0
155 173 0
153 170 0
154 169 0
155 172 0
148 162 0
149 163 0
156 172 0
151 165 0
156 173 0
155 170 0
160 174 0
152 167 0
150 166 0
156 174 0
151 164 0
154 168 0
152 167 0
153 168 0
147 162 0
157 172 0
146 159 0
150 166 0
154 169 0
163 178 0
153 168 0
159 173 0
156 171 0
159 176 0
156 172 0
158 172 0
159 173 0
151 165 0
152 170 0
159 173 0
150 161 0
152 166 0
153 164 0
153 168 0
157 172 0
157 171 0
172 195 0
173 195 0
172 194 0
170 193 0
170 193 0
171 194 0
175 197 0
171 194 0
172 195 0
170 193 0
172 194 0
170 193 0
171 195 0
170 192 0
168 191 0
172 194 0
171 193 0
170 194 0
170 192 0
167 191 0
169 192 0
168 191 0
167 190 0
167 190 0
167 190 0
167 190 0
171 193 0
167 190 0
167 190 0
170 193 0
169 193 0
169 191 0
171 195 0
169 192 0
168 190 0
167 190 0
168 192 0
167 189 0
167 190 0
167 190 0
170 193 0
163 186 0
170 193 0
170 193 0
164 186 0
169 192 0
167 189 0
166 188 0
170 192 0
164 188 0
160 182 0
163 186 0
169 192 0
166 188 0
165 188 0
165 188 0
168 191 0
166 188 0
166 189 0
169 191 0
169 192 0
163 186 0
167 191 0
168 192 0
165 187 0
169 191 0
162 185 0
167 190 0
165 187 0
163 186 0
168 192 0
170 193 0
162 185 0
168 190 0
162 185 0
169 193 0
168 192 0
164 187 0
165 187 0
169 191 0
168 190 0
167 190 0
159 183 0
164 186 0
166 188 0
167 190 0
161 182 0
170 192 0
166 187 0
158 180 0
162 185 0
162 184 0
162 184 0
167 189 0
162 184 0
164 185 0
166 188 0
164 186 0
166 189 0
164 187 0
164 187 0
162 184 0
163 186 0
159 182 0
156 178 0
163 187 0
162 185 0
159 181 0
161 184 0
163 185 0
161 184 0
162 184 0
162 184 0
162 185 0
164 186 0
160 183 0
160 183 0
161 183 0
156 178 0
162 184 0
155 177 0
157 179 0
162 185 0
159 180 0
157 179 0
159 182 0
158 180 0
166 188 0
163 185 0
163 186 0
156 178 0
163 187 0
161 183 0
164 186 0
162 184 0
160 182 0
160 182 0
162 185 0
153 175 0
156 178 0
160 182 0
159 180 0
165 188 0
152 174 0
153 174 0
157 180 0
156 178 0
153 174 0
167 189 0
151 174 0
158 179 0
150 172 0
153 176 0
157 179 0
153 175 0
157 179 0
156 178 0
157 179 0
161 184 0
162 183 0
157 179 0
161 182 0
162 183 0
161 183 0
155 176 0
148 170 0
143 164 0
164 187 0
156 179 0
162 183 0
150 171 0
159 181 0
156 179 0
155 177 0
158 181 0
152 174 0
155 178 0
159 181 0
151 173 0
154 177 0
153 175 0
156 178 0
151 172 0
153 175 0
154 175 0
151 173 0
154 174 0
157 179 0
161 183 0
159 181 0
158 181 0
160 182 0
153 175 0
149 170 0
152 172 0
156 178 0
154 175 0
144 166 0
150 172 0
145 167 0
150 171 0
151 174 0
156 177 0
152 174 0
153 175 0
148 171 0
157 179 0
151 172 0
157 177 0
147 169 0
149 169 0
153 175 0
146 166 0
152 172 0
156 178 0
155 177 0
155 176 0
151 172 0
155 176 0
147 169 0
158 180 0
151 173 0
154 175 0
154 176 0
153 174 0
152 173 0
145 167 0
160 182 0
153 174 0
152 174 0
151 172 0
152 174 0
159 179 0
153 174 0
149 170 0
151 172 0
155 176 0
146 167 0
153 174 0
151 173 0
147 167 0
152 173 0
147 169 0
143 165 0
152 174 0
152 171 0
153 175 0
159 181 0
149 170 0
153 173 0
155 176 0
157 177 0
154 175 0
150 169 0
152 172 0
145 165 0
148 168 0
145 164 0
150 170 0
150 171 0
157 178 0
155 176 0
156 176 0
160 182 0
156 176 0
147 168 0
152 171 0
145 166 0
160 180 0
152 173 0
148 167 0
157 177 0
151 173 0
159 178 0
155 175 0
157 177 0
146 166 0
155 175 0
143 160 0
152 171 0
157 178 0
146 166 0
146 164 0
148 167 0
157 177 0
157 178 0
151 172 0
147 166 0
153 173 0
152 173 0
152 173 0
158 178 0
156 177 0
153 172 0
157 177 0
156 176 0
152 170 0
146 165 0
152 171 0
157 178 0
156 176 0
157 175 0
158 177 0
152 170 0
153 172 0
150 169 0
158 175 0
150 169 0
151 169 0
158 177 0
160 179 0
147 166 0
158 178 0
153 171 0
157 176 0
147 165 0
148 166 0
153 171 0
146 165 0
152 171 0
150 167 0
152 172 0
151 170 0
158 177 0
160 179 0
152 169 0
150 167 0
158 174 0
157 176 0
147 165 0
159 179 0
150 167 0
150 167 0
159 177 0
146 163 0
152 170 0
150 168 0
154 171 0
158 177 0
161 179 0
156 174 0
157 175 0
159 180 0
161 179 0
157 172 0
154 171 0
155 173 0
153 169 0
149 167 0
152 168 0
155 171 0
151 169 0
151 165 0
155 171 0
159 174 0
155 170 0
149 163 0
147 162 0
155 172 0
153 169 0
151 167 0
151 167 0
158 175 0
146 163 0
157 172 0
152 169 0
157 172 0
157 174 0
151 165 0
156 173 0
147 160 0
154 170 0
157 174 0
151 165 0
157 173 0
155 172 0
149 163 0
148 163 0
155 172 0
158 175 0
158 171 0
155 167 0
157 172 0
155 172 0
158 171 0
151 164 0
156 170 0
160 176 0
155 170 0
155 169 0
153 169 0
154 168 0
152 167 0
155 168 0
150 163 0
159 176 0
150 162 0
153 168 0
153 168 0
160 174 0
171 195 0
172 195 0
168 191 0
171 194 0
168 192 0
171 195 0
168 191 0
169 192 0
169 192 0
172 194 0
172 194 0
173 196 0
172 194 0
170 193 0
172 195 0
172 195 0
170 193 0
167 190 0
168 192 0
166 190 0
176 198 0
165 188 0
169 191 0
171 193 0
168 191 0
168 191 0
172 194 0
173 196 0
170 192 0
171 193 0
168 191 0
171 193 0
168 191 0
167 190 0
169 192 0
168 190 0
168 191 0
169 192 0
170 193 0
169 192 0
167 190 0
166 188 0
166 188 0
169 192 0
169 192 0
160 183 0
165 188 0
167 189 0
173 195 0
167 190 0
168 191 0
166 189 0
165 188 0
165 189 0
168 190 0
165 188 0
168 190 0
168 190 0
163 187 0
167 190 0
170 192 0
164 188 0
164 186 0
167 189 0
167 190 0
171 194 0
165 189 0
162 184 0
165 188 0
168 191 0
167 190 0
165 189 0
164 187 0
161 185 0
168 190 0
161 185 0
166 188 0
168 191 0
161 183 0
167 190 0
164 186 0
168 190 0
164 187 0
159 182 0
161 184 0
162 185 0
164 187 0
164 187 0
163 185 0
162 184 0
164 186 0
161 184 0
159 181 0
162 185 0
159 182 0
173 194 0
166 189 0
165 188 0
162 183 0
162 185 0
162 185 0
155 178 0
167 190 0
161 183 0
163 184 0
156 179 0
158 181 0
158 180 0
162 186 0
168 190 0
162 185 0
166 188 0
163 185 0
159 181 0
158 180 0
161 184 0
159 181 0
163 184 0
161 183 0
159 181 0
163 186 0
157 179 0
159 182 0
160 183 0
168 190 0
160 183 0
158 180 0
158 180 0
167 188 0
160 182 0
157 179 0
165 188 0
154 176 0
162 185 0
165 187 0
158 180 0
153 175 0
158 180 0
167 190 0
157 179 0
161 184 0
159 182 0
157 179 0
160 182 0
156 177 0
156 178 0
160 181 0
157 179 0
154 177 0
159 181 0
155 176 0
161 183 0
158 181 0
165 187 0
157 179 0
159 182 0
157 179 0
163 186 0
157 180 0
158 179 0
150 172 0
158 179 0
160 181 0
163 186 0
145 166 0
154 175 0
157 180 0
158 180 0
155 177 0
155 178 0
146 168 0
158 180 0
155 178 0
159 181 0
160 182 0
156 177 0
155 175 0
152 174 0
153 175 0
155 177 0
155 178 0
157 178 0
158 180 0
154 175 0
160 182 0
149 171 0
152 173 0
155 175 0
144 165 0
157 179 0
157 179 0
149 171 0
159 180 0
156 178 0
156 179 0
160 180 0
147 168 0
154 177 0
159 180 0
151 172 0
153 176 0
159 182 0
160 181 0
154 175 0
152 174 0
158 180 0
158 180 0
154 176 0
150 171 0
151 172 0
147 169 0
157 178 0
149 169 0
150 172 0
159 181 0
159 181 0
155 175 0
149 170 0
153 174 0
153 174 0
152 174 0
150 172 0
150 171 0
153 175 0
144 166 0
149 171 0
152 172 0
150 171 0
152 172 0
146 166 0
160 181 0
157 177 0
153 176 0
155 176 0
157 178 0
154 176 0
148 169 0
157 177 0
154 174 0
149 171 0
148 167 0
154 175 0
155 175 0
153 175 0
148 168 0
151 170 0
150 172 0
153 174 0
154 173 0
156 177 0
155 175 0
158 179 0
150 170 0
155 174 0
156 176 0
149 169 0
144 165 0
146 166 0
151 172 0
143 164 0
157 178 0
143 162 0
153 174 0
156 178 0
155 176 0
154 173 0
162 181 0
151 172 0
146 163 0
157 180 0
143 162 0
159 181 0
155 174 0
159 180 0
154 174 0
155 175 0
149 169 0
152 172 0
155 175 0
159 180 0
158 178 0
149 169 0
146 167 0
157 177 0
157 178 0
154 175 0
150 168 0
145 164 0
157 177 0
157 177 0
156 176 0
148 168 0
153 170 0
152 172 0
157 177 0
152 170 0
159 178 0
146 166 0
157 178 0
159 179 0
154 172 0
151 169 0
154 174 0
154 173 0
150 169 0
140 157 0
149 168 0
154 174 0
152 171 0
159 177 0
150 169 0
149 169 0
158 177 0
149 167 0
151 171 0
155 174 0
145 163 0
155 174 0
152 169 0
154 172 0
150 170 0
149 168 0
156 174 0
156 174 0
157 177 0
159 178 0
160 177 0
154 170 0
156 174 0
154 172 0
157 174 0
152 167 0
156 174 0
153 171 0
150 166 0
153 172 0
160 178 0
162 180 0
152 171 0
147 164 0
154 171 0
154 171 0
157 175 0
155 172 0
147 163 0
149 165 0
154 171 0
160 178 0
153 170 0
152 168 0
161 179 0
157 173 0
152 166 0
152 167 0
159 175 0
155 169 0
157 174 0
152 168 0
152 169 0
151 167 0
150 164 0
156 172 0
150 165 0
157 174 0
157 175 0
151 165 0
156 171 0
151 166 0
151 167 0
153 167 0
149 165 0
159 173 0
156 171 0
153 170 0
153 169 0
154 170 0
153 169 0
150 164 0
150 163 0
152 166 0
155 171 0
155 171 0
156 168 0
161 176 0
156 174 0
156 173 0
160 174 0
157 174 0
152 166 0
154 170 0
157 173 0
150 161 0
154 166 0
156 172 0
156 171 0
156 171 0
156 170 0
155 171 0
153 167 0
159 171 0
170 193 0
172 195 0
170 192 0
170 193 0
167 190 0
173 196 0
173 196 0
168 191 0
173 196 0
172 195 0
172 194 0
170 192 0
173 195 0
170 193 0
169 192 0
168 192 0
169 191 0
170 194 0
170 193 0
166 189 0
175 197 0
170 193 0
168 190 0
168 191 0
172 195 0
169 192 0
171 194 0
170 193 0
167 190 0
172 195 0
171 193 0
167 190 0
168 191 0
163 186 0
165 187 0
168 190 0
168 191 0
166 189 0
165 188 0
168 192 0
171 194 0
166 189 0
170 193 0
167 190 0
171 193 0
167 190 0
169 193 0
170 193 0
168 191 0
166 189 0
168 190 0
166 189 0
164 186 0
168 191 0
167 190 0
168 191 0
163 186 0
161 184 0
171 194 0
161 184 0
166 188 0
165 188 0
172 194 0
164 186 0
167 190 0
170 192 0
167 190 0
166 187 0
168 190 0
171 193 0
165 187 0
165 187 0
171 193 0
166 189 0
162 184 0
162 184 0
162 185 0
163 185 0
164 187 0
161 184 0
165 187 0
166 188 0
165 188 0
170 192 0
163 186 0
167 189 0
167 189 0
158 181 0
160 183 0
159 180 0
162 185 0
164 186 0
164 186 0
155 177 0
167 191 0
163 187 0
162 184 0
162 184 0
168 190 0
166 188 0
161 184 0
166 188 0
163 185 0
164 186 0
165 187 0
165 186 0
165 188 0
165 188 0
168 189 0
160 182 0
159 181 0
162 184 0
162 186 0
160 183 0
163 184 0
161 184 0
157 180 0
161 183 0
154 177 0
160 182 0
157 178 0
156 178 0
161 183 0
164 187 0
162 184 0
159 181 0
158 181 0
161 183 0
163 186 0
160 183 0
155 177 0
158 180 0
160 183 0
162 185 0
159 181 0
160 181 0
158 178 0
153 175 0
153 175 0
158 179 0
155 177 0
155 177 0
156 178 0
156 178 0
163 186 0
157 179 0
153 175 0
161 183 0
157 180 0
158 180 0
161 184 0
160 182 0
159 181 0
155 177 0
160 182 0
159 182 0
157 179 0
157 179 0
151 174 0
153 174 0
160 182 0
152 172 0
157 179 0
158 181 0
150 173 0
155 177 0
154 177 0
158 179 0
149 171 0
149 171 0
159 180 0
152 175 0
158 180 0
163 186 0
156 178 0
156 176 0
158 180 0
152 174 0
158 180 0
151 172 0
153 174 0
160 183 0
156 177 0
153 175 0
154 176 0
156 178 0
153 175 0
158 180 0
156 178 0
142 163 0
152 173 0
148 168 0
153 174 0
153 175 0
159 181 0
157 180 0
153 176 0
159 181 0
153 174 0
154 176 0
157 179 0
157 179 0
156 177 0
147 168 0
146 167 0
149 170 0
153 174 0
153 174 0
155 177 0
156 178 0
154 176 0
161 180 0
154 176 0
152 173 0
157 178 0
149 171 0
153 176 0
152 174 0
153 175 0
147 168 0
157 180 0
154 176 0
155 176 0
157 178 0
154 175 0
155 178 0
151 171 0
149 169 0
150 171 0
155 177 0
146 168 0
152 175 0
152 172 0
159 181 0
154 176 0
154 175 0
156 177 0
151 172 0
157 178 0
154 176 0
149 169 0
149 170 0
154 176 0
150 169 0
148 169 0
153 174 0
151 172 0
146 167 0
159 179 0
161 183 0
150 172 0
147 168 0
155 176 0
149 171 0
153 173 0
145 166 0
158 180 0
149 169 0
154 176 0
157 179 0
156 177 0
151 171 0
157 178 0
155 174 0
153 175 0
151 171 0
151 173 0
152 173 0
148 167 0
152 172 0
157 177 0
153 172 0
149 170 0
153 172 0
156 177 0
153 173 0
148 168 0
146 167 0
157 178 0
152 170 0
154 173 0
155 175 0
150 171 0
157 176 0
158 178 0
150 171 0
157 176 0
155 176 0
159 179 0
146 165 0
159 178 0
157 175 0
155 174 0
154 174 0
155 173 0
144 159 0
143 162 0
157 178 0
150 167 0
148 169 0
152 172 0
149 167 0
153 171 0
150 166 0
146 165 0
158 178 0
151 171 0
145 164 0
156 176 0
159 180 0
155 175 0
153 170 0
152 170 0
157 176 0
155 174 0
151 169 0
155 174 0
158 177 0
152 169 0
149 169 0
154 173 0
148 165 0
150 167 0
157 176 0
155 174 0
152 170 0
154 172 0
156 175 0
151 168 0
145 164 0
153 170 0
151 169 0
150 167 0
156 176 0
154 172 0
153 171 0
153 172 0
151 168 0
154 172 0
152 170 0
154 171 0
154 172 0
153 171 0
160 178 0
150 166 0
156 175 0
154 172 0
155 171 0
157 176 0
147 163 0
152 169 0
147 164 0
157 174 0
155 172 0
151 169 0
156 173 0
158 177 0
155 171 0
155 172 0
149 165 0
150 166 0
162 180 0
150 165 0
158 175 0
159 176 0
157 173 0
151 166 0
152 171 0
149 164 0
150 165 0
151 164 0
157 176 0
152 168 0
152 169 0
160 172 0
155 171 0
152 169 0
158 174 0
156 172 0
156 170 0
156 169 0
162 178 0
154 171 0
156 171 0
154 169 0
158 172 0
161 176 0
156 172 0
161 180 0
158 171 0
155 171 0
161 174 0
148 163 0
158 173 0
159 177 0
154 170 0
157 172 0
156 171 0
159 174 0
159 175 0
